<?xml version="1.0" encoding="UTF-8"?>
<map version="1.10" tiledversion="1.12.2" orientation="orthogonal" renderorder="right-down" width="80" height="45" tilewidth="24" tileheight="24" infinite="0" nextlayerid="7" nextobjectid="59">
 <imagelayer id="2" name="background" locked="1">
  <image source="대인응대_상담·안내·중개응대.png" width="1920" height="1080"/>
 </imagelayer>
 <objectgroup id="3" name="play_bounds" locked="1">
  <object id="1" x="70" y="80" width="1780" height="656"/>
  <object id="2" x="70" y="80" width="1780" height="656"/>
 </objectgroup>
 <objectgroup id="4" name="walkable" locked="1">
  <object id="3" x="70" y="80" width="1780" height="656"/>
 </objectgroup>
 <objectgroup id="5" name="collision" locked="1">
  <object id="4" x="82.4706" y="106.481" width="205.655" height="90.8221"/>
  <object id="5" x="412.353" y="100.217" width="298.565" height="81.4267"/>
  <object id="6" x="720.313" y="109.613" width="159.722" height="64.7238"/>
  <object id="7" x="1009.48" y="100.217" width="176.425" height="74.1192"/>
  <object id="8" x="1254.81" y="112.745" width="189.996" height="65.7677"/>
  <object id="9" x="1584.69" y="113.789" width="198.347" height="66.8117"/>
  <object id="10" x="1819.57" y="147.194" width="20.8786" height="49.0648"/>
  <object id="11" x="1756.94" y="205.655" width="54.2845" height="137.799"/>
  <object id="12" x="1609.74" y="182.688" width="30.274" height="25.0544"/>
  <object id="13" x="1569.03" y="167.029" width="19.8347" height="43.8452"/>
  <object id="14" x="129.448" y="227.577" width="98.1296" height="119.008"/>
  <object id="15" x="272.466" y="263.071" width="27.1422" height="126.316"/>
  <object id="16" x="454.11" y="239.06" width="776.686" height="112.745"/>
  <object id="17" x="574.163" y="219.226" width="19.8347" height="20.8786"/>
  <object id="18" x="852.893" y="212.962" width="18.7908" height="24.0104"/>
  <object id="19" x="1104.48" y="214.006" width="17.7468" height="22.9665"/>
  <object id="20" x="1222.44" y="282.906" width="32.3619" height="79.3388"/>
  <object id="21" x="417.573" y="289.169" width="48.0209" height="82.4706"/>
  <object id="22" x="510.483" y="348.673" width="714.05" height="40.7134"/>
  <object id="23" x="1344.58" y="247.412" width="168.073" height="151.37"/>
  <object id="24" x="1523.1" y="341.366" width="22.9665" height="41.7573"/>
  <object id="25" x="1582.6" y="351.805" width="46.9769" height="44.8891"/>
  <object id="26" x="1634.8" y="383.123" width="17.7468" height="178.512"/>
  <object id="27" x="1648.37" y="533.449" width="194.171" height="36.5376"/>
  <object id="28" x="1691.17" y="414.441" width="83.5146" height="81.4267"/>
  <object id="29" x="1817.49" y="373.728" width="16.7029" height="59.5041"/>
  <object id="30" x="1345.63" y="520.922" width="221.314" height="112.745"/>
  <object id="31" x="1339.36" y="558.504" width="52.1966" height="57.4163"/>
  <object id="32" x="1125.36" y="470.813" width="162.853" height="84.5585"/>
  <object id="33" x="654.545" y="520.922" width="48.0209" height="91.866"/>
  <object id="34" x="733.884" y="504.219" width="18.7908" height="114.833"/>
  <object id="35" x="777.729" y="505.263" width="57.4163" height="109.613"/>
  <object id="36" x="865.42" y="516.746" width="50.1087" height="111.701"/>
  <object id="37" x="952.066" y="508.395" width="20.8786" height="101.261"/>
  <object id="38" x="995.911" y="510.483" width="49.0648" height="92.91"/>
  <object id="39" x="648.282" y="667.073" width="424.88" height="38.6255"/>
  <object id="40" x="392.518" y="438.452" width="66.8117" height="138.843"/>
  <object id="41" x="373.728" y="544.933" width="12.5272" height="67.8556"/>
  <object id="42" x="495.868" y="501.087" width="31.318" height="99.1736"/>
  <object id="43" x="112.745" y="452.023" width="170.161" height="65.7677"/>
  <object id="44" x="123.184" y="576.251" width="98.1296" height="155.546"/>
  <object id="45" x="273.51" y="523.01" width="16.7029" height="129.448"/>
  <object id="47" x="269.334" y="700.478" width="22.9665" height="27.1422"/>
  <object id="48" x="1194.26" y="715.094" width="408.177" height="17.7468"/>
  <object id="49" x="1629.58" y="649.326" width="32.3619" height="76.207"/>
  <object id="50" x="1651.5" y="657.677" width="212.962" height="67.8556"/>
  <object id="52" x="1845.67" y="552.24" width="15.659" height="132.579"/>
  <object id="53" x="1573.21" y="102.305" width="12.5272" height="55.3284"/>
  <object id="54" x="1592" y="94.9978" width="184.776" height="40.7134"/>
 </objectgroup>
 <objectgroup id="6" name="spawns" locked="1">
  <object id="55" name="player" x="646.194" y="469.769">
   <point/>
  </object>
  <object id="56" name="사수" x="1026.19" y="455.154">
   <point/>
  </object>
  <object id="57" name="부장" x="1161.9" y="661.853">
   <point/>
  </object>
  <object id="58" name="팀장" x="1499.09" y="458.286">
   <point/>
  </object>
 </objectgroup>
</map>
