<?xml version="1.0" encoding="UTF-8"?>
<map version="1.10" tiledversion="1.12.2" orientation="orthogonal" renderorder="right-down" width="80" height="45" tilewidth="24" tileheight="24" infinite="0" nextlayerid="7" nextobjectid="32">
 <imagelayer id="2" name="background" locked="1">
  <image source="마케팅_전략_운영실_전경.png" width="1920" height="1080"/>
 </imagelayer>
 <objectgroup id="3" name="play_bounds" locked="1">
  <object id="1" name="main_play_area" x="70" y="80" width="1780" height="656"/>
 </objectgroup>
 <objectgroup id="4" name="walkable" locked="1">
  <object id="2" name="walkable" x="70" y="80" width="1780" height="656"/>
 </objectgroup>
 <objectgroup id="5" name="collision" locked="1">
  <object id="3" x="407.902" y="84.9027" width="538.947" height="164.268"/>
  <object id="4" x="260.245" y="208.565" width="59.0627" height="47.9885"/>
  <object id="5" x="180.88" y="204.874" width="55.3713" height="40.6056"/>
  <object id="6" x="114.434" y="138.428" width="121.817" height="18.4571"/>
  <object id="7" x="97.8226" y="160.577" width="33.2228" height="132.891"/>
  <object id="8" x="97.8226" y="84.9027" width="247.325" height="46.1428"/>
  <object id="9" x="131.045" y="273.165" width="121.817" height="29.5314"/>
  <object id="10" x="75.6741" y="289.776" width="269.474" height="131.045"/>
  <object id="11" x="313.771" y="487.267" width="18.4571" height="208.565"/>
  <object id="12" x="81.2112" y="489.113" width="223.331" height="112.588"/>
  <object id="13" x="424.513" y="509.416" width="263.937" height="92.2855"/>
  <object id="14" x="778.89" y="490.959" width="293.468" height="125.508"/>
  <object id="15" x="411.593" y="313.771" width="544.484" height="119.971"/>
  <object id="16" x="994.838" y="92.2855" width="11.0743" height="251.017"/>
  <object id="17" x="1005.91" y="302.696" width="40.6056" height="33.2228"/>
  <object id="18" x="1210.79" y="302.696" width="57.217" height="38.7599"/>
  <object id="19" x="1247.7" y="95.9769" width="14.7657" height="219.64"/>
  <object id="20" x="1055.75" y="193.8" width="142.12" height="73.8284"/>
  <object id="21" x="1011.45" y="81.2112" width="236.251" height="75.6741"/>
  <object id="22" x="1262.47" y="337.765" width="278.702" height="103.36"/>
  <object id="23" x="1220.01" y="496.496" width="370.988" height="101.514"/>
  <object id="24" x="1323.37" y="107.051" width="299.005" height="149.503"/>
  <object id="25" x="1648.22" y="103.36" width="88.5941" height="219.64"/>
  <object id="26" x="1677.75" y="367.296" width="55.3713" height="341.456"/>
  <object id="27" x="319.308" y="693.987" width="1365.83" height="38.7599"/>
 </objectgroup>
 <objectgroup id="6" name="spawn" locked="1">
  <object id="28" name="player" x="1310.45" y="620.159">
   <point/>
  </object>
  <object id="29" name="sasu" x="1502.41" y="618.313">
   <point/>
  </object>
  <object id="30" name="teamjang" x="852.718" y="651.536">
   <point/>
  </object>
  <object id="31" name="bujang" x="629.387" y="280.548">
   <point/>
  </object>
 </objectgroup>
</map>
