<?xml version="1.0" encoding="UTF-8"?>
<map version="1.10" tiledversion="1.12.2" orientation="orthogonal" renderorder="right-down" width="80" height="45" tilewidth="24" tileheight="24" infinite="0" nextlayerid="7" nextobjectid="66">
 <imagelayer id="2" name="background" locked="1">
  <image source="현대 문서 및 기록 관리 사무실.png" width="1920" height="1080"/>
 </imagelayer>
 <objectgroup id="3" name="player_bounds" locked="1">
  <object id="1" x="70" y="80" width="1780" height="656"/>
 </objectgroup>
 <objectgroup id="5" name="walkable" locked="1">
  <object id="57" x="70" y="80" width="1780" height="656"/>
 </objectgroup>
 <objectgroup id="4" name="collision">
  <object id="4" x="70.953" y="79.8222" width="129.711" height="136.363"/>
  <object id="5" x="74.279" y="222.837" width="106.43" height="511.084"/>
  <object id="6" x="262.748" y="151.884" width="22.1728" height="57.6493"/>
  <object id="7" x="281.595" y="105.321" width="14.4123" height="250.553"/>
  <object id="8" x="302.659" y="110.864" width="54.3234" height="125.276"/>
  <object id="9" x="319.289" y="272.726" width="396.893" height="80.9308"/>
  <object id="10" x="456.76" y="109.755" width="272.726" height="107.538"/>
  <object id="11" x="719.508" y="202.881" width="14.4123" height="151.884"/>
  <object id="12" x="730.594" y="108.647" width="899.108" height="90.9086"/>
  <object id="13" x="1382.48" y="220.62" width="176.274" height="105.321"/>
  <object id="14" x="1617.51" y="205.099" width="16.6296" height="180.708"/>
  <object id="15" x="1526.6" y="351.439" width="92.0172" height="27.716"/>
  <object id="16" x="1318.17" y="199.555" width="12.1951" height="172.948"/>
  <object id="17" x="1334.8" y="349.222" width="76.4962" height="23.2815"/>
  <object id="18" x="482.259" y="421.284" width="31.0419" height="82.0394"/>
  <object id="19" x="512.192" y="403.545" width="210.642" height="85.3654"/>
  <object id="20" x="728.377" y="424.61" width="38.8024" height="64.3012"/>
  <object id="21" x="787.135" y="202.881" width="175.165" height="70.953"/>
  <object id="22" x="985.582" y="199.555" width="178.491" height="34.3679"/>
  <object id="23" x="742.79" y="201.773" width="26.6074" height="25.4987"/>
  <object id="24" x="814.851" y="405.763" width="281.595" height="90.9086"/>
  <object id="25" x="1105.32" y="431.261" width="34.3679" height="54.3234"/>
  <object id="26" x="1195.12" y="401.328" width="189.578" height="100.886"/>
  <object id="27" x="1393.56" y="422.392" width="34.3679" height="76.4962"/>
  <object id="28" x="196.229" y="393.568" width="28.8247" height="38.8024"/>
  <object id="29" x="293.79" y="404.654" width="12.1951" height="84.2567"/>
  <object id="30" x="309.311" y="444.565" width="6.65185" height="55.4321"/>
  <object id="31" x="188.469" y="445.674" width="110.864" height="49.8888"/>
  <object id="32" x="192.904" y="525.496" width="41.0197" height="146.341"/>
  <object id="33" x="289.355" y="548.777" width="36.5852" height="104.212"/>
  <object id="34" x="196.229" y="677.38" width="42.1284" height="70.953"/>
  <object id="36" x="293.79" y="703.987" width="34.3679" height="34.3679"/>
  <object id="37" x="474.498" y="587.58" width="33.2592" height="79.8222"/>
  <object id="38" x="516.627" y="567.624" width="206.207" height="101.995"/>
  <object id="39" x="732.812" y="594.232" width="32.1506" height="64.3012"/>
  <object id="40" x="818.177" y="577.602" width="293.79" height="84.2567"/>
  <object id="41" x="1113.08" y="605.318" width="28.8247" height="47.6716"/>
  <object id="42" x="1190.68" y="572.059" width="190.686" height="99.7777"/>
  <object id="43" x="1389.13" y="598.666" width="42.1284" height="74.279"/>
  <object id="44" x="1657.42" y="151.884" width="33.2592" height="108.647"/>
  <object id="45" x="1660.74" y="302.659" width="76.4962" height="186.252"/>
  <object id="46" x="1818.17" y="465.629" width="36.5852" height="169.622"/>
  <object id="47" x="1603.09" y="411.306" width="124.168" height="101.995"/>
  <object id="49" x="1569.84" y="590.906" width="114.19" height="98.6691"/>
  <object id="50" x="1686.24" y="555.429" width="47.6716" height="120.842"/>
  <object id="51" x="1725.05" y="485.585" width="12.1951" height="83.1481"/>
  <object id="52" x="1607.53" y="567.624" width="37.6938" height="34.3679"/>
  <object id="53" x="529.93" y="718.399" width="212.859" height="34.3679"/>
  <object id="54" x="965.626" y="723.943" width="339.244" height="67.6271"/>
  <object id="55" x="1808.19" y="79.8222" width="43.237" height="100.886"/>
  <object id="56" x="1819.28" y="185.143" width="47.6716" height="180.708"/>
  <object id="63" x="1820.39" y="637.469" width="26.6074" height="100.886"/>
  <object id="64" x="1686.24" y="671.836" width="52.1061" height="76.4962"/>
  <object id="65" x="1728.37" y="128.602" width="8.86909" height="175.165"/>
 </objectgroup>
 <objectgroup id="6" name="spawns" locked="1">
  <object id="59" name="부장" x="419.066" y="496.671">
   <point/>
  </object>
  <object id="60" name="팀장" x="871.392" y="312.637">
   <point/>
  </object>
  <object id="61" name="player" x="1156.31" y="405.763">
   <point/>
  </object>
  <object id="62" name="사수" x="1593.12" y="309.311">
   <point/>
  </object>
 </objectgroup>
</map>
