<?xml version="1.0" encoding="UTF-8"?>
<map version="1.10" tiledversion="1.12.2" orientation="orthogonal" renderorder="right-down" width="240" height="135" tilewidth="8" tileheight="8" infinite="0" nextlayerid="99" nextobjectid="291">
 <imagelayer id="90" name="background">
  <image source="kts-03.png" width="1920" height="1080"/>
 </imagelayer>
 <objectgroup id="290" name="walkable">
  <object id="1" x="1248" y="120" width="104" height="32"/>
  <object id="2" x="1288" y="152" width="64" height="128"/>
  <object id="3" x="1488" y="192" width="64" height="88"/>
  <object id="4" x="1472" y="200" width="16" height="72"/>
  <object id="5" x="1552" y="200" width="16" height="352"/>
  <object id="6" x="1424" y="240" width="48" height="32"/>
  <object id="7" x="704" y="248" width="32" height="184"/>
  <object id="8" x="792" y="248" width="496" height="56"/>
  <object id="9" x="1568" y="248" width="24" height="304"/>
  <object id="10" x="736" y="264" width="56" height="168"/>
  <object id="11" x="1592" y="272" width="16" height="280"/>
  <object id="12" x="1648" y="272" width="32" height="168"/>
  <object id="13" x="456" y="280" width="32" height="152"/>
  <object id="14" x="672" y="280" width="32" height="152"/>
  <object id="15" x="1288" y="280" width="56" height="184"/>
  <object id="16" x="1496" y="280" width="56" height="32"/>
  <object id="17" x="1608" y="280" width="8" height="272"/>
  <object id="18" x="1640" y="280" width="8" height="272"/>
  <object id="19" x="296" y="288" width="160" height="144"/>
  <object id="20" x="488" y="288" width="8" height="560"/>
  <object id="21" x="1616" y="288" width="24" height="264"/>
  <object id="22" x="792" y="304" width="16" height="128"/>
  <object id="23" x="1240" y="304" width="48" height="160"/>
  <object id="24" x="1504" y="312" width="48" height="88"/>
  <object id="25" x="496" y="320" width="24" height="528"/>
  <object id="26" x="640" y="320" width="32" height="112"/>
  <object id="27" x="520" y="328" width="32" height="520"/>
  <object id="28" x="608" y="328" width="32" height="104"/>
  <object id="29" x="552" y="336" width="56" height="96"/>
  <object id="30" x="1368" y="336" width="56" height="112"/>
  <object id="31" x="808" y="344" width="24" height="304"/>
  <object id="32" x="1216" y="344" width="24" height="120"/>
  <object id="33" x="1344" y="344" width="24" height="104"/>
  <object id="34" x="288" y="360" width="8" height="536"/>
  <object id="35" x="832" y="368" width="384" height="96"/>
  <object id="36" x="1504" y="424" width="48" height="128"/>
  <object id="37" x="296" y="432" width="64" height="8"/>
  <object id="38" x="464" y="432" width="24" height="8"/>
  <object id="39" x="552" y="432" width="40" height="16"/>
  <object id="40" x="800" y="432" width="8" height="216"/>
  <object id="41" x="1424" y="432" width="80" height="16"/>
  <object id="42" x="296" y="440" width="56" height="8"/>
  <object id="43" x="472" y="440" width="16" height="8"/>
  <object id="44" x="1648" y="440" width="24" height="8"/>
  <object id="45" x="296" y="448" width="48" height="16"/>
  <object id="46" x="480" y="448" width="8" height="400"/>
  <object id="47" x="552" y="448" width="32" height="512"/>
  <object id="48" x="1344" y="448" width="8" height="248"/>
  <object id="49" x="1432" y="448" width="72" height="104"/>
  <object id="50" x="1648" y="448" width="16" height="8"/>
  <object id="51" x="1648" y="456" width="8" height="96"/>
  <object id="52" x="296" y="464" width="40" height="224"/>
  <object id="53" x="832" y="464" width="144" height="8"/>
  <object id="54" x="1320" y="464" width="24" height="232"/>
  <object id="55" x="832" y="472" width="136" height="176"/>
  <object id="56" x="1352" y="472" width="64" height="232"/>
  <object id="57" x="584" y="480" width="8" height="480"/>
  <object id="58" x="336" y="504" width="8" height="160"/>
  <object id="59" x="280" y="520" width="8" height="376"/>
  <object id="60" x="344" y="536" width="8" height="128"/>
  <object id="61" x="352" y="544" width="8" height="120"/>
  <object id="62" x="456" y="544" width="24" height="120"/>
  <object id="63" x="360" y="552" width="8" height="112"/>
  <object id="64" x="1416" y="552" width="80" height="184"/>
  <object id="65" x="368" y="560" width="88" height="104"/>
  <object id="66" x="592" y="560" width="208" height="88"/>
  <object id="67" x="1312" y="576" width="8" height="120"/>
  <object id="68" x="1304" y="584" width="8" height="112"/>
  <object id="69" x="264" y="592" width="16" height="240"/>
  <object id="70" x="968" y="592" width="336" height="104"/>
  <object id="71" x="592" y="648" width="64" height="16"/>
  <object id="72" x="840" y="648" width="128" height="8"/>
  <object id="73" x="856" y="656" width="112" height="8"/>
  <object id="74" x="472" y="664" width="8" height="184"/>
  <object id="75" x="592" y="664" width="56" height="24"/>
  <object id="76" x="864" y="664" width="104" height="272"/>
  <object id="77" x="1496" y="664" width="16" height="72"/>
  <object id="78" x="1512" y="680" width="8" height="56"/>
  <object id="79" x="296" y="688" width="32" height="16"/>
  <object id="80" x="592" y="688" width="48" height="272"/>
  <object id="81" x="1520" y="688" width="208" height="48"/>
  <object id="82" x="968" y="696" width="32" height="8"/>
  <object id="83" x="296" y="704" width="24" height="192"/>
  <object id="84" x="968" y="704" width="24" height="232"/>
  <object id="85" x="1360" y="704" width="56" height="240"/>
  <object id="86" x="640" y="720" width="8" height="240"/>
  <object id="87" x="1416" y="736" width="24" height="208"/>
  <object id="88" x="1552" y="736" width="176" height="40"/>
  <object id="89" x="256" y="768" width="8" height="64"/>
  <object id="90" x="464" y="768" width="8" height="80"/>
  <object id="91" x="648" y="768" width="8" height="192"/>
  <object id="92" x="856" y="768" width="8" height="168"/>
  <object id="93" x="656" y="776" width="8" height="184"/>
  <object id="94" x="840" y="776" width="16" height="160"/>
  <object id="95" x="1696" y="776" width="32" height="168"/>
  <object id="96" x="664" y="784" width="8" height="176"/>
  <object id="97" x="832" y="784" width="8" height="152"/>
  <object id="98" x="320" y="792" width="144" height="56"/>
  <object id="99" x="672" y="792" width="160" height="144"/>
  <object id="100" x="992" y="816" width="8" height="120"/>
  <object id="101" x="1000" y="824" width="360" height="112"/>
  <object id="102" x="272" y="832" width="8" height="64"/>
  <object id="103" x="1440" y="840" width="8" height="104"/>
  <object id="104" x="320" y="848" width="48" height="16"/>
  <object id="105" x="320" y="864" width="40" height="32"/>
  <object id="106" x="1448" y="872" width="248" height="72"/>
  <object id="107" x="1728" y="872" width="8" height="72"/>
  <object id="108" x="672" y="936" width="96" height="8"/>
  <object id="109" x="1056" y="936" width="304" height="8"/>
  <object id="110" x="672" y="944" width="72" height="16"/>
 </objectgroup>
 <objectgroup id="291" name="collision">
  <object id="111" x="1240" y="112" width="120" height="8"/>
  <object id="112" x="1240" y="120" width="8" height="40"/>
  <object id="113" x="1352" y="120" width="8" height="168"/>
  <object id="114" x="1248" y="152" width="40" height="8"/>
  <object id="115" x="1280" y="160" width="8" height="88"/>
  <object id="116" x="1480" y="184" width="80" height="8"/>
  <object id="117" x="1464" y="192" width="24" height="8"/>
  <object id="118" x="1552" y="192" width="24" height="8"/>
  <object id="119" x="1464" y="200" width="8" height="40"/>
  <object id="120" x="1568" y="200" width="8" height="48"/>
  <object id="121" x="1416" y="232" width="48" height="8"/>
  <object id="122" x="696" y="240" width="48" height="8"/>
  <object id="123" x="784" y="240" width="496" height="8"/>
  <object id="124" x="1416" y="240" width="8" height="40"/>
  <object id="125" x="1576" y="240" width="24" height="8"/>
  <object id="126" x="696" y="248" width="8" height="32"/>
  <object id="127" x="736" y="248" width="8" height="16"/>
  <object id="128" x="784" y="248" width="8" height="16"/>
  <object id="129" x="1592" y="248" width="8" height="24"/>
  <object id="130" x="744" y="256" width="40" height="8"/>
  <object id="131" x="1600" y="264" width="16" height="8"/>
  <object id="132" x="1640" y="264" width="48" height="8"/>
  <object id="133" x="448" y="272" width="48" height="8"/>
  <object id="134" x="664" y="272" width="32" height="8"/>
  <object id="135" x="1424" y="272" width="64" height="8"/>
  <object id="136" x="1608" y="272" width="16" height="8"/>
  <object id="137" x="1632" y="272" width="16" height="8"/>
  <object id="138" x="1680" y="272" width="8" height="176"/>
  <object id="139" x="288" y="280" width="168" height="8"/>
  <object id="140" x="488" y="280" width="16" height="8"/>
  <object id="141" x="664" y="280" width="8" height="40"/>
  <object id="142" x="1344" y="280" width="8" height="64"/>
  <object id="143" x="1480" y="280" width="16" height="8"/>
  <object id="144" x="1616" y="280" width="24" height="8"/>
  <object id="145" x="288" y="288" width="8" height="72"/>
  <object id="146" x="496" y="288" width="8" height="32"/>
  <object id="147" x="1488" y="288" width="8" height="32"/>
  <object id="148" x="808" y="304" width="432" height="8"/>
  <object id="149" x="504" y="312" width="24" height="8"/>
  <object id="150" x="632" y="312" width="32" height="8"/>
  <object id="151" x="808" y="312" width="8" height="32"/>
  <object id="152" x="1232" y="312" width="8" height="32"/>
  <object id="153" x="1496" y="312" width="8" height="96"/>
  <object id="154" x="520" y="320" width="40" height="8"/>
  <object id="155" x="600" y="320" width="40" height="8"/>
  <object id="156" x="552" y="328" width="56" height="8"/>
  <object id="157" x="1360" y="328" width="72" height="8"/>
  <object id="158" x="816" y="336" width="24" height="8"/>
  <object id="159" x="1208" y="336" width="24" height="8"/>
  <object id="160" x="1352" y="336" width="16" height="8"/>
  <object id="161" x="1424" y="336" width="8" height="96"/>
  <object id="162" x="832" y="344" width="8" height="24"/>
  <object id="163" x="1208" y="344" width="8" height="24"/>
  <object id="164" x="280" y="352" width="8" height="168"/>
  <object id="165" x="840" y="360" width="368" height="8"/>
  <object id="166" x="1504" y="400" width="48" height="8"/>
  <object id="167" x="1544" y="408" width="8" height="16"/>
  <object id="168" x="1496" y="416" width="48" height="8"/>
  <object id="169" x="1432" y="424" width="72" height="8"/>
  <object id="170" x="360" y="432" width="104" height="8"/>
  <object id="171" x="592" y="432" width="208" height="8"/>
  <object id="172" x="352" y="440" width="16" height="8"/>
  <object id="173" x="456" y="440" width="16" height="8"/>
  <object id="174" x="592" y="440" width="8" height="16"/>
  <object id="175" x="792" y="440" width="8" height="120"/>
  <object id="176" x="1672" y="440" width="8" height="16"/>
  <object id="177" x="344" y="448" width="16" height="8"/>
  <object id="178" x="464" y="448" width="16" height="8"/>
  <object id="179" x="584" y="448" width="8" height="32"/>
  <object id="180" x="1352" y="448" width="80" height="8"/>
  <object id="181" x="1664" y="448" width="8" height="16"/>
  <object id="182" x="336" y="456" width="16" height="8"/>
  <object id="183" x="472" y="456" width="8" height="88"/>
  <object id="184" x="1352" y="456" width="8" height="16"/>
  <object id="185" x="1424" y="456" width="8" height="96"/>
  <object id="186" x="1656" y="456" width="8" height="104"/>
  <object id="187" x="336" y="464" width="8" height="40"/>
  <object id="188" x="976" y="464" width="344" height="8"/>
  <object id="189" x="1360" y="464" width="64" height="8"/>
  <object id="190" x="592" y="472" width="8" height="88"/>
  <object id="191" x="968" y="472" width="16" height="8"/>
  <object id="192" x="1312" y="472" width="8" height="104"/>
  <object id="193" x="1416" y="472" width="8" height="80"/>
  <object id="194" x="968" y="480" width="8" height="112"/>
  <object id="195" x="344" y="496" width="8" height="40"/>
  <object id="196" x="272" y="512" width="8" height="80"/>
  <object id="197" x="352" y="528" width="8" height="16"/>
  <object id="198" x="360" y="536" width="8" height="16"/>
  <object id="199" x="448" y="536" width="24" height="8"/>
  <object id="200" x="368" y="544" width="8" height="16"/>
  <object id="201" x="448" y="544" width="8" height="16"/>
  <object id="202" x="376" y="552" width="72" height="8"/>
  <object id="203" x="600" y="552" width="192" height="8"/>
  <object id="204" x="1496" y="552" width="160" height="8"/>
  <object id="205" x="1496" y="560" width="8" height="104"/>
  <object id="206" x="1304" y="568" width="8" height="16"/>
  <object id="207" x="1296" y="576" width="8" height="16"/>
  <object id="208" x="256" y="584" width="16" height="8"/>
  <object id="209" x="976" y="584" width="320" height="8"/>
  <object id="210" x="256" y="592" width="8" height="176"/>
  <object id="211" x="656" y="648" width="184" height="8"/>
  <object id="212" x="656" y="656" width="8" height="16"/>
  <object id="213" x="832" y="656" width="24" height="8"/>
  <object id="214" x="1504" y="656" width="16" height="8"/>
  <object id="215" x="336" y="664" width="136" height="8"/>
  <object id="216" x="648" y="664" width="8" height="32"/>
  <object id="217" x="848" y="664" width="16" height="8"/>
  <object id="218" x="1512" y="664" width="8" height="16"/>
  <object id="219" x="336" y="672" width="8" height="24"/>
  <object id="220" x="464" y="672" width="8" height="96"/>
  <object id="221" x="856" y="672" width="8" height="96"/>
  <object id="222" x="1520" y="672" width="8" height="16"/>
  <object id="223" x="1528" y="680" width="208" height="8"/>
  <object id="224" x="328" y="688" width="8" height="24"/>
  <object id="225" x="640" y="688" width="8" height="32"/>
  <object id="226" x="1728" y="688" width="8" height="184"/>
  <object id="227" x="1000" y="696" width="352" height="8"/>
  <object id="228" x="320" y="704" width="8" height="88"/>
  <object id="229" x="992" y="704" width="16" height="8"/>
  <object id="230" x="1344" y="704" width="16" height="8"/>
  <object id="231" x="648" y="712" width="8" height="56"/>
  <object id="232" x="992" y="712" width="8" height="104"/>
  <object id="233" x="1352" y="712" width="8" height="112"/>
  <object id="234" x="1440" y="736" width="112" height="8"/>
  <object id="235" x="1440" y="744" width="8" height="96"/>
  <object id="236" x="1544" y="744" width="8" height="40"/>
  <object id="237" x="248" y="760" width="8" height="80"/>
  <object id="238" x="456" y="760" width="8" height="32"/>
  <object id="239" x="656" y="760" width="8" height="16"/>
  <object id="240" x="848" y="760" width="8" height="16"/>
  <object id="241" x="664" y="768" width="8" height="16"/>
  <object id="242" x="832" y="768" width="16" height="8"/>
  <object id="243" x="672" y="776" width="8" height="16"/>
  <object id="244" x="824" y="776" width="16" height="8"/>
  <object id="245" x="1552" y="776" width="144" height="8"/>
  <object id="246" x="328" y="784" width="128" height="8"/>
  <object id="247" x="680" y="784" width="152" height="8"/>
  <object id="248" x="1688" y="784" width="8" height="88"/>
  <object id="249" x="1000" y="808" width="8" height="16"/>
  <object id="250" x="1008" y="816" width="344" height="8"/>
  <object id="251" x="256" y="832" width="16" height="8"/>
  <object id="252" x="1448" y="832" width="8" height="40"/>
  <object id="253" x="264" y="840" width="8" height="64"/>
  <object id="254" x="368" y="848" width="184" height="8"/>
  <object id="255" x="368" y="856" width="8" height="16"/>
  <object id="256" x="544" y="856" width="8" height="112"/>
  <object id="257" x="360" y="864" width="8" height="40"/>
  <object id="258" x="1456" y="864" width="232" height="8"/>
  <object id="259" x="1736" y="864" width="8" height="88"/>
  <object id="260" x="272" y="896" width="88" height="8"/>
  <object id="261" x="768" y="936" width="288" height="8"/>
  <object id="262" x="744" y="944" width="32" height="8"/>
  <object id="263" x="1048" y="944" width="688" height="8"/>
  <object id="264" x="744" y="952" width="8" height="16"/>
  <object id="265" x="520" y="960" width="24" height="8"/>
  <object id="266" x="552" y="960" width="192" height="8"/>
 </objectgroup>
 <objectgroup id="292" name="overhead">
  <object id="267" x="806" y="230" width="436" height="84"><properties><property name="mask" value="mask_000.png"/></properties></object>
  <object id="268" x="1510" y="350" width="44" height="60"><properties><property name="mask" value="mask_001.png"/></properties></object>
  <object id="269" x="590" y="398" width="212" height="52"><properties><property name="mask" value="mask_002.png"/></properties></object>
  <object id="270" x="358" y="406" width="108" height="44"><properties><property name="mask" value="mask_003.png"/></properties></object>
  <object id="271" x="1030" y="438" width="60" height="44"><properties><property name="mask" value="mask_004.png"/></properties></object>
  <object id="272" x="1246" y="446" width="60" height="36"><properties><property name="mask" value="mask_005.png"/></properties></object>
  <object id="273" x="654" y="590" width="188" height="68"><properties><property name="mask" value="mask_006.png"/></properties></object>
  <object id="274" x="342" y="606" width="124" height="68"><properties><property name="mask" value="mask_007.png"/></properties></object>
  <object id="275" x="998" y="670" width="60" height="44"><properties><property name="mask" value="mask_008.png"/></properties></object>
  <object id="276" x="1078" y="670" width="36" height="36"><properties><property name="mask" value="mask_009.png"/></properties></object>
  <object id="277" x="1118" y="670" width="44" height="44"><properties><property name="mask" value="mask_010.png"/></properties></object>
  <object id="278" x="1294" y="670" width="44" height="44"><properties><property name="mask" value="mask_011.png"/></properties></object>
  <object id="279" x="1454" y="726" width="28" height="20"><properties><property name="mask" value="mask_012.png"/></properties></object>
  <object id="280" x="1558" y="734" width="68" height="52"><properties><property name="mask" value="mask_013.png"/></properties></object>
  <object id="281" x="262" y="830" width="68" height="76"><properties><property name="mask" value="mask_014.png"/></properties></object>
  <object id="282" x="366" y="830" width="164" height="28"><properties><property name="mask" value="mask_015.png"/></properties></object>
  <object id="283" x="550" y="870" width="220" height="100"><properties><property name="mask" value="mask_016.png"/></properties></object>
  <object id="284" x="1070" y="870" width="52" height="92"><properties><property name="mask" value="mask_017.png"/></properties></object>
  <object id="285" x="1126" y="886" width="622" height="76"><properties><property name="mask" value="mask_018.png"/></properties></object>
 </objectgroup>
 <objectgroup id="293" name="spawn">
  <object id="286" name="player" x="923" y="897"><point/></object>
  <object id="287" name="teamjang" x="635" y="589"><point/></object>
  <object id="288" name="sasu" x="1619" y="317"><point/></object>
  <object id="289" name="bujang" x="929" y="268"><point/></object>
 </objectgroup>
</map>
