<?xml version="1.0" encoding="UTF-8"?>
<map version="1.10" tiledversion="1.12.2" orientation="orthogonal" renderorder="right-down" width="240" height="135" tilewidth="8" tileheight="8" infinite="0" nextlayerid="99" nextobjectid="348">
 <imagelayer id="90" name="background">
  <image source="jm-01.png" width="1920" height="1080"/>
 </imagelayer>
 <objectgroup id="347" name="walkable">
  <object id="1" x="1128" y="80" width="88" height="648"/>
  <object id="2" x="312" y="128" width="32" height="184"/>
  <object id="3" x="600" y="128" width="88" height="496"/>
  <object id="4" x="1608" y="128" width="32" height="96"/>
  <object id="5" x="1640" y="136" width="80" height="88"/>
  <object id="6" x="344" y="144" width="256" height="56"/>
  <object id="7" x="688" y="144" width="16" height="808"/>
  <object id="8" x="1008" y="144" width="88" height="552"/>
  <object id="9" x="1272" y="144" width="56" height="80"/>
  <object id="10" x="704" y="152" width="8" height="840"/>
  <object id="11" x="824" y="160" width="184" height="32"/>
  <object id="12" x="1416" y="184" width="32" height="88"/>
  <object id="13" x="1480" y="184" width="40" height="112"/>
  <object id="14" x="840" y="192" width="168" height="504"/>
  <object id="15" x="1096" y="192" width="32" height="624"/>
  <object id="16" x="1328" y="192" width="48" height="32"/>
  <object id="17" x="1552" y="192" width="56" height="32"/>
  <object id="18" x="1720" y="192" width="32" height="32"/>
  <object id="19" x="344" y="200" width="88" height="48"/>
  <object id="20" x="520" y="200" width="80" height="48"/>
  <object id="21" x="712" y="200" width="8" height="792"/>
  <object id="22" x="1216" y="200" width="56" height="24"/>
  <object id="23" x="1520" y="200" width="32" height="72"/>
  <object id="24" x="1376" y="208" width="40" height="64"/>
  <object id="25" x="1448" y="208" width="32" height="64"/>
  <object id="26" x="1216" y="224" width="8" height="488"/>
  <object id="27" x="1336" y="224" width="40" height="48"/>
  <object id="28" x="1552" y="224" width="24" height="56"/>
  <object id="29" x="344" y="248" width="56" height="16"/>
  <object id="30" x="560" y="248" width="40" height="16"/>
  <object id="31" x="344" y="264" width="8" height="576"/>
  <object id="32" x="720" y="272" width="96" height="680"/>
  <object id="33" x="832" y="272" width="8" height="704"/>
  <object id="34" x="1544" y="272" width="8" height="8"/>
  <object id="35" x="816" y="280" width="16" height="696"/>
  <object id="36" x="352" y="296" width="48" height="328"/>
  <object id="37" x="560" y="296" width="40" height="328"/>
  <object id="38" x="1496" y="296" width="24" height="112"/>
  <object id="39" x="320" y="312" width="24" height="512"/>
  <object id="40" x="1672" y="312" width="80" height="232"/>
  <object id="41" x="1640" y="320" width="32" height="224"/>
  <object id="42" x="1248" y="336" width="56" height="208"/>
  <object id="43" x="1752" y="336" width="16" height="32"/>
  <object id="44" x="1304" y="344" width="192" height="64"/>
  <object id="45" x="1520" y="344" width="120" height="64"/>
  <object id="46" x="1752" y="368" width="8" height="176"/>
  <object id="47" x="312" y="376" width="8" height="104"/>
  <object id="48" x="1224" y="408" width="24" height="96"/>
  <object id="49" x="1304" y="440" width="8" height="32"/>
  <object id="50" x="1760" y="440" width="16" height="104"/>
  <object id="51" x="1384" y="488" width="96" height="56"/>
  <object id="52" x="1512" y="488" width="48" height="56"/>
  <object id="53" x="1592" y="488" width="48" height="56"/>
  <object id="54" x="1304" y="496" width="40" height="48"/>
  <object id="55" x="1560" y="496" width="8" height="48"/>
  <object id="56" x="1344" y="504" width="40" height="40"/>
  <object id="57" x="1480" y="504" width="32" height="40"/>
  <object id="58" x="1568" y="504" width="24" height="40"/>
  <object id="59" x="1776" y="512" width="32" height="32"/>
  <object id="60" x="1368" y="544" width="88" height="168"/>
  <object id="61" x="280" y="552" width="40" height="256"/>
  <object id="62" x="272" y="560" width="8" height="248"/>
  <object id="63" x="264" y="568" width="8" height="240"/>
  <object id="64" x="256" y="576" width="8" height="232"/>
  <object id="65" x="248" y="584" width="8" height="224"/>
  <object id="66" x="240" y="592" width="8" height="216"/>
  <object id="67" x="632" y="624" width="56" height="336"/>
  <object id="68" x="1360" y="624" width="8" height="88"/>
  <object id="69" x="1456" y="624" width="64" height="96"/>
  <object id="70" x="1256" y="640" width="104" height="72"/>
  <object id="71" x="608" y="648" width="24" height="312"/>
  <object id="72" x="1576" y="648" width="24" height="72"/>
  <object id="73" x="352" y="656" width="40" height="312"/>
  <object id="74" x="560" y="656" width="48" height="288"/>
  <object id="75" x="1520" y="656" width="16" height="64"/>
  <object id="76" x="1600" y="656" width="8" height="64"/>
  <object id="77" x="1720" y="656" width="56" height="64"/>
  <object id="78" x="392" y="664" width="168" height="304"/>
  <object id="79" x="1664" y="672" width="56" height="48"/>
  <object id="80" x="232" y="680" width="8" height="128"/>
  <object id="81" x="1224" y="688" width="32" height="24"/>
  <object id="82" x="840" y="696" width="160" height="24"/>
  <object id="83" x="1048" y="696" width="48" height="24"/>
  <object id="84" x="1536" y="696" width="40" height="24"/>
  <object id="85" x="1608" y="696" width="56" height="24"/>
  <object id="86" x="1448" y="712" width="8" height="232"/>
  <object id="87" x="840" y="720" width="152" height="88"/>
  <object id="88" x="1056" y="720" width="40" height="32"/>
  <object id="89" x="1456" y="720" width="48" height="224"/>
  <object id="90" x="1128" y="728" width="32" height="40"/>
  <object id="91" x="1176" y="728" width="40" height="32"/>
  <object id="92" x="1504" y="728" width="8" height="216"/>
  <object id="93" x="1064" y="752" width="32" height="8"/>
  <object id="94" x="1072" y="760" width="24" height="32"/>
  <object id="95" x="1184" y="760" width="32" height="104"/>
  <object id="96" x="1128" y="768" width="24" height="40"/>
  <object id="97" x="992" y="776" width="8" height="104"/>
  <object id="98" x="1088" y="792" width="8" height="8"/>
  <object id="99" x="1152" y="800" width="32" height="8"/>
  <object id="100" x="304" y="808" width="16" height="16"/>
  <object id="101" x="840" y="808" width="24" height="8"/>
  <object id="102" x="920" y="808" width="72" height="8"/>
  <object id="103" x="1168" y="808" width="16" height="24"/>
  <object id="104" x="840" y="816" width="8" height="160"/>
  <object id="105" x="928" y="816" width="64" height="64"/>
  <object id="106" x="1104" y="816" width="24" height="16"/>
  <object id="107" x="328" y="824" width="16" height="16"/>
  <object id="108" x="1000" y="832" width="40" height="48"/>
  <object id="109" x="1176" y="832" width="8" height="48"/>
  <object id="110" x="1400" y="848" width="48" height="96"/>
  <object id="111" x="1184" y="864" width="24" height="16"/>
  <object id="112" x="928" y="880" width="40" height="64"/>
  <object id="113" x="1240" y="896" width="160" height="48"/>
  <object id="114" x="320" y="928" width="32" height="40"/>
  <object id="115" x="560" y="944" width="8" height="24"/>
  <object id="116" x="592" y="944" width="16" height="16"/>
  <object id="117" x="720" y="952" width="80" height="40"/>
  <object id="118" x="656" y="960" width="32" height="8"/>
 </objectgroup>
 <objectgroup id="348" name="collision">
  <object id="119" x="1120" y="72" width="104" height="8"/>
  <object id="120" x="1120" y="80" width="8" height="112"/>
  <object id="121" x="1216" y="80" width="8" height="120"/>
  <object id="122" x="304" y="120" width="48" height="8"/>
  <object id="123" x="584" y="120" width="112" height="8"/>
  <object id="124" x="1600" y="120" width="48" height="8"/>
  <object id="125" x="304" y="128" width="8" height="192"/>
  <object id="126" x="344" y="128" width="8" height="16"/>
  <object id="127" x="592" y="128" width="8" height="16"/>
  <object id="128" x="688" y="128" width="16" height="16"/>
  <object id="129" x="1600" y="128" width="8" height="64"/>
  <object id="130" x="1640" y="128" width="88" height="8"/>
  <object id="131" x="352" y="136" width="240" height="8"/>
  <object id="132" x="704" y="136" width="8" height="16"/>
  <object id="133" x="1000" y="136" width="104" height="8"/>
  <object id="134" x="1264" y="136" width="72" height="8"/>
  <object id="135" x="1720" y="136" width="8" height="56"/>
  <object id="136" x="712" y="144" width="8" height="56"/>
  <object id="137" x="1000" y="144" width="8" height="16"/>
  <object id="138" x="1096" y="144" width="8" height="48"/>
  <object id="139" x="1264" y="144" width="8" height="56"/>
  <object id="140" x="1328" y="144" width="8" height="48"/>
  <object id="141" x="816" y="152" width="184" height="8"/>
  <object id="142" x="816" y="160" width="8" height="40"/>
  <object id="143" x="1408" y="176" width="48" height="8"/>
  <object id="144" x="1472" y="176" width="56" height="8"/>
  <object id="145" x="1104" y="184" width="16" height="8"/>
  <object id="146" x="1336" y="184" width="48" height="8"/>
  <object id="147" x="1408" y="184" width="8" height="24"/>
  <object id="148" x="1448" y="184" width="8" height="24"/>
  <object id="149" x="1472" y="184" width="8" height="24"/>
  <object id="150" x="1520" y="184" width="8" height="16"/>
  <object id="151" x="1536" y="184" width="64" height="8"/>
  <object id="152" x="1728" y="184" width="32" height="8"/>
  <object id="153" x="720" y="192" width="8" height="80"/>
  <object id="154" x="824" y="192" width="16" height="8"/>
  <object id="155" x="1224" y="192" width="40" height="8"/>
  <object id="156" x="1376" y="192" width="8" height="16"/>
  <object id="157" x="1528" y="192" width="24" height="8"/>
  <object id="158" x="1752" y="192" width="8" height="40"/>
  <object id="159" x="432" y="200" width="88" height="8"/>
  <object id="160" x="832" y="200" width="8" height="72"/>
  <object id="161" x="1384" y="200" width="24" height="8"/>
  <object id="162" x="1456" y="200" width="16" height="8"/>
  <object id="163" x="432" y="208" width="8" height="48"/>
  <object id="164" x="512" y="208" width="8" height="48"/>
  <object id="165" x="1224" y="224" width="112" height="8"/>
  <object id="166" x="1576" y="224" width="176" height="8"/>
  <object id="167" x="1224" y="232" width="8" height="176"/>
  <object id="168" x="1328" y="232" width="8" height="48"/>
  <object id="169" x="1576" y="232" width="8" height="56"/>
  <object id="170" x="400" y="248" width="32" height="8"/>
  <object id="171" x="520" y="248" width="40" height="8"/>
  <object id="172" x="400" y="256" width="8" height="16"/>
  <object id="173" x="552" y="256" width="8" height="16"/>
  <object id="174" x="352" y="264" width="48" height="8"/>
  <object id="175" x="544" y="264" width="8" height="8"/>
  <object id="176" x="560" y="264" width="40" height="8"/>
  <object id="177" x="728" y="264" width="104" height="8"/>
  <object id="178" x="352" y="272" width="8" height="24"/>
  <object id="179" x="592" y="272" width="8" height="24"/>
  <object id="180" x="816" y="272" width="16" height="8"/>
  <object id="181" x="1336" y="272" width="144" height="8"/>
  <object id="182" x="1520" y="272" width="24" height="8"/>
  <object id="183" x="1472" y="280" width="8" height="24"/>
  <object id="184" x="1520" y="280" width="8" height="64"/>
  <object id="185" x="1536" y="280" width="40" height="8"/>
  <object id="186" x="360" y="288" width="56" height="8"/>
  <object id="187" x="552" y="288" width="40" height="8"/>
  <object id="188" x="400" y="296" width="8" height="336"/>
  <object id="189" x="552" y="296" width="8" height="336"/>
  <object id="190" x="1480" y="296" width="16" height="8"/>
  <object id="191" x="1488" y="304" width="8" height="40"/>
  <object id="192" x="1664" y="304" width="96" height="8"/>
  <object id="193" x="312" y="312" width="8" height="64"/>
  <object id="194" x="1632" y="312" width="40" height="8"/>
  <object id="195" x="1752" y="312" width="8" height="24"/>
  <object id="196" x="1632" y="320" width="8" height="24"/>
  <object id="197" x="1240" y="328" width="72" height="8"/>
  <object id="198" x="1760" y="328" width="16" height="8"/>
  <object id="199" x="1240" y="336" width="8" height="72"/>
  <object id="200" x="1304" y="336" width="184" height="8"/>
  <object id="201" x="1528" y="336" width="104" height="8"/>
  <object id="202" x="1768" y="336" width="8" height="40"/>
  <object id="203" x="304" y="368" width="8" height="136"/>
  <object id="204" x="1760" y="368" width="8" height="72"/>
  <object id="205" x="1232" y="400" width="8" height="8"/>
  <object id="206" x="1304" y="408" width="336" height="8"/>
  <object id="207" x="1304" y="416" width="8" height="24"/>
  <object id="208" x="1632" y="416" width="8" height="72"/>
  <object id="209" x="1312" y="432" width="8" height="64"/>
  <object id="210" x="1768" y="432" width="16" height="8"/>
  <object id="211" x="1776" y="440" width="8" height="72"/>
  <object id="212" x="1304" y="472" width="8" height="24"/>
  <object id="213" x="312" y="480" width="8" height="72"/>
  <object id="214" x="1376" y="480" width="112" height="8"/>
  <object id="215" x="1504" y="480" width="64" height="8"/>
  <object id="216" x="1584" y="480" width="48" height="8"/>
  <object id="217" x="1320" y="488" width="32" height="8"/>
  <object id="218" x="1376" y="488" width="8" height="16"/>
  <object id="219" x="1480" y="488" width="8" height="16"/>
  <object id="220" x="1504" y="488" width="8" height="16"/>
  <object id="221" x="1560" y="488" width="16" height="8"/>
  <object id="222" x="1584" y="488" width="8" height="16"/>
  <object id="223" x="1344" y="496" width="32" height="8"/>
  <object id="224" x="1488" y="496" width="16" height="8"/>
  <object id="225" x="1568" y="496" width="16" height="8"/>
  <object id="226" x="1224" y="504" width="24" height="8"/>
  <object id="227" x="1784" y="504" width="32" height="8"/>
  <object id="228" x="1224" y="512" width="8" height="176"/>
  <object id="229" x="1240" y="512" width="8" height="40"/>
  <object id="230" x="1808" y="512" width="8" height="40"/>
  <object id="231" x="272" y="544" width="40" height="8"/>
  <object id="232" x="1248" y="544" width="120" height="8"/>
  <object id="233" x="1456" y="544" width="352" height="8"/>
  <object id="234" x="1816" y="544" width="8" height="8"/>
  <object id="235" x="264" y="552" width="16" height="8"/>
  <object id="236" x="1360" y="552" width="8" height="72"/>
  <object id="237" x="1456" y="552" width="8" height="72"/>
  <object id="238" x="256" y="560" width="16" height="8"/>
  <object id="239" x="248" y="568" width="16" height="8"/>
  <object id="240" x="240" y="576" width="16" height="8"/>
  <object id="241" x="232" y="584" width="16" height="8"/>
  <object id="242" x="232" y="592" width="8" height="88"/>
  <object id="243" x="1352" y="616" width="8" height="24"/>
  <object id="244" x="1464" y="616" width="64" height="8"/>
  <object id="245" x="352" y="624" width="48" height="8"/>
  <object id="246" x="560" y="624" width="72" height="8"/>
  <object id="247" x="1520" y="624" width="8" height="32"/>
  <object id="248" x="352" y="632" width="8" height="24"/>
  <object id="249" x="624" y="632" width="8" height="16"/>
  <object id="250" x="1248" y="632" width="104" height="8"/>
  <object id="251" x="600" y="640" width="24" height="8"/>
  <object id="252" x="1248" y="640" width="8" height="48"/>
  <object id="253" x="1568" y="640" width="40" height="8"/>
  <object id="254" x="360" y="648" width="40" height="8"/>
  <object id="255" x="552" y="648" width="56" height="8"/>
  <object id="256" x="1528" y="648" width="16" height="8"/>
  <object id="257" x="1568" y="648" width="8" height="48"/>
  <object id="258" x="1600" y="648" width="16" height="8"/>
  <object id="259" x="1712" y="648" width="72" height="8"/>
  <object id="260" x="392" y="656" width="168" height="8"/>
  <object id="261" x="1536" y="656" width="8" height="40"/>
  <object id="262" x="1608" y="656" width="8" height="40"/>
  <object id="263" x="1664" y="656" width="8" height="16"/>
  <object id="264" x="1704" y="656" width="16" height="16"/>
  <object id="265" x="1776" y="656" width="8" height="72"/>
  <object id="266" x="1656" y="664" width="8" height="32"/>
  <object id="267" x="1672" y="664" width="32" height="8"/>
  <object id="268" x="224" y="672" width="8" height="144"/>
  <object id="269" x="1232" y="680" width="16" height="8"/>
  <object id="270" x="1544" y="688" width="24" height="8"/>
  <object id="271" x="1616" y="688" width="40" height="8"/>
  <object id="272" x="1000" y="696" width="48" height="8"/>
  <object id="273" x="1000" y="704" width="8" height="24"/>
  <object id="274" x="1040" y="704" width="8" height="24"/>
  <object id="275" x="1216" y="712" width="232" height="8"/>
  <object id="276" x="992" y="720" width="8" height="56"/>
  <object id="277" x="1048" y="720" width="8" height="40"/>
  <object id="278" x="1216" y="720" width="8" height="152"/>
  <object id="279" x="1440" y="720" width="8" height="128"/>
  <object id="280" x="1504" y="720" width="272" height="8"/>
  <object id="281" x="1160" y="728" width="16" height="40"/>
  <object id="282" x="1512" y="728" width="8" height="224"/>
  <object id="283" x="1056" y="752" width="8" height="16"/>
  <object id="284" x="1064" y="760" width="8" height="40"/>
  <object id="285" x="1176" y="760" width="8" height="40"/>
  <object id="286" x="1000" y="768" width="8" height="64"/>
  <object id="287" x="1152" y="768" width="16" height="8"/>
  <object id="288" x="1152" y="776" width="8" height="24"/>
  <object id="289" x="1072" y="792" width="16" height="8"/>
  <object id="290" x="1160" y="792" width="16" height="8"/>
  <object id="291" x="1080" y="800" width="16" height="8"/>
  <object id="292" x="232" y="808" width="72" height="8"/>
  <object id="293" x="864" y="808" width="56" height="8"/>
  <object id="294" x="1088" y="808" width="8" height="24"/>
  <object id="295" x="1128" y="808" width="40" height="8"/>
  <object id="296" x="296" y="816" width="8" height="16"/>
  <object id="297" x="848" y="816" width="24" height="8"/>
  <object id="298" x="912" y="816" width="16" height="8"/>
  <object id="299" x="1096" y="816" width="8" height="24"/>
  <object id="300" x="1128" y="816" width="8" height="24"/>
  <object id="301" x="1160" y="816" width="8" height="24"/>
  <object id="302" x="304" y="824" width="24" height="8"/>
  <object id="303" x="848" y="824" width="8" height="160"/>
  <object id="304" x="920" y="824" width="8" height="128"/>
  <object id="305" x="1008" y="824" width="40" height="8"/>
  <object id="306" x="320" y="832" width="8" height="16"/>
  <object id="307" x="1040" y="832" width="8" height="56"/>
  <object id="308" x="1104" y="832" width="24" height="8"/>
  <object id="309" x="1168" y="832" width="8" height="56"/>
  <object id="310" x="328" y="840" width="24" height="8"/>
  <object id="311" x="1392" y="840" width="48" height="8"/>
  <object id="312" x="344" y="848" width="8" height="80"/>
  <object id="313" x="1392" y="848" width="8" height="48"/>
  <object id="314" x="1208" y="864" width="8" height="24"/>
  <object id="315" x="968" y="880" width="72" height="8"/>
  <object id="316" x="1176" y="880" width="32" height="8"/>
  <object id="317" x="968" y="888" width="8" height="64"/>
  <object id="318" x="1232" y="888" width="160" height="8"/>
  <object id="319" x="1232" y="896" width="8" height="56"/>
  <object id="320" x="312" y="920" width="32" height="8"/>
  <object id="321" x="312" y="928" width="8" height="48"/>
  <object id="322" x="568" y="944" width="24" height="8"/>
  <object id="323" x="928" y="944" width="40" height="8"/>
  <object id="324" x="1240" y="944" width="272" height="8"/>
  <object id="325" x="1520" y="944" width="8" height="8"/>
  <object id="326" x="568" y="952" width="8" height="24"/>
  <object id="327" x="584" y="952" width="8" height="16"/>
  <object id="328" x="688" y="952" width="16" height="16"/>
  <object id="329" x="800" y="952" width="16" height="32"/>
  <object id="330" x="592" y="960" width="96" height="8"/>
  <object id="331" x="320" y="968" width="248" height="8"/>
  <object id="332" x="696" y="968" width="8" height="32"/>
  <object id="333" x="816" y="976" width="32" height="8"/>
  <object id="334" x="800" y="984" width="8" height="16"/>
  <object id="335" x="704" y="992" width="96" height="8"/>
  <object id="336" x="808" y="992" width="8" height="8"/>
 </objectgroup>
 <objectgroup id="349" name="overhead">
  <object id="337" x="1342" y="382" width="36" height="36"><properties><property name="mask" value="mask_000.png"/></properties></object>
  <object id="338" x="1414" y="382" width="52" height="36"><properties><property name="mask" value="mask_001.png"/></properties></object>
  <object id="339" x="1478" y="382" width="36" height="36"><properties><property name="mask" value="mask_002.png"/></properties></object>
  <object id="340" x="1534" y="382" width="36" height="36"><properties><property name="mask" value="mask_003.png"/></properties></object>
  <object id="341" x="230" y="750" width="68" height="60"><properties><property name="mask" value="mask_004.png"/></properties></object>
  <object id="342" x="606" y="910" width="60" height="52"><properties><property name="mask" value="mask_005.png"/></properties></object>
 </objectgroup>
 <objectgroup id="350" name="spawn">
  <object id="343" name="player" x="754" y="957"><point/></object>
  <object id="344" name="teamjang" x="1277" y="387"><point/></object>
  <object id="345" name="sasu" x="883" y="185"><point/></object>
  <object id="346" name="bujang" x="364" y="172"><point/></object>
 </objectgroup>
</map>
