<?xml version="1.0" encoding="UTF-8"?>
<map version="1.10" tiledversion="1.12.2" orientation="orthogonal" renderorder="right-down" width="80" height="45" tilewidth="24" tileheight="24" infinite="0" nextlayerid="7" nextobjectid="45">
 <imagelayer id="2" name="background" locked="1">
  <image source="돌발상황_철도운행·기관운전.png" width="1920" height="1080"/>
 </imagelayer>
 <objectgroup id="3" name="play_bounds" locked="1">
  <object id="1" name="main_play_area" x="70" y="80" width="1780" height="656"/>
 </objectgroup>
 <objectgroup id="4" name="walkable" locked="1">
  <object id="2" x="70" y="80" width="1780" height="656"/>
 </objectgroup>
 <objectgroup id="5" name="collision" locked="1">
  <object id="3" x="1205.25" y="424.513" width="228.868" height="55.3713"/>
  <object id="4" x="1144.34" y="448.508" width="31.3771" height="81.2112"/>
  <object id="5" x="1210.79" y="550.022" width="219.64" height="53.5256"/>
  <object id="6" x="880.404" y="551.867" width="221.485" height="53.5256"/>
  <object id="7" x="891.478" y="428.205" width="210.411" height="49.8342"/>
  <object id="8" x="817.65" y="450.353" width="29.5314" height="84.9027"/>
  <object id="9" x="548.176" y="426.359" width="230.714" height="53.5256"/>
  <object id="10" x="502.033" y="441.125" width="25.8399" height="84.9027"/>
  <object id="11" x="561.096" y="548.176" width="215.948" height="60.9084"/>
  <object id="12" x="149.503" y="542.639" width="206.72" height="68.2913"/>
  <object id="13" x="171.651" y="278.702" width="206.72" height="114.434"/>
  <object id="14" x="204.874" y="114.434" width="151.348" height="114.434"/>
  <object id="15" x="374.679" y="177.188" width="27.6857" height="49.8342"/>
  <object id="16" x="68.2913" y="114.434" width="131.045" height="73.8284"/>
  <object id="17" x="59.0627" y="575.862" width="16.6114" height="162.422"/>
  <object id="18" x="83.057" y="679.221" width="1482.11" height="57.217"/>
  <object id="19" x="46.1428" y="107.051" width="29.5314" height="313.771"/>
  <object id="20" x="476.193" y="112.588" width="11.0743" height="215.948"/>
  <object id="21" x="494.65" y="108.897" width="533.41" height="127.354"/>
  <object id="22" x="550.022" y="215.948" width="417.13" height="84.9027"/>
  <object id="23" x="492.805" y="228.868" width="27.6857" height="40.6056"/>
  <object id="24" x="1033.6" y="107.051" width="12.92" height="230.714"/>
  <object id="25" x="980.072" y="238.097" width="18.4571" height="33.2228"/>
  <object id="26" x="1055.75" y="138.428" width="234.405" height="108.897"/>
  <object id="27" x="1216.32" y="269.474" width="97.8226" height="27.6857"/>
  <object id="28" x="1315.99" y="110.743" width="29.5314" height="260.245"/>
  <object id="29" x="1354.75" y="180.88" width="190.108" height="145.811"/>
  <object id="30" x="1543.01" y="101.514" width="25.8399" height="433.742"/>
  <object id="31" x="1511.64" y="361.759" width="35.0685" height="55.3713"/>
  <object id="32" x="1548.55" y="585.09" width="12.92" height="92.2855"/>
  <object id="33" x="1554.09" y="588.782" width="38.7599" height="71.9827"/>
  <object id="34" x="1557.78" y="450.353" width="36.9142" height="64.5999"/>
  <object id="35" x="1574.39" y="286.085" width="18.4571" height="118.125"/>
  <object id="36" x="1600.23" y="217.794" width="22.1485" height="51.6799"/>
  <object id="38" x="1651.91" y="203.028" width="66.4456" height="527.873"/>
  <object id="39" x="365.451" y="107.051" width="118.125" height="20.3028"/>
  <object id="40" x="14.7657" y="417.13" width="31.3771" height="173.497"/>
 </objectgroup>
 <objectgroup id="6" name="spawn" locked="1">
  <object id="41" name="player" x="428.205" y="247.325">
   <point/>
  </object>
  <object id="42" name="teamjang" x="251.017" y="644.153">
   <point/>
  </object>
  <object id="43" name="sasu" x="507.57" y="605.393">
   <point/>
  </object>
  <object id="44" name="bujang" x="1633.45" y="487.267">
   <point/>
  </object>
 </objectgroup>
</map>
