<?xml version="1.0" encoding="UTF-8"?>
<map version="1.10" tiledversion="1.12.2" orientation="orthogonal" renderorder="right-down" width="240" height="135" tilewidth="8" tileheight="8" infinite="0" nextlayerid="99" nextobjectid="295">
 <imagelayer id="90" name="background">
  <image source="yg-04.png" width="1920" height="1080"/>
 </imagelayer>
 <objectgroup id="294" name="walkable">
  <object id="1" x="664" y="128" width="40" height="624"/>
  <object id="2" x="1216" y="128" width="32" height="912"/>
  <object id="3" x="704" y="152" width="16" height="600"/>
  <object id="4" x="1200" y="152" width="16" height="888"/>
  <object id="5" x="112" y="176" width="56" height="128"/>
  <object id="6" x="600" y="176" width="48" height="168"/>
  <object id="7" x="1264" y="176" width="40" height="208"/>
  <object id="8" x="200" y="240" width="32" height="176"/>
  <object id="9" x="272" y="240" width="48" height="72"/>
  <object id="10" x="360" y="240" width="48" height="72"/>
  <object id="11" x="448" y="240" width="48" height="72"/>
  <object id="12" x="536" y="240" width="32" height="200"/>
  <object id="13" x="168" y="248" width="32" height="56"/>
  <object id="14" x="568" y="248" width="32" height="96"/>
  <object id="15" x="736" y="248" width="456" height="48"/>
  <object id="16" x="232" y="256" width="40" height="56"/>
  <object id="17" x="320" y="256" width="40" height="56"/>
  <object id="18" x="408" y="256" width="40" height="56"/>
  <object id="19" x="496" y="256" width="40" height="56"/>
  <object id="20" x="1648" y="264" width="80" height="152"/>
  <object id="21" x="1304" y="288" width="80" height="96"/>
  <object id="22" x="736" y="296" width="24" height="96"/>
  <object id="23" x="1144" y="296" width="48" height="88"/>
  <object id="24" x="176" y="304" width="24" height="112"/>
  <object id="25" x="232" y="312" width="32" height="440"/>
  <object id="26" x="520" y="312" width="16" height="128"/>
  <object id="27" x="1640" y="336" width="8" height="416"/>
  <object id="28" x="568" y="344" width="8" height="96"/>
  <object id="29" x="1384" y="344" width="8" height="72"/>
  <object id="30" x="1632" y="344" width="8" height="408"/>
  <object id="31" x="1392" y="352" width="8" height="64"/>
  <object id="32" x="496" y="360" width="24" height="80"/>
  <object id="33" x="1400" y="360" width="80" height="56"/>
  <object id="34" x="1520" y="360" width="112" height="56"/>
  <object id="35" x="488" y="368" width="8" height="72"/>
  <object id="36" x="264" y="376" width="48" height="376"/>
  <object id="37" x="360" y="376" width="48" height="64"/>
  <object id="38" x="456" y="376" width="32" height="64"/>
  <object id="39" x="24" y="384" width="72" height="32"/>
  <object id="40" x="576" y="384" width="40" height="32"/>
  <object id="41" x="760" y="384" width="64" height="24"/>
  <object id="42" x="872" y="384" width="312" height="8"/>
  <object id="43" x="1328" y="384" width="56" height="32"/>
  <object id="44" x="1480" y="384" width="40" height="32"/>
  <object id="45" x="744" y="392" width="16" height="8"/>
  <object id="46" x="872" y="392" width="304" height="8"/>
  <object id="47" x="752" y="400" width="8" height="8"/>
  <object id="48" x="824" y="400" width="344" height="8"/>
  <object id="49" x="312" y="408" width="48" height="32"/>
  <object id="50" x="408" y="408" width="48" height="32"/>
  <object id="51" x="824" y="408" width="272" height="120"/>
  <object id="52" x="48" y="416" width="48" height="56"/>
  <object id="53" x="224" y="416" width="8" height="336"/>
  <object id="54" x="576" y="416" width="32" height="8"/>
  <object id="55" x="648" y="416" width="16" height="616"/>
  <object id="56" x="720" y="416" width="8" height="336"/>
  <object id="57" x="1192" y="416" width="8" height="624"/>
  <object id="58" x="1248" y="416" width="8" height="624"/>
  <object id="59" x="1552" y="416" width="80" height="336"/>
  <object id="60" x="1648" y="416" width="24" height="336"/>
  <object id="61" x="576" y="424" width="24" height="16"/>
  <object id="62" x="640" y="424" width="8" height="608"/>
  <object id="63" x="728" y="424" width="8" height="328"/>
  <object id="64" x="1184" y="424" width="8" height="328"/>
  <object id="65" x="1256" y="424" width="8" height="328"/>
  <object id="66" x="736" y="432" width="8" height="320"/>
  <object id="67" x="1176" y="432" width="8" height="320"/>
  <object id="68" x="312" y="440" width="24" height="312"/>
  <object id="69" x="744" y="440" width="80" height="312"/>
  <object id="70" x="1096" y="440" width="80" height="312"/>
  <object id="71" x="96" y="456" width="32" height="296"/>
  <object id="72" x="208" y="456" width="16" height="144"/>
  <object id="73" x="336" y="456" width="264" height="296"/>
  <object id="74" x="1304" y="456" width="248" height="48"/>
  <object id="75" x="1672" y="456" width="24" height="296"/>
  <object id="76" x="1776" y="456" width="80" height="296"/>
  <object id="77" x="64" y="472" width="32" height="232"/>
  <object id="78" x="128" y="480" width="80" height="120"/>
  <object id="79" x="1696" y="480" width="80" height="120"/>
  <object id="80" x="600" y="496" width="40" height="96"/>
  <object id="81" x="1264" y="496" width="40" height="96"/>
  <object id="82" x="1304" y="504" width="112" height="248"/>
  <object id="83" x="1424" y="504" width="128" height="248"/>
  <object id="84" x="1416" y="512" width="8" height="240"/>
  <object id="85" x="824" y="528" width="56" height="224"/>
  <object id="86" x="1048" y="528" width="48" height="224"/>
  <object id="87" x="216" y="600" width="8" height="152"/>
  <object id="88" x="880" y="600" width="24" height="152"/>
  <object id="89" x="1032" y="600" width="16" height="152"/>
  <object id="90" x="48" y="624" width="16" height="80"/>
  <object id="91" x="128" y="632" width="88" height="120"/>
  <object id="92" x="600" y="632" width="40" height="120"/>
  <object id="93" x="904" y="632" width="128" height="120"/>
  <object id="94" x="1264" y="632" width="40" height="120"/>
  <object id="95" x="1696" y="632" width="80" height="120"/>
  <object id="96" x="1856" y="632" width="16" height="120"/>
  <object id="97" x="16" y="664" width="32" height="40"/>
  <object id="98" x="1872" y="672" width="32" height="72"/>
  <object id="99" x="72" y="704" width="24" height="48"/>
  <object id="100" x="632" y="752" width="8" height="280"/>
  <object id="101" x="664" y="752" width="8" height="280"/>
  <object id="102" x="104" y="792" width="88" height="152"/>
  <object id="103" x="512" y="792" width="64" height="152"/>
  <object id="104" x="1640" y="792" width="176" height="104"/>
  <object id="105" x="1304" y="808" width="336" height="104"/>
  <object id="106" x="576" y="840" width="40" height="176"/>
  <object id="107" x="1272" y="840" width="32" height="176"/>
  <object id="108" x="616" y="856" width="16" height="96"/>
  <object id="109" x="672" y="856" width="504" height="80"/>
  <object id="110" x="1256" y="856" width="16" height="88"/>
  <object id="111" x="192" y="872" width="56" height="72"/>
  <object id="112" x="280" y="872" width="56" height="72"/>
  <object id="113" x="376" y="872" width="56" height="72"/>
  <object id="114" x="472" y="872" width="40" height="72"/>
  <object id="115" x="248" y="888" width="32" height="56"/>
  <object id="116" x="336" y="888" width="40" height="56"/>
  <object id="117" x="432" y="888" width="40" height="56"/>
  <object id="118" x="1304" y="912" width="40" height="128"/>
  <object id="119" x="1584" y="912" width="56" height="144"/>
  <object id="120" x="672" y="936" width="72" height="8"/>
  <object id="121" x="1128" y="936" width="48" height="88"/>
  <object id="122" x="152" y="944" width="64" height="96"/>
  <object id="123" x="560" y="944" width="16" height="112"/>
  <object id="124" x="688" y="944" width="56" height="72"/>
  <object id="125" x="1640" y="984" width="176" height="40"/>
  <object id="126" x="104" y="1000" width="48" height="32"/>
  <object id="127" x="216" y="1008" width="24" height="32"/>
  <object id="128" x="528" y="1008" width="32" height="48"/>
  <object id="129" x="576" y="1016" width="32" height="8"/>
  <object id="130" x="696" y="1016" width="48" height="8"/>
  <object id="131" x="1280" y="1016" width="24" height="8"/>
  <object id="132" x="1344" y="1016" width="88" height="40"/>
  <object id="133" x="1488" y="1016" width="96" height="40"/>
  <object id="134" x="504" y="1024" width="24" height="32"/>
  <object id="135" x="576" y="1024" width="24" height="8"/>
  <object id="136" x="704" y="1024" width="40" height="8"/>
  <object id="137" x="1128" y="1024" width="40" height="8"/>
  <object id="138" x="1288" y="1024" width="16" height="8"/>
  <object id="139" x="1640" y="1024" width="136" height="16"/>
  <object id="140" x="576" y="1032" width="16" height="8"/>
  <object id="141" x="1296" y="1032" width="8" height="8"/>
  <object id="142" x="1312" y="1040" width="32" height="16"/>
  <object id="143" x="1640" y="1040" width="64" height="16"/>
 </objectgroup>
 <objectgroup id="295" name="collision">
  <object id="144" x="0" y="0" width="1920" height="128"/>
  <object id="145" x="0" y="128" width="664" height="48"/>
  <object id="146" x="704" y="128" width="512" height="24"/>
  <object id="147" x="1248" y="128" width="672" height="48"/>
  <object id="148" x="720" y="152" width="480" height="96"/>
  <object id="149" x="0" y="176" width="112" height="152"/>
  <object id="150" x="168" y="176" width="432" height="64"/>
  <object id="151" x="648" y="176" width="16" height="240"/>
  <object id="152" x="1248" y="176" width="16" height="240"/>
  <object id="153" x="1304" y="176" width="616" height="88"/>
  <object id="154" x="168" y="240" width="32" height="8"/>
  <object id="155" x="232" y="240" width="40" height="16"/>
  <object id="156" x="320" y="240" width="40" height="16"/>
  <object id="157" x="408" y="240" width="40" height="16"/>
  <object id="158" x="496" y="240" width="40" height="16"/>
  <object id="159" x="568" y="240" width="32" height="8"/>
  <object id="160" x="720" y="248" width="16" height="168"/>
  <object id="161" x="1192" y="248" width="8" height="168"/>
  <object id="162" x="1304" y="264" width="344" height="24"/>
  <object id="163" x="1728" y="264" width="192" height="192"/>
  <object id="164" x="1384" y="288" width="264" height="48"/>
  <object id="165" x="760" y="296" width="384" height="88"/>
  <object id="166" x="112" y="304" width="64" height="152"/>
  <object id="167" x="256" y="312" width="264" height="48"/>
  <object id="168" x="0" y="328" width="48" height="56"/>
  <object id="169" x="72" y="328" width="40" height="56"/>
  <object id="170" x="48" y="336" width="24" height="48"/>
  <object id="171" x="1384" y="336" width="256" height="8"/>
  <object id="172" x="576" y="344" width="72" height="40"/>
  <object id="173" x="1392" y="344" width="240" height="8"/>
  <object id="174" x="1400" y="352" width="232" height="8"/>
  <object id="175" x="256" y="360" width="240" height="8"/>
  <object id="176" x="1480" y="360" width="40" height="24"/>
  <object id="177" x="256" y="368" width="232" height="8"/>
  <object id="178" x="312" y="376" width="48" height="32"/>
  <object id="179" x="408" y="376" width="48" height="32"/>
  <object id="180" x="0" y="384" width="24" height="280"/>
  <object id="181" x="96" y="384" width="16" height="72"/>
  <object id="182" x="616" y="384" width="32" height="40"/>
  <object id="183" x="824" y="384" width="48" height="16"/>
  <object id="184" x="1184" y="384" width="8" height="40"/>
  <object id="185" x="1264" y="384" width="64" height="72"/>
  <object id="186" x="736" y="392" width="8" height="40"/>
  <object id="187" x="1176" y="392" width="8" height="40"/>
  <object id="188" x="744" y="400" width="8" height="40"/>
  <object id="189" x="1168" y="400" width="8" height="40"/>
  <object id="190" x="24" y="408" width="24" height="256"/>
  <object id="191" x="752" y="408" width="72" height="32"/>
  <object id="192" x="1096" y="408" width="72" height="32"/>
  <object id="193" x="1328" y="408" width="104" height="48"/>
  <object id="194" x="176" y="416" width="48" height="40"/>
  <object id="195" x="608" y="416" width="8" height="80"/>
  <object id="196" x="728" y="416" width="8" height="8"/>
  <object id="197" x="1256" y="416" width="8" height="8"/>
  <object id="198" x="1432" y="416" width="120" height="40"/>
  <object id="199" x="1672" y="416" width="56" height="40"/>
  <object id="200" x="600" y="424" width="8" height="72"/>
  <object id="201" x="616" y="424" width="24" height="72"/>
  <object id="202" x="328" y="440" width="272" height="16"/>
  <object id="203" x="128" y="456" width="80" height="24"/>
  <object id="204" x="1264" y="456" width="40" height="40"/>
  <object id="205" x="1696" y="456" width="80" height="24"/>
  <object id="206" x="1856" y="456" width="64" height="168"/>
  <object id="207" x="48" y="472" width="16" height="152"/>
  <object id="208" x="880" y="528" width="168" height="72"/>
  <object id="209" x="600" y="592" width="40" height="40"/>
  <object id="210" x="1264" y="592" width="40" height="40"/>
  <object id="211" x="128" y="600" width="88" height="32"/>
  <object id="212" x="904" y="600" width="128" height="32"/>
  <object id="213" x="1696" y="600" width="80" height="32"/>
  <object id="214" x="1872" y="624" width="48" height="48"/>
  <object id="215" x="0" y="664" width="16" height="416"/>
  <object id="216" x="1904" y="672" width="16" height="408"/>
  <object id="217" x="16" y="704" width="56" height="376"/>
  <object id="218" x="1856" y="744" width="48" height="336"/>
  <object id="219" x="72" y="752" width="560" height="40"/>
  <object id="220" x="672" y="752" width="520" height="104"/>
  <object id="221" x="1256" y="752" width="600" height="40"/>
  <object id="222" x="72" y="792" width="32" height="288"/>
  <object id="223" x="192" y="792" width="320" height="80"/>
  <object id="224" x="576" y="792" width="56" height="48"/>
  <object id="225" x="1256" y="792" width="384" height="16"/>
  <object id="226" x="1816" y="792" width="40" height="288"/>
  <object id="227" x="1256" y="808" width="48" height="32"/>
  <object id="228" x="616" y="840" width="16" height="16"/>
  <object id="229" x="1256" y="840" width="16" height="16"/>
  <object id="230" x="1176" y="856" width="16" height="224"/>
  <object id="231" x="248" y="872" width="32" height="16"/>
  <object id="232" x="336" y="872" width="40" height="16"/>
  <object id="233" x="432" y="872" width="40" height="16"/>
  <object id="234" x="1640" y="896" width="176" height="88"/>
  <object id="235" x="1344" y="912" width="240" height="104"/>
  <object id="236" x="744" y="936" width="384" height="144"/>
  <object id="237" x="104" y="944" width="48" height="56"/>
  <object id="238" x="216" y="944" width="344" height="56"/>
  <object id="239" x="672" y="944" width="16" height="136"/>
  <object id="240" x="1256" y="944" width="16" height="136"/>
  <object id="241" x="616" y="952" width="16" height="128"/>
  <object id="242" x="248" y="1000" width="312" height="8"/>
  <object id="243" x="248" y="1008" width="280" height="16"/>
  <object id="244" x="104" y="1016" width="8" height="64"/>
  <object id="245" x="608" y="1016" width="8" height="64"/>
  <object id="246" x="688" y="1016" width="8" height="64"/>
  <object id="247" x="1272" y="1016" width="8" height="64"/>
  <object id="248" x="1432" y="1016" width="56" height="64"/>
  <object id="249" x="112" y="1024" width="8" height="56"/>
  <object id="250" x="240" y="1024" width="264" height="56"/>
  <object id="251" x="600" y="1024" width="8" height="56"/>
  <object id="252" x="696" y="1024" width="8" height="56"/>
  <object id="253" x="1168" y="1024" width="8" height="56"/>
  <object id="254" x="1280" y="1024" width="8" height="56"/>
  <object id="255" x="1776" y="1024" width="40" height="56"/>
  <object id="256" x="120" y="1032" width="24" height="48"/>
  <object id="257" x="592" y="1032" width="8" height="48"/>
  <object id="258" x="632" y="1032" width="40" height="48"/>
  <object id="259" x="704" y="1032" width="40" height="48"/>
  <object id="260" x="1128" y="1032" width="40" height="48"/>
  <object id="261" x="1288" y="1032" width="8" height="48"/>
  <object id="262" x="144" y="1040" width="96" height="40"/>
  <object id="263" x="568" y="1040" width="24" height="40"/>
  <object id="264" x="1192" y="1040" width="64" height="40"/>
  <object id="265" x="1296" y="1040" width="16" height="40"/>
  <object id="266" x="1704" y="1040" width="72" height="40"/>
  <object id="267" x="504" y="1056" width="64" height="24"/>
  <object id="268" x="1312" y="1056" width="120" height="24"/>
  <object id="269" x="1488" y="1056" width="216" height="24"/>
 </objectgroup>
 <objectgroup id="296" name="overhead">
  <object id="270" x="760" y="254" width="385" height="56"><properties><property name="mask" value="mask_000.png"/></properties></object>
  <object id="271" x="131" y="257" width="49" height="55"><properties><property name="mask" value="mask_001.png"/></properties></object>
  <object id="272" x="259" y="272" width="262" height="51"><properties><property name="mask" value="mask_002.png"/></properties></object>
  <object id="273" x="577" y="300" width="49" height="62"><properties><property name="mask" value="mask_003.png"/></properties></object>
  <object id="274" x="1282" y="338" width="50" height="66"><properties><property name="mask" value="mask_004.png"/></properties></object>
  <object id="275" x="331" y="411" width="285" height="41"><properties><property name="mask" value="mask_005.png"/></properties></object>
  <object id="276" x="900" y="477" width="126" height="68"><properties><property name="mask" value="mask_006.png"/></properties></object>
  <object id="277" x="81" y="626" width="550" height="160"><properties><property name="mask" value="mask_007.png"/></properties></object>
  <object id="278" x="1257" y="627" width="576" height="151"><properties><property name="mask" value="mask_008.png"/></properties></object>
  <object id="279" x="673" y="669" width="521" height="121"><properties><property name="mask" value="mask_009.png"/></properties></object>
  <object id="280" x="30" y="683" width="40" height="35"><properties><property name="mask" value="mask_010.png"/></properties></object>
  <object id="281" x="1865" y="719" width="20" height="39"><properties><property name="mask" value="mask_011.png"/></properties></object>
  <object id="282" x="1640" y="800" width="164" height="126"><properties><property name="mask" value="mask_012.png"/></properties></object>
  <object id="283" x="103" y="855" width="48" height="113"><properties><property name="mask" value="mask_013.png"/></properties></object>
  <object id="284" x="1342" y="859" width="243" height="87"><properties><property name="mask" value="mask_014.png"/></properties></object>
  <object id="285" x="214" y="894" width="343" height="66"><properties><property name="mask" value="mask_015.png"/></properties></object>
  <object id="286" x="745" y="900" width="385" height="56"><properties><property name="mask" value="mask_016.png"/></properties></object>
  <object id="287" x="398" y="1054" width="12" height="12"><properties><property name="mask" value="mask_017.png"/></properties></object>
 </objectgroup>
 <objectgroup id="297" name="spawn">
  <object id="288" name="player" x="1132" y="572"><point/></object>
  <object id="289" name="teamjang" x="180" y="908"><point/></object>
  <object id="290" name="sasu" x="1364" y="860"><point/></object>
  <object id="291" name="bujang" x="1684" y="308"><point/></object>
  <object id="292" name="npc4" x="548" y="292"><point/></object>
  <object id="293" name="npc5" x="1072" y="885"><point/></object>
 </objectgroup>
</map>
