<?xml version="1.0" encoding="UTF-8"?>
<map version="1.10" tiledversion="1.12.2" orientation="orthogonal" renderorder="right-down" width="240" height="135" tilewidth="8" tileheight="8" infinite="0" nextlayerid="99" nextobjectid="326">
 <imagelayer id="90" name="background">
  <image source="jm-03.png" width="1920" height="1080"/>
 </imagelayer>
 <objectgroup id="325" name="walkable">
  <object id="1" x="440" y="184" width="176" height="64"/>
  <object id="2" x="1312" y="184" width="56" height="320"/>
  <object id="3" x="1688" y="184" width="72" height="32"/>
  <object id="4" x="192" y="192" width="112" height="64"/>
  <object id="5" x="1760" y="192" width="72" height="200"/>
  <object id="6" x="160" y="216" width="32" height="232"/>
  <object id="7" x="1696" y="216" width="64" height="8"/>
  <object id="8" x="1832" y="216" width="16" height="80"/>
  <object id="9" x="1704" y="224" width="56" height="160"/>
  <object id="10" x="1696" y="240" width="8" height="144"/>
  <object id="11" x="448" y="248" width="168" height="8"/>
  <object id="12" x="192" y="256" width="8" height="192"/>
  <object id="13" x="216" y="256" width="264" height="8"/>
  <object id="14" x="496" y="256" width="120" height="16"/>
  <object id="15" x="256" y="264" width="192" height="32"/>
  <object id="16" x="120" y="272" width="40" height="176"/>
  <object id="17" x="504" y="272" width="112" height="808"/>
  <object id="18" x="112" y="280" width="8" height="472"/>
  <object id="19" x="1656" y="280" width="40" height="104"/>
  <object id="20" x="104" y="288" width="8" height="464"/>
  <object id="21" x="96" y="296" width="8" height="128"/>
  <object id="22" x="256" y="296" width="48" height="152"/>
  <object id="23" x="400" y="296" width="48" height="152"/>
  <object id="24" x="1432" y="296" width="160" height="88"/>
  <object id="25" x="88" y="304" width="8" height="120"/>
  <object id="26" x="72" y="312" width="16" height="112"/>
  <object id="27" x="1424" y="312" width="8" height="72"/>
  <object id="28" x="1408" y="320" width="16" height="64"/>
  <object id="29" x="1592" y="320" width="24" height="64"/>
  <object id="30" x="616" y="328" width="112" height="224"/>
  <object id="31" x="744" y="328" width="224" height="168"/>
  <object id="32" x="976" y="328" width="224" height="168"/>
  <object id="33" x="1208" y="328" width="104" height="464"/>
  <object id="34" x="1368" y="328" width="40" height="144"/>
  <object id="35" x="1616" y="328" width="40" height="56"/>
  <object id="36" x="728" y="336" width="16" height="216"/>
  <object id="37" x="968" y="336" width="8" height="160"/>
  <object id="38" x="1200" y="336" width="8" height="720"/>
  <object id="39" x="1832" y="360" width="8" height="32"/>
  <object id="40" x="304" y="384" width="96" height="64"/>
  <object id="41" x="200" y="392" width="56" height="56"/>
  <object id="42" x="448" y="392" width="56" height="88"/>
  <object id="43" x="1760" y="392" width="64" height="360"/>
  <object id="44" x="120" y="448" width="16" height="304"/>
  <object id="45" x="424" y="448" width="24" height="8"/>
  <object id="46" x="1824" y="448" width="80" height="280"/>
  <object id="47" x="432" y="456" width="16" height="8"/>
  <object id="48" x="440" y="464" width="8" height="8"/>
  <object id="49" x="1368" y="472" width="32" height="32"/>
  <object id="50" x="456" y="480" width="48" height="8"/>
  <object id="51" x="472" y="488" width="32" height="592"/>
  <object id="52" x="744" y="496" width="64" height="16"/>
  <object id="53" x="1080" y="496" width="120" height="8"/>
  <object id="54" x="1112" y="504" width="88" height="32"/>
  <object id="55" x="1312" y="504" width="16" height="16"/>
  <object id="56" x="744" y="512" width="32" height="240"/>
  <object id="57" x="1312" y="520" width="8" height="272"/>
  <object id="58" x="1112" y="536" width="48" height="216"/>
  <object id="59" x="1192" y="536" width="8" height="240"/>
  <object id="60" x="616" y="552" width="80" height="344"/>
  <object id="61" x="736" y="552" width="8" height="200"/>
  <object id="62" x="728" y="560" width="8" height="192"/>
  <object id="63" x="1160" y="584" width="32" height="168"/>
  <object id="64" x="1320" y="584" width="48" height="200"/>
  <object id="65" x="1080" y="592" width="32" height="160"/>
  <object id="66" x="696" y="600" width="32" height="152"/>
  <object id="67" x="776" y="600" width="32" height="152"/>
  <object id="68" x="0" y="608" width="104" height="104"/>
  <object id="69" x="808" y="624" width="32" height="128"/>
  <object id="70" x="1048" y="624" width="32" height="128"/>
  <object id="71" x="424" y="648" width="48" height="104"/>
  <object id="72" x="840" y="664" width="208" height="88"/>
  <object id="73" x="1368" y="664" width="40" height="88"/>
  <object id="74" x="136" y="696" width="8" height="56"/>
  <object id="75" x="416" y="696" width="8" height="56"/>
  <object id="76" x="144" y="704" width="8" height="48"/>
  <object id="77" x="408" y="704" width="8" height="48"/>
  <object id="78" x="56" y="712" width="48" height="40"/>
  <object id="79" x="152" y="712" width="8" height="40"/>
  <object id="80" x="400" y="712" width="8" height="40"/>
  <object id="81" x="160" y="720" width="16" height="32"/>
  <object id="82" x="392" y="720" width="8" height="32"/>
  <object id="83" x="1824" y="728" width="24" height="328"/>
  <object id="84" x="464" y="752" width="8" height="328"/>
  <object id="85" x="696" y="752" width="16" height="144"/>
  <object id="86" x="1784" y="752" width="40" height="304"/>
  <object id="87" x="1320" y="784" width="24" height="8"/>
  <object id="88" x="1208" y="792" width="88" height="200"/>
  <object id="89" x="1296" y="832" width="40" height="248"/>
  <object id="90" x="224" y="848" width="88" height="136"/>
  <object id="91" x="352" y="848" width="112" height="232"/>
  <object id="92" x="1088" y="864" width="96" height="32"/>
  <object id="93" x="1584" y="880" width="112" height="176"/>
  <object id="94" x="56" y="888" width="168" height="32"/>
  <object id="95" x="864" y="888" width="48" height="96"/>
  <object id="96" x="1696" y="888" width="8" height="168"/>
  <object id="97" x="616" y="896" width="64" height="184"/>
  <object id="98" x="768" y="896" width="56" height="88"/>
  <object id="99" x="960" y="896" width="192" height="88"/>
  <object id="100" x="728" y="904" width="40" height="80"/>
  <object id="101" x="824" y="904" width="40" height="80"/>
  <object id="102" x="944" y="904" width="16" height="80"/>
  <object id="103" x="96" y="920" width="128" height="64"/>
  <object id="104" x="1704" y="936" width="64" height="120"/>
  <object id="105" x="680" y="944" width="24" height="136"/>
  <object id="106" x="912" y="944" width="32" height="40"/>
  <object id="107" x="1152" y="944" width="32" height="40"/>
  <object id="108" x="328" y="952" width="24" height="128"/>
  <object id="109" x="704" y="952" width="24" height="32"/>
  <object id="110" x="240" y="984" width="72" height="96"/>
  <object id="111" x="1208" y="992" width="56" height="64"/>
  <object id="112" x="1272" y="992" width="24" height="88"/>
  <object id="113" x="312" y="1000" width="16" height="80"/>
  <object id="114" x="1336" y="1016" width="80" height="64"/>
  <object id="115" x="1416" y="1024" width="168" height="56"/>
  <object id="116" x="1584" y="1056" width="72" height="24"/>
 </objectgroup>
 <objectgroup id="326" name="collision">
  <object id="117" x="432" y="176" width="192" height="8"/>
  <object id="118" x="1304" y="176" width="72" height="8"/>
  <object id="119" x="1680" y="176" width="88" height="8"/>
  <object id="120" x="184" y="184" width="128" height="8"/>
  <object id="121" x="432" y="184" width="8" height="72"/>
  <object id="122" x="616" y="184" width="8" height="144"/>
  <object id="123" x="1304" y="184" width="8" height="144"/>
  <object id="124" x="1368" y="184" width="8" height="144"/>
  <object id="125" x="1680" y="184" width="8" height="40"/>
  <object id="126" x="1760" y="184" width="80" height="8"/>
  <object id="127" x="184" y="192" width="8" height="24"/>
  <object id="128" x="304" y="192" width="8" height="64"/>
  <object id="129" x="1832" y="192" width="8" height="24"/>
  <object id="130" x="152" y="208" width="32" height="8"/>
  <object id="131" x="1840" y="208" width="16" height="8"/>
  <object id="132" x="152" y="216" width="8" height="56"/>
  <object id="133" x="1688" y="216" width="8" height="64"/>
  <object id="134" x="1848" y="216" width="8" height="88"/>
  <object id="135" x="1696" y="224" width="8" height="16"/>
  <object id="136" x="312" y="248" width="120" height="8"/>
  <object id="137" x="440" y="248" width="8" height="8"/>
  <object id="138" x="200" y="256" width="16" height="16"/>
  <object id="139" x="480" y="256" width="16" height="16"/>
  <object id="140" x="112" y="264" width="40" height="8"/>
  <object id="141" x="216" y="264" width="40" height="8"/>
  <object id="142" x="448" y="264" width="32" height="8"/>
  <object id="143" x="104" y="272" width="16" height="8"/>
  <object id="144" x="200" y="272" width="8" height="120"/>
  <object id="145" x="248" y="272" width="8" height="120"/>
  <object id="146" x="448" y="272" width="8" height="120"/>
  <object id="147" x="488" y="272" width="16" height="8"/>
  <object id="148" x="1648" y="272" width="40" height="8"/>
  <object id="149" x="96" y="280" width="16" height="8"/>
  <object id="150" x="496" y="280" width="8" height="112"/>
  <object id="151" x="1648" y="280" width="8" height="48"/>
  <object id="152" x="88" y="288" width="16" height="8"/>
  <object id="153" x="1416" y="288" width="184" height="8"/>
  <object id="154" x="80" y="296" width="16" height="8"/>
  <object id="155" x="304" y="296" width="96" height="8"/>
  <object id="156" x="1424" y="296" width="8" height="16"/>
  <object id="157" x="1592" y="296" width="8" height="24"/>
  <object id="158" x="1832" y="296" width="16" height="8"/>
  <object id="159" x="64" y="304" width="24" height="8"/>
  <object id="160" x="304" y="304" width="8" height="80"/>
  <object id="161" x="392" y="304" width="8" height="80"/>
  <object id="162" x="1416" y="304" width="8" height="16"/>
  <object id="163" x="1832" y="304" width="8" height="56"/>
  <object id="164" x="64" y="312" width="8" height="120"/>
  <object id="165" x="1400" y="312" width="16" height="8"/>
  <object id="166" x="1600" y="312" width="24" height="8"/>
  <object id="167" x="624" y="320" width="680" height="8"/>
  <object id="168" x="1376" y="320" width="32" height="8"/>
  <object id="169" x="1616" y="320" width="32" height="8"/>
  <object id="170" x="728" y="328" width="16" height="8"/>
  <object id="171" x="968" y="328" width="8" height="8"/>
  <object id="172" x="1200" y="328" width="8" height="8"/>
  <object id="173" x="1840" y="352" width="8" height="48"/>
  <object id="174" x="312" y="376" width="80" height="8"/>
  <object id="175" x="208" y="384" width="40" height="8"/>
  <object id="176" x="456" y="384" width="40" height="8"/>
  <object id="177" x="1408" y="384" width="352" height="8"/>
  <object id="178" x="1408" y="392" width="8" height="88"/>
  <object id="179" x="1752" y="392" width="8" height="368"/>
  <object id="180" x="1824" y="392" width="16" height="8"/>
  <object id="181" x="1824" y="400" width="8" height="48"/>
  <object id="182" x="72" y="424" width="32" height="8"/>
  <object id="183" x="96" y="432" width="8" height="176"/>
  <object id="184" x="1832" y="440" width="80" height="8"/>
  <object id="185" x="168" y="448" width="256" height="8"/>
  <object id="186" x="1904" y="448" width="8" height="288"/>
  <object id="187" x="160" y="456" width="16" height="16"/>
  <object id="188" x="416" y="456" width="16" height="8"/>
  <object id="189" x="152" y="464" width="8" height="16"/>
  <object id="190" x="424" y="464" width="16" height="8"/>
  <object id="191" x="144" y="472" width="8" height="16"/>
  <object id="192" x="432" y="472" width="16" height="8"/>
  <object id="193" x="1400" y="472" width="8" height="40"/>
  <object id="194" x="136" y="480" width="8" height="216"/>
  <object id="195" x="440" y="480" width="16" height="8"/>
  <object id="196" x="448" y="488" width="24" height="8"/>
  <object id="197" x="464" y="496" width="8" height="152"/>
  <object id="198" x="808" y="496" width="272" height="8"/>
  <object id="199" x="808" y="504" width="8" height="16"/>
  <object id="200" x="1064" y="504" width="48" height="8"/>
  <object id="201" x="1328" y="504" width="72" height="8"/>
  <object id="202" x="776" y="512" width="32" height="8"/>
  <object id="203" x="1104" y="512" width="8" height="80"/>
  <object id="204" x="1328" y="512" width="8" height="16"/>
  <object id="205" x="776" y="520" width="8" height="80"/>
  <object id="206" x="1320" y="520" width="8" height="64"/>
  <object id="207" x="1160" y="536" width="32" height="8"/>
  <object id="208" x="1160" y="544" width="8" height="40"/>
  <object id="209" x="1184" y="544" width="8" height="40"/>
  <object id="210" x="696" y="552" width="40" height="8"/>
  <object id="211" x="696" y="560" width="8" height="40"/>
  <object id="212" x="720" y="560" width="8" height="40"/>
  <object id="213" x="1168" y="576" width="16" height="8"/>
  <object id="214" x="1328" y="576" width="48" height="8"/>
  <object id="215" x="1072" y="584" width="32" height="8"/>
  <object id="216" x="1368" y="584" width="8" height="80"/>
  <object id="217" x="704" y="592" width="16" height="8"/>
  <object id="218" x="784" y="592" width="32" height="8"/>
  <object id="219" x="1072" y="592" width="8" height="32"/>
  <object id="220" x="0" y="600" width="96" height="8"/>
  <object id="221" x="808" y="600" width="8" height="24"/>
  <object id="222" x="0" y="608" width="8" height="120"/>
  <object id="223" x="816" y="616" width="32" height="8"/>
  <object id="224" x="1040" y="616" width="32" height="8"/>
  <object id="225" x="840" y="624" width="8" height="40"/>
  <object id="226" x="1040" y="624" width="8" height="40"/>
  <object id="227" x="408" y="640" width="56" height="8"/>
  <object id="228" x="416" y="648" width="8" height="48"/>
  <object id="229" x="848" y="656" width="192" height="8"/>
  <object id="230" x="1376" y="656" width="40" height="8"/>
  <object id="231" x="1408" y="664" width="8" height="96"/>
  <object id="232" x="144" y="688" width="8" height="16"/>
  <object id="233" x="408" y="688" width="8" height="16"/>
  <object id="234" x="152" y="696" width="8" height="16"/>
  <object id="235" x="400" y="696" width="8" height="16"/>
  <object id="236" x="160" y="704" width="8" height="16"/>
  <object id="237" x="392" y="704" width="8" height="16"/>
  <object id="238" x="8" y="712" width="48" height="8"/>
  <object id="239" x="168" y="712" width="16" height="8"/>
  <object id="240" x="384" y="712" width="8" height="32"/>
  <object id="241" x="48" y="720" width="8" height="40"/>
  <object id="242" x="176" y="720" width="8" height="24"/>
  <object id="243" x="1848" y="728" width="56" height="8"/>
  <object id="244" x="184" y="736" width="200" height="8"/>
  <object id="245" x="1848" y="736" width="8" height="328"/>
  <object id="246" x="56" y="752" width="408" height="8"/>
  <object id="247" x="712" y="752" width="488" height="8"/>
  <object id="248" x="1368" y="752" width="40" height="8"/>
  <object id="249" x="1760" y="752" width="24" height="8"/>
  <object id="250" x="456" y="760" width="8" height="88"/>
  <object id="251" x="712" y="760" width="8" height="144"/>
  <object id="252" x="1192" y="760" width="8" height="304"/>
  <object id="253" x="1368" y="760" width="8" height="32"/>
  <object id="254" x="1776" y="760" width="8" height="312"/>
  <object id="255" x="1344" y="784" width="24" height="8"/>
  <object id="256" x="1184" y="792" width="8" height="200"/>
  <object id="257" x="1296" y="792" width="56" height="8"/>
  <object id="258" x="1296" y="800" width="8" height="32"/>
  <object id="259" x="1304" y="824" width="40" height="8"/>
  <object id="260" x="1336" y="832" width="8" height="184"/>
  <object id="261" x="216" y="840" width="104" height="8"/>
  <object id="262" x="344" y="840" width="112" height="8"/>
  <object id="263" x="216" y="848" width="8" height="40"/>
  <object id="264" x="312" y="848" width="8" height="152"/>
  <object id="265" x="344" y="848" width="8" height="104"/>
  <object id="266" x="1080" y="856" width="104" height="8"/>
  <object id="267" x="1080" y="864" width="8" height="32"/>
  <object id="268" x="912" y="872" width="8" height="72"/>
  <object id="269" x="1576" y="872" width="136" height="8"/>
  <object id="270" x="48" y="880" width="168" height="8"/>
  <object id="271" x="856" y="880" width="56" height="8"/>
  <object id="272" x="1576" y="880" width="8" height="144"/>
  <object id="273" x="1704" y="880" width="8" height="56"/>
  <object id="274" x="48" y="888" width="8" height="48"/>
  <object id="275" x="760" y="888" width="72" height="8"/>
  <object id="276" x="856" y="888" width="8" height="16"/>
  <object id="277" x="944" y="888" width="136" height="8"/>
  <object id="278" x="680" y="896" width="32" height="8"/>
  <object id="279" x="720" y="896" width="48" height="8"/>
  <object id="280" x="824" y="896" width="32" height="8"/>
  <object id="281" x="936" y="896" width="24" height="8"/>
  <object id="282" x="1152" y="896" width="32" height="8"/>
  <object id="283" x="680" y="904" width="8" height="40"/>
  <object id="284" x="720" y="904" width="8" height="48"/>
  <object id="285" x="936" y="904" width="8" height="40"/>
  <object id="286" x="1152" y="904" width="8" height="40"/>
  <object id="287" x="56" y="920" width="40" height="8"/>
  <object id="288" x="88" y="928" width="8" height="64"/>
  <object id="289" x="1712" y="928" width="64" height="8"/>
  <object id="290" x="688" y="936" width="24" height="8"/>
  <object id="291" x="920" y="936" width="16" height="8"/>
  <object id="292" x="1160" y="936" width="24" height="8"/>
  <object id="293" x="1768" y="936" width="8" height="136"/>
  <object id="294" x="320" y="944" width="24" height="8"/>
  <object id="295" x="704" y="944" width="16" height="8"/>
  <object id="296" x="320" y="952" width="8" height="48"/>
  <object id="297" x="96" y="984" width="144" height="8"/>
  <object id="298" x="704" y="984" width="480" height="8"/>
  <object id="299" x="232" y="992" width="8" height="88"/>
  <object id="300" x="704" y="992" width="8" height="88"/>
  <object id="301" x="1264" y="992" width="8" height="88"/>
  <object id="302" x="1344" y="1008" width="80" height="8"/>
  <object id="303" x="1416" y="1016" width="160" height="8"/>
  <object id="304" x="1200" y="1056" width="64" height="8"/>
  <object id="305" x="1656" y="1056" width="112" height="16"/>
  <object id="306" x="1784" y="1056" width="64" height="8"/>
  <object id="307" x="240" y="1072" width="464" height="8"/>
  <object id="308" x="712" y="1072" width="8" height="8"/>
  <object id="309" x="1272" y="1072" width="416" height="8"/>
 </objectgroup>
 <objectgroup id="327" name="overhead">
  <object id="310" x="838" y="461" width="52" height="45"><properties><property name="mask" value="mask_000.png"/></properties></object>
  <object id="311" x="894" y="462" width="44" height="44"><properties><property name="mask" value="mask_001.png"/></properties></object>
  <object id="312" x="942" y="462" width="44" height="44"><properties><property name="mask" value="mask_002.png"/></properties></object>
  <object id="313" x="998" y="462" width="44" height="44"><properties><property name="mask" value="mask_003.png"/></properties></object>
  <object id="314" x="1326" y="486" width="36" height="28"><properties><property name="mask" value="mask_004.png"/></properties></object>
  <object id="315" x="1158" y="502" width="36" height="44"><properties><property name="mask" value="mask_005.png"/></properties></object>
  <object id="316" x="694" y="518" width="44" height="44"><properties><property name="mask" value="mask_006.png"/></properties></object>
  <object id="317" x="1278" y="726" width="84" height="84"><properties><property name="mask" value="mask_007.png"/></properties></object>
  <object id="318" x="678" y="870" width="36" height="44"><properties><property name="mask" value="mask_008.png"/></properties></object>
  <object id="319" x="1654" y="982" width="116" height="84"><properties><property name="mask" value="mask_009.png"/></properties></object>
  <object id="320" x="1190" y="990" width="84" height="76"><properties><property name="mask" value="mask_010.png"/></properties></object>
 </objectgroup>
 <objectgroup id="328" name="spawn">
  <object id="321" name="player" x="579" y="1053"><point/></object>
  <object id="322" name="teamjang" x="1227" y="350"><point/></object>
  <object id="323" name="sasu" x="1536" y="327"><point/></object>
  <object id="324" name="bujang" x="245" y="424"><point/></object>
 </objectgroup>
</map>
