<?xml version="1.0" encoding="UTF-8"?>
<map version="1.10" tiledversion="1.12.2" orientation="orthogonal" renderorder="right-down" width="80" height="45" tilewidth="24" tileheight="24" infinite="0" nextlayerid="7" nextobjectid="34">
 <imagelayer id="2" name="background" locked="1">
  <image source="전기_배전_계측_점검실.png" width="1920" height="1080"/>
 </imagelayer>
 <objectgroup id="3" name="play_bounds" locked="1">
  <object id="1" name="main_play_area" x="70" y="80" width="1780" height="656"/>
 </objectgroup>
 <objectgroup id="4" name="walkable" locked="1">
  <object id="2" name="walkable" x="70" y="80" width="1780" height="656"/>
 </objectgroup>
 <objectgroup id="5" name="collision" locked="1">
  <object id="3" x="455.89" y="156.885" width="963.461" height="143.965"/>
  <object id="4" x="1452.57" y="138.428" width="70.137" height="136.583"/>
  <object id="5" x="1526.4" y="108.897" width="175.342" height="118.125"/>
  <object id="6" x="1637.14" y="230.714" width="64.5999" height="502.033"/>
  <object id="7" x="1426.73" y="629.387" width="208.565" height="101.514"/>
  <object id="8" x="1125.88" y="633.079" width="228.868" height="107.051"/>
  <object id="9" x="922.855" y="618.313" width="149.503" height="108.897"/>
  <object id="11" x="1079.74" y="657.073" width="44.297" height="77.5198"/>
  <object id="12" x="745.667" y="622.004" width="145.811" height="101.514"/>
  <object id="13" x="649.69" y="627.541" width="71.9827" height="101.514"/>
  <object id="14" x="485.422" y="603.547" width="55.3713" height="127.354"/>
  <object id="15" x="546.33" y="719.827" width="103.36" height="23.9942"/>
  <object id="16" x="143.965" y="636.77" width="265.782" height="94.1312"/>
  <object id="17" x="99.6683" y="677.376" width="33.2228" height="70.137"/>
  <object id="18" x="103.36" y="431.896" width="252.862" height="145.811"/>
  <object id="19" x="169.805" y="278.702" width="212.257" height="95.9769"/>
  <object id="20" x="103.36" y="118.125" width="145.811" height="112.588"/>
  <object id="21" x="84.9027" y="232.559" width="44.297" height="167.96"/>
  <object id="22" x="304.542" y="145.811" width="90.4398" height="88.5941"/>
  <object id="23" x="247.325" y="97.8226" width="1279.08" height="125.508"/>
  <object id="24" x="68.2913" y="579.553" width="33.2228" height="92.2855"/>
  <object id="25" x="73.8284" y="391.291" width="25.8399" height="42.4513"/>
  <object id="26" x="511.262" y="376.525" width="418.976" height="112.588"/>
  <object id="27" x="981.918" y="370.988" width="387.599" height="116.28"/>
  <object id="28" x="1480.26" y="518.645" width="94.1312" height="49.8342"/>
  <object id="29" x="1454.42" y="359.913" width="142.12" height="86.7484"/>
 </objectgroup>
 <objectgroup id="6" name="spawn" locked="1">
  <object id="30" name="player" x="551.867" y="518.645">
   <point/>
  </object>
  <object id="31" name="sasu" x="812.112" y="526.027">
   <point/>
  </object>
  <object id="32" name="teamjang" x="407.902" y="335.919">
   <point/>
  </object>
  <object id="33" name="bujang" x="1522.71" y="485.422">
   <point/>
  </object>
 </objectgroup>
</map>
