<?xml version="1.0" encoding="UTF-8"?>
<map version="1.10" tiledversion="1.12.2" orientation="orthogonal" renderorder="right-down" width="80" height="45" tilewidth="24" tileheight="24" infinite="0" nextlayerid="12" nextobjectid="30">
 <imagelayer id="7" name="background" locked="1">
  <image source="IT_운영_네트워크_관제실.png" width="1920" height="1080"/>
 </imagelayer>
 <objectgroup id="8" name="play_bounds" locked="1">
  <object id="3" name="main_play_area" x="70" y="80" width="1780" height="656"/>
 </objectgroup>
 <objectgroup id="9" name="walkable" locked="1">
  <object id="4" name="walkable" x="70" y="80" width="1780" height="656"/>
 </objectgroup>
 <objectgroup id="10" name="collision" locked="1">
  <object id="5" x="424.513" y="302.696" width="509.416" height="95.9769"/>
  <object id="6" x="987.455" y="306.388" width="334.074" height="97.8226"/>
  <object id="7" x="1450.73" y="330.382" width="95.9769" height="191.954"/>
  <object id="8" x="1681.44" y="442.97" width="143.965" height="105.205"/>
  <object id="9" x="579.553" y="99.6683" width="1007.76" height="129.2"/>
  <object id="10" x="1688.82" y="90.4398" width="149.503" height="131.045"/>
  <object id="11" x="1661.14" y="616.467" width="186.417" height="110.743"/>
  <object id="12" x="1362.13" y="647.844" width="286.085" height="79.3655"/>
  <object id="13" x="959.769" y="640.461" width="356.222" height="88.5941"/>
  <object id="14" x="980.072" y="483.576" width="348.839" height="81.2112"/>
  <object id="15" x="437.433" y="476.193" width="487.267" height="99.6683"/>
  <object id="16" x="526.027" y="671.839" width="308.234" height="55.3713"/>
  <object id="17" x="95.9769" y="598.01" width="47.9885" height="132.891"/>
  <object id="18" x="151.348" y="647.844" width="147.657" height="75.6741"/>
  <object id="19" x="180.88" y="492.805" width="173.497" height="108.897"/>
  <object id="20" x="83.057" y="430.05" width="51.6799" height="125.508"/>
  <object id="21" x="151.348" y="315.616" width="158.731" height="99.6683"/>
  <object id="22" x="145.811" y="129.2" width="195.645" height="119.971"/>
  <object id="23" x="374.679" y="108.897" width="84.9027" height="97.8226"/>
  <object id="24" x="1829.1" y="241.788" width="25.8399" height="252.862"/>
 </objectgroup>
 <objectgroup id="11" name="spawn">
  <object id="26" name="player" x="553.713" y="610.93">
   <point/>
  </object>
  <object id="27" name="sasu" x="1718.36" y="308.234">
   <point/>
  </object>
  <object id="28" name="bujang" x="551.867" y="293.468">
   <point/>
  </object>
  <object id="29" name="teamjang" x="1271.69" y="489.113">
   <point/>
  </object>
 </objectgroup>
</map>
