<?xml version="1.0" encoding="UTF-8"?>
<map version="1.10" tiledversion="1.12.2" orientation="orthogonal" renderorder="right-down" width="80" height="45" tilewidth="24" tileheight="24" infinite="0" nextlayerid="7" nextobjectid="76">
 <imagelayer id="2" name="background" locked="1">
  <image source="현대 차량 정비소 내부.png" width="1920" height="1080"/>
 </imagelayer>
 <objectgroup id="3" name="player_bounds" locked="1">
  <object id="1" x="70" y="80" width="1780" height="656"/>
 </objectgroup>
 <objectgroup id="4" name="walkable" locked="1">
  <object id="2" x="70" y="80" width="1780" height="656"/>
 </objectgroup>
 <objectgroup id="5" name="collision" locked="1">
  <object id="3" x="844.784" y="-205.099"/>
  <object id="4" x="356.667" y="589.333" width="20" height="148.667"/>
  <object id="5" x="397.333" y="670.667" width="122.667" height="60.6667"/>
  <object id="6" x="377.333" y="702.667" width="24.6667" height="31.3333"/>
  <object id="7" x="519.333" y="685.333" width="36" height="50"/>
  <object id="8" x="549.333" y="706.667" width="23.3333" height="29.3333"/>
  <object id="9" x="599.333" y="640" width="20.6667" height="51.3333"/>
  <object id="10" x="452.667" y="599.333" width="198.667" height="44.6667"/>
  <object id="11" x="376.667" y="593.333" width="30.6667" height="38"/>
  <object id="12" x="632" y="644" width="14.6667" height="91.3333"/>
  <object id="13" x="646.667" y="692.667" width="20" height="45.3333"/>
  <object id="14" x="657.333" y="604.667" width="70.6667" height="48"/>
  <object id="15" x="678.667" y="655.333" width="17.3333" height="30"/>
  <object id="16" x="845.333" y="606" width="60" height="46.6667"/>
  <object id="17" x="847.333" y="654.667" width="52.6667" height="44.6667"/>
  <object id="18" x="736.667" y="674" width="95.3333" height="59.3333"/>
  <object id="19" x="762.667" y="735.333" width="38.6667" height="38"/>
  <object id="20" x="866.667" y="762" width="29.3333" height="42.6667"/>
  <object id="21" x="632.667" y="683.333" width="26" height="54"/>
  <object id="22" x="771.333" y="663.333" width="26" height="23.3333"/>
  <object id="23" x="905.333" y="594.667" width="11.3333" height="148"/>
  <object id="24" x="926.667" y="603.333" width="107.333" height="62.6667"/>
  <object id="25" x="1088.67" y="608.667" width="9.33333" height="78.6667"/>
  <object id="26" x="944.667" y="723.333" width="93.3333" height="48.6667"/>
  <object id="27" x="1122.67" y="720.667" width="188.667" height="22.6667"/>
  <object id="28" x="1341.33" y="722.667" width="36.6667" height="25.3333"/>
  <object id="29" x="1095.33" y="620.667" width="276.667" height="51.3333"/>
  <object id="30" x="360.667" y="78" width="6.66667" height="246.667"/>
  <object id="31" x="353.333" y="524.667" width="26" height="50.6667"/>
  <object id="32" x="99.3333" y="94" width="48" height="236"/>
  <object id="33" x="150.667" y="85.3333" width="211.333" height="86"/>
  <object id="34" x="225.333" y="160.667" width="57.3333" height="65.3333"/>
  <object id="35" x="354.667" y="166" width="13.3333" height="154.667"/>
  <object id="36" x="370" y="84.6667" width="64" height="91.3333"/>
  <object id="37" x="542.667" y="242.667" width="19.3333" height="224.667"/>
  <object id="38" x="574" y="245.333" width="99.3333" height="184.667"/>
  <object id="39" x="689.333" y="250.667" width="19.3333" height="207.333"/>
  <object id="40" x="780" y="368.667" width="60.6667" height="70"/>
  <object id="41" x="902" y="242.667" width="8" height="218.667"/>
  <object id="42" x="930.667" y="246" width="88" height="195.333"/>
  <object id="43" x="1034.67" y="242.667" width="20" height="226"/>
  <object id="44" x="440.667" y="82.6667" width="726.667" height="107.333"/>
  <object id="45" x="1174" y="90.6667" width="118" height="100"/>
  <object id="46" x="1293.33" y="90" width="150.667" height="112.667"/>
  <object id="47" x="1318" y="248" width="42" height="60.6667"/>
  <object id="48" x="1207.33" y="230.667" width="68.6667" height="82.6667"/>
  <object id="49" x="1450" y="82" width="128" height="64.6667"/>
  <object id="50" x="1583.33" y="83.3333" width="64" height="44"/>
  <object id="51" x="1632.67" y="119.333" width="24" height="268"/>
  <object id="52" x="1659.33" y="232" width="33.3333" height="155.333"/>
  <object id="53" x="1695.33" y="320.667" width="153.333" height="65.3333"/>
  <object id="54" x="1722" y="116.667" width="126" height="112.667"/>
  <object id="55" x="1565.33" y="147.333" width="14.6667" height="446.667"/>
  <object id="56" x="1588" y="404.667" width="256" height="100.667"/>
  <object id="57" x="1477.33" y="496" width="12" height="182"/>
  <object id="58" x="1501.33" y="531.333" width="58" height="162"/>
  <object id="59" x="1498.67" y="501.333" width="50.6667" height="34.6667"/>
  <object id="60" x="1732" y="575.333" width="68" height="94.6667"/>
  <object id="61" x="1806" y="602" width="26.6667" height="60"/>
  <object id="62" x="1771.33" y="704.667" width="32.6667" height="34"/>
  <object id="63" x="1126.67" y="716" width="182.667" height="38"/>
  <object id="64" x="1545.33" y="164" width="18.6667" height="71.3333"/>
  <object id="65" x="1540.67" y="248" width="24" height="57.3333"/>
  <object id="66" x="1520.67" y="336.667" width="40" height="62.6667"/>
  <object id="67" x="1544" y="400.667" width="21.3333" height="54.6667"/>
  <object id="68" x="74.6667" y="310.667" width="22.6667" height="116"/>
  <object id="69" x="73.3333" y="462" width="28" height="79.3333"/>
  <object id="70" x="75.3333" y="566.667" width="32.6667" height="92"/>
 </objectgroup>
 <objectgroup id="6" name="spawns" locked="1">
  <object id="71" name="팀장" x="1210" y="455.333">
   <point/>
  </object>
  <object id="72" name="부장" x="1059.33" y="718.667">
   <point/>
  </object>
  <object id="73" name="사수" x="794" y="334">
   <point/>
  </object>
  <object id="74" name="player" x="246" y="462.667">
   <point/>
  </object>
 </objectgroup>
</map>
