<?xml version="1.0" encoding="UTF-8"?>
<map version="1.10" tiledversion="1.12.2" orientation="orthogonal" renderorder="right-down" width="80" height="45" tilewidth="24" tileheight="24" infinite="0" nextlayerid="7" nextobjectid="36">
 <imagelayer id="2" name="background" locked="1">
  <image source="콘텐츠sns운영.png" width="1920" height="1080"/>
 </imagelayer>
 <objectgroup id="3" name="play_bounds" locked="1">
  <object id="1" name="main_play_area" x="70" y="80" width="1780" height="656"/>
 </objectgroup>
 <objectgroup id="4" name="walkable" locked="1">
  <object id="2" name="walkable" x="70" y="80" width="1780" height="656"/>
 </objectgroup>
 <objectgroup id="5" name="collision" locked="1">
  <object id="3" x="516.799" y="391.291" width="324.845" height="68.2913"/>
  <object id="4" x="904.398" y="387.599" width="300.851" height="83.057"/>
  <object id="5" x="513.107" y="546.33" width="324.845" height="59.0627"/>
  <object id="6" x="893.324" y="542.639" width="302.696" height="59.0627"/>
  <object id="8" x="317.462" y="695.833" width="963.461" height="35.0685"/>
  <object id="9" x="468.81" y="112.588" width="730.901" height="118.125"/>
  <object id="10" x="439.279" y="227.022" width="806.575" height="66.4456"/>
  <object id="11" x="369.142" y="476.193" width="23.9942" height="236.251"/>
  <object id="13" x="83.057" y="682.913" width="245.479" height="47.9885"/>
  <object id="14" x="83.057" y="378.371" width="317.462" height="27.6857"/>
  <object id="15" x="75.6741" y="481.73" width="75.6741" height="35.0685"/>
  <object id="16" x="311.925" y="479.885" width="68.2913" height="35.0685"/>
  <object id="17" x="70.137" y="518.645" width="16.6114" height="158.731"/>
  <object id="18" x="160.577" y="557.404" width="131.045" height="75.6741"/>
  <object id="19" x="151.348" y="269.474" width="180.88" height="62.7541"/>
  <object id="20" x="319.308" y="94.1312" width="143.965" height="79.3655"/>
  <object id="21" x="385.753" y="177.188" width="23.9942" height="149.503"/>
  <object id="22" x="249.171" y="142.12" width="83.057" height="49.8342"/>
  <object id="23" x="151.348" y="110.743" width="81.2112" height="66.4456"/>
  <object id="24" x="70.137" y="245.479" width="40.6056" height="132.891"/>
  <object id="25" x="77.5198" y="112.588" width="71.9827" height="66.4456"/>
  <object id="26" x="68.2913" y="404.211" width="23.9942" height="83.057"/>
  <object id="27" x="1269.85" y="478.039" width="16.6114" height="230.714"/>
  <object id="28" x="1264.31" y="121.817" width="29.5314" height="241.788"/>
  <object id="29" x="1327.07" y="407.902" width="199.337" height="49.8342"/>
  <object id="30" x="1585.47" y="99.6683" width="36.9142" height="636.77"/>
  <object id="31" x="1522.71" y="721.673" width="57.217" height="18.4571"/>
 </objectgroup>
 <objectgroup id="6" name="spawn" locked="1">
  <object id="32" name="player" x="490.959" y="330.382">
   <point/>
  </object>
  <object id="33" name="sasu" x="950.541" y="503.879">
   <point/>
  </object>
  <object id="34" name="teamjang" x="175.342" y="542.639">
   <point/>
  </object>
  <object id="35" name="bujang" x="1288.31" y="441.125">
   <point/>
  </object>
 </objectgroup>
</map>
