<?xml version="1.0" encoding="UTF-8"?>
<map version="1.10" tiledversion="1.12.2" orientation="orthogonal" renderorder="right-down" width="80" height="45" tilewidth="24" tileheight="24" infinite="0" nextlayerid="7" nextobjectid="55">
 <imagelayer id="2" name="background" locked="1">
  <image source="작업순서_농축산현장작업.png" width="1920" height="1080"/>
 </imagelayer>
 <objectgroup id="3" name="play_bounds" locked="1">
  <object id="1" x="70" y="80" width="1780" height="656"/>
 </objectgroup>
 <objectgroup id="4" name="walkable" locked="1">
  <object id="2" x="70" y="80" width="1780" height="656"/>
 </objectgroup>
 <objectgroup id="5" name="collision" locked="1">
  <object id="3" x="288" y="161" width="11" height="259"/>
  <object id="4" x="300" y="174" width="225" height="126"/>
  <object id="5" x="311" y="303" width="47" height="85"/>
  <object id="6" x="525" y="174" width="81" height="102"/>
  <object id="7" x="521" y="297" width="31" height="69"/>
  <object id="8" x="515" y="408" width="25" height="42"/>
  <object id="9" x="602" y="272" width="8" height="182"/>
  <object id="10" x="618" y="168" width="552" height="99"/>
  <object id="11" x="1173" y="183" width="251" height="80"/>
  <object id="12" x="1460" y="179" width="4" height="272"/>
  <object id="13" x="1458" y="192" width="220" height="83"/>
  <object id="14" x="1457" y="273" width="6" height="203"/>
  <object id="15" x="1161" y="262" width="10" height="153"/>
  <object id="16" x="1175" y="288" width="34" height="119"/>
  <object id="17" x="1251" y="279" width="15" height="73"/>
  <object id="18" x="1422" y="258" width="31" height="91"/>
  <object id="19" x="1668" y="279" width="20" height="469"/>
  <object id="20" x="1641" y="541" width="50" height="191"/>
  <object id="21" x="1630" y="447" width="47" height="51"/>
  <object id="22" x="1646" y="375" width="35" height="58"/>
  <object id="23" x="1541" y="393" width="56" height="37"/>
  <object id="24" x="1473" y="337" width="13" height="52"/>
  <object id="25" x="1516" y="301" width="106" height="41"/>
  <object id="26" x="1177" y="402" width="76" height="49"/>
  <object id="27" x="1395" y="403" width="64" height="61"/>
  <object id="28" x="994" y="405" width="179" height="44"/>
  <object id="29" x="1056" y="385" width="48" height="20"/>
  <object id="30" x="666" y="335" width="450" height="26"/>
  <object id="31" x="674" y="410" width="222" height="45"/>
  <object id="32" x="629" y="415" width="67" height="34"/>
  <object id="33" x="346" y="490" width="239" height="22"/>
  <object id="34" x="309" y="667" width="273" height="25"/>
  <object id="35" x="578" y="502" width="46" height="185"/>
  <object id="37" x="999" y="502" width="210" height="76"/>
  <object id="38" x="726" y="505" width="148" height="74"/>
  <object id="39" x="915" y="508" width="77" height="68"/>
  <object id="40" x="1223" y="500" width="256" height="21"/>
  <object id="41" x="1473" y="517" width="17" height="178"/>
  <object id="42" x="1224" y="670" width="282" height="31"/>
  <object id="45" x="1190" y="587" width="36" height="121"/>
  <object id="46" x="711" y="705" width="429" height="29"/>
  <object id="51" x="288" y="415" width="17" height="329"/>
  <object id="52" x="1671" y="489" width="9" height="60"/>
  <object id="53" x="1499" y="539" width="40" height="194"/>
  <object id="54" x="626" y="593" width="6" height="88"/>
 </objectgroup>
 <objectgroup id="6" name="spawns" locked="1">
  <object id="47" name="부장" x="1587" y="617">
   <point/>
  </object>
  <object id="48" name="팀장" x="950" y="485">
   <point/>
  </object>
  <object id="49" name="사수" x="425" y="362">
   <point/>
  </object>
  <object id="50" name="player" x="861" y="624">
   <point/>
  </object>
 </objectgroup>
</map>
