<?xml version="1.0" encoding="UTF-8"?>
<map version="1.10" tiledversion="1.12.2" orientation="orthogonal" renderorder="right-down" width="80" height="45" tilewidth="24" tileheight="24" infinite="0" nextlayerid="7" nextobjectid="36">
 <imagelayer id="2" name="background" locked="1">
  <image source="항공_운영_제어실.png" width="1920" height="1080"/>
 </imagelayer>
 <objectgroup id="3" name="play_bounds" locked="1">
  <object id="1" name="main_play_area" x="70" y="80" width="1780" height="656"/>
 </objectgroup>
 <objectgroup id="4" name="walkable" locked="1">
  <object id="2" name="walkable" x="70" y="80" width="1780" height="656"/>
 </objectgroup>
 <objectgroup id="5" name="collision" locked="1">
  <object id="3" x="673.684" y="79.3655" width="520.49" height="293.468"/>
  <object id="4" x="1293.84" y="86.7484" width="267.628" height="258.399"/>
  <object id="5" x="1572.55" y="138.428" width="66.4456" height="221.485"/>
  <object id="6" x="1644.53" y="92.2855" width="49.8342" height="406.056"/>
  <object id="7" x="1698.05" y="105.205" width="59.0627" height="514.953"/>
  <object id="8" x="1768.19" y="173.497" width="75.6741" height="577.707"/>
  <object id="9" x="1716.51" y="623.85" width="49.8342" height="66.4456"/>
  <object id="10" x="1559.63" y="627.541" width="57.217" height="110.743"/>
  <object id="11" x="1543.01" y="542.639" width="59.0627" height="46.1428"/>
  <object id="12" x="1613.15" y="570.324" width="60.9084" height="42.4513"/>
  <object id="13" x="1253.24" y="538.947" width="212.257" height="147.657"/>
  <object id="14" x="812.112" y="457.736" width="284.239" height="156.885"/>
  <object id="15" x="610.93" y="455.89" width="142.12" height="142.12"/>
  <object id="16" x="210.411" y="286.085" width="352.531" height="186.417"/>
  <object id="17" x="73.8284" y="487.267" width="70.137" height="238.097"/>
  <object id="18" x="153.194" y="509.416" width="46.1428" height="221.485"/>
  <object id="19" x="201.182" y="526.027" width="36.9142" height="212.257"/>
  <object id="20" x="245.479" y="546.33" width="44.297" height="184.571"/>
  <object id="21" x="291.622" y="577.707" width="36.9142" height="149.503"/>
  <object id="22" x="286.085" y="561.096" width="47.9885" height="9.22855"/>
  <object id="23" x="466.965" y="622.004" width="86.7484" height="77.5198"/>
  <object id="24" x="492.805" y="601.702" width="49.8342" height="25.8399"/>
  <object id="25" x="215.948" y="110.743" width="365.451" height="123.663"/>
  <object id="26" x="71.9827" y="143.965" width="62.7541" height="127.354"/>
  <object id="27" x="138.428" y="214.102" width="62.7541" height="77.5198"/>
  <object id="28" x="751.204" y="705.061" width="326.691" height="27.6857"/>
  <object id="29" x="324.845" y="723.518" width="431.896" height="68.2913"/>
  <object id="30" x="1074.2" y="738.284" width="753.05" height="40.6056"/>
  <object id="31" x="1197.87" y="140.274" width="92.2855" height="217.794"/>
 </objectgroup>
 <objectgroup id="6" name="spawn" locked="1">
  <object id="32" name="player" x="657.073" y="640.461">
   <point/>
  </object>
  <object id="33" name="sasu" x="1039.13" y="657.073">
   <point/>
  </object>
  <object id="34" name="teamjang" x="1424.89" y="385.753">
   <point/>
  </object>
  <object id="35" name="bujang" x="959.769" y="396.828">
   <point/>
  </object>
 </objectgroup>
</map>
