<?xml version="1.0" encoding="UTF-8"?>
<map version="1.10" tiledversion="1.10.2" orientation="orthogonal" renderorder="right-down" width="80" height="45" tilewidth="24" tileheight="24" infinite="0" nextlayerid="6" nextobjectid="20">
 <imagelayer id="1" name="background">
  <image source="오클루전PoC.png" width="1920" height="1080"/>
 </imagelayer>
 <objectgroup id="2" name="collision">
  <object id="1" name="deskA_foot" x="485" y="460" width="240" height="40"/>
  <object id="2" name="deskB_foot" x="838" y="460" width="243" height="40"/>
  <object id="3" name="diag_test" x="745" y="560">
   <polygon points="0,80 100,80 100,0"/>
  </object>
 </objectgroup>
 <objectgroup id="3" name="overhead">
  <object id="4" name="deskA_naive" x="450" y="345" width="310" height="150"/>
  <object id="5" name="deskB_tight" x="838" y="385" width="244" height="107">
   <properties>
    <property name="mask" value="deskB_mask.png"/>
   </properties>
  </object>
 </objectgroup>
 <objectgroup id="4" name="spawns">
  <object id="6" name="player" x="660" y="600">
   <point/>
  </object>
  <object id="7" name="sasu" x="950" y="372">
   <point/>
  </object>
 </objectgroup>
</map>
