<?xml version="1.0" encoding="UTF-8"?>
<map version="1.10" tiledversion="1.12.2" orientation="orthogonal" renderorder="right-down" width="80" height="45" tilewidth="24" tileheight="24" infinite="0" nextlayerid="7" nextobjectid="83">
 <imagelayer id="2" name="background" locked="1">
  <image source="현대인사채용운영실.png" width="1920" height="1080"/>
 </imagelayer>
 <objectgroup id="3" name="player_bounds" locked="1">
  <object id="1" x="70" y="80" width="1780" height="656"/>
 </objectgroup>
 <objectgroup id="4" name="walkable" locked="1">
  <object id="2" x="70" y="80" width="1780" height="656"/>
 </objectgroup>
 <objectgroup id="5" name="collision" locked="1">
  <object id="3" x="197.333" y="241.333" width="122.667" height="106"/>
  <object id="4" x="198" y="498.667" width="122.667" height="108"/>
  <object id="5" x="526" y="672" width="82.6667" height="67.3333"/>
  <object id="6" x="740" y="669.333" width="74" height="67.3333"/>
  <object id="7" x="811.333" y="604" width="20.6667" height="52.6667"/>
  <object id="8" x="938" y="606.667" width="118.667" height="56"/>
  <object id="9" x="956" y="692.667" width="65.3333" height="63.3333"/>
  <object id="10" x="1144" y="610" width="178" height="100.667"/>
  <object id="11" x="1431.33" y="632" width="42.6667" height="44"/>
  <object id="12" x="1472" y="696" width="20" height="30.6667"/>
  <object id="13" x="1512" y="708.667" width="28.6667" height="18"/>
  <object id="14" x="1566.67" y="710.667" width="23.3333" height="20"/>
  <object id="15" x="1616.67" y="694.667" width="18" height="24.6667"/>
  <object id="16" x="1613.33" y="734.667" width="27.3333" height="16.6667"/>
  <object id="17" x="1502" y="612" width="93.3333" height="52.6667"/>
  <object id="18" x="1632" y="598.667" width="28.6667" height="62"/>
  <object id="19" x="1682" y="610.667" width="20" height="52.6667"/>
  <object id="20" x="1715.33" y="610.667" width="12" height="124.667"/>
  <object id="21" x="1718.67" y="226" width="13.3333" height="354.667"/>
  <object id="22" x="1720.67" y="2.66667" width="14" height="222.667"/>
  <object id="23" x="1812.67" y="74.6667" width="38" height="48.6667"/>
  <object id="24" x="1805.33" y="172" width="52" height="98.6667"/>
  <object id="25" x="1814" y="300" width="41.3333" height="119.333"/>
  <object id="26" x="1816.67" y="452.667" width="40" height="80.6667"/>
  <object id="27" x="1410.67" y="562" width="8.66667" height="169.333"/>
  <object id="28" x="1411.33" y="560" width="310" height="62.6667"/>
  <object id="29" x="1448.67" y="422.667" width="22" height="146"/>
  <object id="30" x="1448" y="422.667" width="274.667" height="84"/>
  <object id="31" x="1590.67" y="332" width="40" height="81.3333"/>
  <object id="32" x="1600.67" y="378.667" width="65.3333" height="36"/>
  <object id="33" x="1682.67" y="370.667" width="14.6667" height="40"/>
  <object id="34" x="1662" y="244" width="66.6667" height="90.6667"/>
  <object id="35" x="1654.67" y="182.667" width="28" height="60.6667"/>
  <object id="36" x="1673.33" y="74" width="50.6667" height="43.3333"/>
  <object id="38" x="1558.67" y="82.6667" width="34" height="58.6667"/>
  <object id="39" x="1358" y="224" width="86.6667" height="24.6667"/>
  <object id="40" x="1462" y="154.667" width="61.3333" height="54.6667"/>
  <object id="41" x="1322.67" y="130.667" width="192.667" height="64"/>
  <object id="42" x="1304" y="134" width="22" height="208.667"/>
  <object id="43" x="1314.67" y="330" width="40" height="19.3333"/>
  <object id="44" x="1479.33" y="328.667" width="52" height="16.6667"/>
  <object id="45" x="1520.67" y="258" width="26.6667" height="81.3333"/>
  <object id="46" x="1522.67" y="82.6667" width="14" height="192"/>
  <object id="47" x="1145.33" y="142" width="166" height="55.3333"/>
  <object id="48" x="1145.33" y="273.333" width="183.333" height="50"/>
  <object id="49" x="488" y="136.667" width="581.333" height="58"/>
  <object id="50" x="859.333" y="192.667" width="45.3333" height="22.6667"/>
  <object id="51" x="987.333" y="181.333" width="22" height="142"/>
  <object id="52" x="464" y="277.333" width="32" height="62"/>
  <object id="53" x="519.333" y="261.333" width="159.333" height="76"/>
  <object id="54" x="698" y="290.667" width="28" height="49.3333"/>
  <object id="55" x="744" y="271.333" width="144.667" height="68"/>
  <object id="56" x="911.333" y="286.667" width="31.3333" height="56.6667"/>
  <object id="57" x="1074" y="370.667" width="188" height="38.6667"/>
  <object id="58" x="466" y="423.333" width="32" height="70"/>
  <object id="59" x="523.333" y="413.333" width="156.667" height="68"/>
  <object id="60" x="694" y="434.667" width="32.6667" height="39.3333"/>
  <object id="61" x="739.333" y="414.667" width="150.667" height="65.3333"/>
  <object id="62" x="912" y="434.667" width="38.6667" height="45.3333"/>
  <object id="63" x="1065.33" y="442" width="208" height="64.6667"/>
  <object id="64" x="1354.67" y="576" width="13.3333" height="162.667"/>
  <object id="65" x="1077.33" y="569.333" width="24" height="162.667"/>
  <object id="66" x="1105.33" y="572" width="257.333" height="76.6667"/>
  <object id="67" x="919.333" y="586" width="187.333" height="48"/>
  <object id="68" x="476" y="568" width="704" height="52"/>
  <object id="69" x="473.333" y="582" width="4" height="186"/>
  <object id="70" x="190.667" y="666.667" width="122" height="30"/>
  <object id="71" x="354" y="593.333" width="23.3333" height="76"/>
  <object id="72" x="164" y="645.333" width="216.667" height="23.3333"/>
  <object id="73" x="148.667" y="706.667" width="30" height="34.6667"/>
  <object id="74" x="158" y="385.333" width="193.333" height="82.6667"/>
  <object id="75" x="358" y="382.667" width="13.3333" height="130.667"/>
  <object id="76" x="150" y="130.667" width="211.333" height="69.3333"/>
  <object id="77" x="368" y="138.667" width="20.6667" height="61.3333"/>
  <object id="82" x="1590" y="341.333" width="42" height="49.3333"/>
 </objectgroup>
 <objectgroup id="6" name="spawns" locked="1">
  <object id="78" name="사수" x="1464.67" y="392.667">
   <point/>
  </object>
  <object id="79" name="팀장" x="1039.33" y="368">
   <point/>
  </object>
  <object id="80" name="player" x="970" y="541.333">
   <point/>
  </object>
  <object id="81" name="부장" x="447.333" y="542.667">
   <point/>
  </object>
 </objectgroup>
</map>
