<?xml version="1.0" encoding="UTF-8"?>
<map version="1.10" tiledversion="1.12.2" orientation="orthogonal" renderorder="right-down" width="80" height="45" tilewidth="24" tileheight="24" infinite="0" nextlayerid="7" nextobjectid="46">
 <imagelayer id="2" name="background" locked="1">
  <image source="교육_강의_코칭_센터.png" width="1920" height="1080"/>
 </imagelayer>
 <objectgroup id="3" name="play_bounds" locked="1">
  <object id="1" name="main_play_area" x="70" y="80" width="1780" height="656"/>
 </objectgroup>
 <objectgroup id="4" name="walkable" locked="1">
  <object id="2" name="walkable" x="70" y="80" width="1780" height="656"/>
 </objectgroup>
 <objectgroup id="5" name="collision" locked="1">
  <object id="3" x="1277.23" y="463.273" width="570.324" height="267.628"/>
  <object id="4" x="1533.79" y="208.565" width="105.205" height="169.805"/>
  <object id="5" x="1328.91" y="306.388" width="29.5314" height="66.4456"/>
  <object id="6" x="1365.83" y="335.919" width="29.5314" height="90.4398"/>
  <object id="7" x="1269.85" y="236.251" width="59.0627" height="119.971"/>
  <object id="8" x="1334.45" y="83.057" width="20.3028" height="219.64"/>
  <object id="9" x="1386.13" y="79.3655" width="55.3713" height="107.051"/>
  <object id="10" x="1452.57" y="70.137" width="376.525" height="101.514"/>
  <object id="11" x="1742.35" y="167.96" width="84.9027" height="49.8342"/>
  <object id="12" x="1795.88" y="265.782" width="57.217" height="121.817"/>
  <object id="13" x="1830.94" y="215.948" width="23.9942" height="44.297"/>
  <object id="14" x="1821.72" y="385.753" width="18.4571" height="86.7484"/>
  <object id="16" x="828.724" y="424.513" width="311.925" height="140.274"/>
  <object id="17" x="692.141" y="651.536" width="378.371" height="97.8226"/>
  <object id="18" x="1103.73" y="651.536" width="118.125" height="84.9027"/>
  <object id="19" x="638.616" y="86.7484" width="684.758" height="162.422"/>
  <object id="20" x="845.335" y="251.017" width="276.857" height="51.6799"/>
  <object id="21" x="614.621" y="474.348" width="31.3771" height="184.571"/>
  <object id="22" x="68.2913" y="522.336" width="540.793" height="131.045"/>
  <object id="23" x="219.64" y="716.136" width="262.091" height="22.1485"/>
  <object id="24" x="66.4456" y="73.8284" width="555.559" height="107.051"/>
  <object id="25" x="295.314" y="167.96" width="142.12" height="29.5314"/>
  <object id="26" x="108.897" y="239.942" width="81.2112" height="40.6056"/>
  <object id="27" x="114.434" y="334.074" width="70.137" height="31.3771"/>
  <object id="28" x="108.897" y="418.976" width="77.5198" height="46.1428"/>
  <object id="29" x="232.559" y="247.325" width="79.3655" height="29.5314"/>
  <object id="30" x="236.251" y="321.154" width="70.137" height="44.297"/>
  <object id="32" x="236.251" y="424.513" width="73.8284" height="35.0685"/>
  <object id="33" x="361.759" y="422.668" width="71.9827" height="40.6056"/>
  <object id="34" x="365.451" y="326.691" width="73.8284" height="44.297"/>
  <object id="35" x="358.068" y="236.251" width="71.9827" height="53.5256"/>
  <object id="36" x="483.576" y="239.942" width="71.9827" height="47.9885"/>
  <object id="37" x="487.267" y="324.845" width="71.9827" height="36.9142"/>
  <object id="38" x="483.576" y="417.13" width="70.137" height="42.4513"/>
  <object id="39" x="614.621" y="243.634" width="46.1428" height="108.897"/>
  <object id="40" x="784.427" y="251.017" width="38.7599" height="60.9084"/>
  <object id="41" x="1172.03" y="245.479" width="44.297" height="57.217"/>
 </objectgroup>
 <objectgroup id="6" name="spawn" locked="1">
  <object id="42" name="player" x="909.935" y="614.621">
   <point/>
  </object>
  <object id="43" name="sasu" x="1236.63" y="345.148">
   <point/>
  </object>
  <object id="44" name="teamjang" x="490.959" y="203.028">
   <point/>
  </object>
  <object id="45" name="bujang" x="723.518" y="295.314">
   <point/>
  </object>
 </objectgroup>
</map>
