<?xml version="1.0" encoding="UTF-8"?>
<map version="1.10" tiledversion="1.12.2" orientation="orthogonal" renderorder="right-down" width="240" height="135" tilewidth="8" tileheight="8" infinite="0" nextlayerid="99" nextobjectid="258">
 <imagelayer id="90" name="background">
  <image source="jm-02.png" width="1920" height="1080"/>
 </imagelayer>
 <objectgroup id="257" name="walkable">
  <object id="1" x="392" y="152" width="48" height="248"/>
  <object id="2" x="544" y="152" width="24" height="784"/>
  <object id="3" x="1080" y="152" width="72" height="32"/>
  <object id="4" x="1200" y="152" width="32" height="520"/>
  <object id="5" x="1576" y="152" width="48" height="72"/>
  <object id="6" x="1640" y="152" width="64" height="200"/>
  <object id="7" x="224" y="168" width="144" height="40"/>
  <object id="8" x="368" y="176" width="24" height="224"/>
  <object id="9" x="1096" y="184" width="64" height="8"/>
  <object id="10" x="1112" y="192" width="48" height="8"/>
  <object id="11" x="1624" y="192" width="16" height="152"/>
  <object id="12" x="1704" y="192" width="80" height="168"/>
  <object id="13" x="568" y="200" width="8" height="736"/>
  <object id="14" x="1120" y="200" width="40" height="8"/>
  <object id="15" x="224" y="208" width="32" height="64"/>
  <object id="16" x="336" y="208" width="32" height="192"/>
  <object id="17" x="1128" y="208" width="40" height="8"/>
  <object id="18" x="440" y="216" width="104" height="184"/>
  <object id="19" x="576" y="216" width="8" height="720"/>
  <object id="20" x="1136" y="216" width="32" height="456"/>
  <object id="21" x="1608" y="224" width="16" height="112"/>
  <object id="22" x="584" y="232" width="32" height="704"/>
  <object id="23" x="1168" y="240" width="32" height="432"/>
  <object id="24" x="768" y="256" width="80" height="680"/>
  <object id="25" x="896" y="256" width="88" height="504"/>
  <object id="26" x="616" y="272" width="8" height="664"/>
  <object id="27" x="1376" y="272" width="232" height="64"/>
  <object id="28" x="240" y="280" width="96" height="120"/>
  <object id="29" x="680" y="288" width="40" height="648"/>
  <object id="30" x="1032" y="288" width="40" height="384"/>
  <object id="31" x="1232" y="288" width="32" height="384"/>
  <object id="32" x="672" y="296" width="8" height="640"/>
  <object id="33" x="1072" y="296" width="8" height="376"/>
  <object id="34" x="664" y="304" width="8" height="632"/>
  <object id="35" x="848" y="304" width="16" height="632"/>
  <object id="36" x="880" y="304" width="16" height="632"/>
  <object id="37" x="1080" y="304" width="8" height="368"/>
  <object id="38" x="1264" y="304" width="112" height="64"/>
  <object id="39" x="656" y="312" width="8" height="624"/>
  <object id="40" x="864" y="312" width="16" height="624"/>
  <object id="41" x="984" y="312" width="8" height="448"/>
  <object id="42" x="1016" y="312" width="16" height="360"/>
  <object id="43" x="1088" y="312" width="8" height="360"/>
  <object id="44" x="1120" y="312" width="16" height="360"/>
  <object id="45" x="624" y="320" width="32" height="616"/>
  <object id="46" x="720" y="320" width="48" height="616"/>
  <object id="47" x="992" y="320" width="24" height="352"/>
  <object id="48" x="1096" y="320" width="24" height="352"/>
  <object id="49" x="128" y="328" width="112" height="72"/>
  <object id="50" x="1376" y="336" width="56" height="8"/>
  <object id="51" x="1616" y="336" width="8" height="8"/>
  <object id="52" x="1376" y="344" width="40" height="8"/>
  <object id="53" x="1632" y="344" width="8" height="8"/>
  <object id="54" x="1376" y="352" width="32" height="8"/>
  <object id="55" x="1648" y="352" width="56" height="8"/>
  <object id="56" x="1376" y="360" width="16" height="8"/>
  <object id="57" x="1712" y="360" width="72" height="40"/>
  <object id="58" x="1264" y="368" width="80" height="72"/>
  <object id="59" x="128" y="400" width="64" height="256"/>
  <object id="60" x="448" y="400" width="96" height="8"/>
  <object id="61" x="1720" y="400" width="64" height="272"/>
  <object id="62" x="464" y="408" width="80" height="248"/>
  <object id="63" x="1264" y="440" width="72" height="8"/>
  <object id="64" x="1264" y="448" width="48" height="224"/>
  <object id="65" x="1312" y="544" width="32" height="128"/>
  <object id="66" x="1360" y="544" width="40" height="232"/>
  <object id="67" x="192" y="560" width="8" height="96"/>
  <object id="68" x="408" y="568" width="40" height="88"/>
  <object id="69" x="200" y="576" width="40" height="80"/>
  <object id="70" x="448" y="576" width="16" height="80"/>
  <object id="71" x="240" y="600" width="168" height="56"/>
  <object id="72" x="1344" y="608" width="16" height="160"/>
  <object id="73" x="1400" y="608" width="8" height="320"/>
  <object id="74" x="1408" y="624" width="312" height="48"/>
  <object id="75" x="488" y="656" width="56" height="248"/>
  <object id="76" x="992" y="672" width="8" height="88"/>
  <object id="77" x="1336" y="672" width="8" height="96"/>
  <object id="78" x="1408" y="672" width="64" height="48"/>
  <object id="79" x="1408" y="720" width="24" height="208"/>
  <object id="80" x="1440" y="720" width="32" height="48"/>
  <object id="81" x="1432" y="728" width="8" height="200"/>
  <object id="82" x="896" y="760" width="72" height="176"/>
  <object id="83" x="1368" y="776" width="32" height="128"/>
  <object id="84" x="400" y="800" width="88" height="128"/>
  <object id="85" x="968" y="816" width="48" height="120"/>
  <object id="86" x="152" y="824" width="56" height="104"/>
  <object id="87" x="1488" y="824" width="208" height="104"/>
  <object id="88" x="1256" y="832" width="112" height="72"/>
  <object id="89" x="1016" y="840" width="240" height="96"/>
  <object id="90" x="1440" y="848" width="32" height="80"/>
  <object id="91" x="1696" y="872" width="8" height="56"/>
  <object id="92" x="1472" y="880" width="16" height="48"/>
  <object id="93" x="208" y="896" width="192" height="32"/>
  <object id="94" x="1704" y="896" width="40" height="32"/>
  <object id="95" x="488" y="904" width="8" height="24"/>
  <object id="96" x="536" y="904" width="8" height="32"/>
  <object id="97" x="1256" y="904" width="88" height="32"/>
  <object id="98" x="1376" y="904" width="24" height="24"/>
 </objectgroup>
 <objectgroup id="258" name="collision">
  <object id="99" x="384" y="144" width="72" height="8"/>
  <object id="100" x="536" y="144" width="40" height="8"/>
  <object id="101" x="1072" y="144" width="88" height="8"/>
  <object id="102" x="1192" y="144" width="48" height="8"/>
  <object id="103" x="1568" y="144" width="152" height="8"/>
  <object id="104" x="360" y="152" width="16" height="16"/>
  <object id="105" x="384" y="152" width="8" height="24"/>
  <object id="106" x="440" y="152" width="8" height="64"/>
  <object id="107" x="536" y="152" width="8" height="64"/>
  <object id="108" x="568" y="152" width="8" height="48"/>
  <object id="109" x="1072" y="152" width="8" height="40"/>
  <object id="110" x="1152" y="152" width="8" height="32"/>
  <object id="111" x="1192" y="152" width="8" height="88"/>
  <object id="112" x="1232" y="152" width="8" height="136"/>
  <object id="113" x="1568" y="152" width="8" height="80"/>
  <object id="114" x="1624" y="152" width="16" height="40"/>
  <object id="115" x="1704" y="152" width="8" height="40"/>
  <object id="116" x="216" y="160" width="144" height="8"/>
  <object id="117" x="216" y="168" width="8" height="112"/>
  <object id="118" x="368" y="168" width="16" height="8"/>
  <object id="119" x="1160" y="176" width="16" height="8"/>
  <object id="120" x="1080" y="184" width="16" height="8"/>
  <object id="121" x="1160" y="184" width="8" height="24"/>
  <object id="122" x="1712" y="184" width="80" height="8"/>
  <object id="123" x="576" y="192" width="8" height="24"/>
  <object id="124" x="1088" y="192" width="24" height="8"/>
  <object id="125" x="1784" y="192" width="8" height="496"/>
  <object id="126" x="1104" y="200" width="16" height="8"/>
  <object id="127" x="1168" y="200" width="8" height="40"/>
  <object id="128" x="256" y="208" width="80" height="8"/>
  <object id="129" x="448" y="208" width="88" height="8"/>
  <object id="130" x="584" y="208" width="8" height="24"/>
  <object id="131" x="1112" y="208" width="16" height="8"/>
  <object id="132" x="256" y="216" width="8" height="64"/>
  <object id="133" x="328" y="216" width="8" height="64"/>
  <object id="134" x="1120" y="216" width="16" height="8"/>
  <object id="135" x="592" y="224" width="32" height="8"/>
  <object id="136" x="1128" y="224" width="8" height="88"/>
  <object id="137" x="1576" y="224" width="32" height="8"/>
  <object id="138" x="616" y="232" width="8" height="40"/>
  <object id="139" x="1176" y="232" width="16" height="8"/>
  <object id="140" x="1600" y="232" width="8" height="40"/>
  <object id="141" x="760" y="248" width="96" height="8"/>
  <object id="142" x="888" y="248" width="104" height="8"/>
  <object id="143" x="760" y="256" width="8" height="64"/>
  <object id="144" x="848" y="256" width="8" height="48"/>
  <object id="145" x="888" y="256" width="8" height="48"/>
  <object id="146" x="984" y="256" width="8" height="56"/>
  <object id="147" x="624" y="264" width="8" height="56"/>
  <object id="148" x="1368" y="264" width="232" height="8"/>
  <object id="149" x="200" y="272" width="16" height="8"/>
  <object id="150" x="224" y="272" width="32" height="8"/>
  <object id="151" x="264" y="272" width="64" height="8"/>
  <object id="152" x="1368" y="272" width="8" height="32"/>
  <object id="153" x="232" y="280" width="8" height="48"/>
  <object id="154" x="672" y="280" width="56" height="8"/>
  <object id="155" x="1024" y="280" width="64" height="8"/>
  <object id="156" x="1240" y="280" width="32" height="8"/>
  <object id="157" x="664" y="288" width="16" height="8"/>
  <object id="158" x="720" y="288" width="8" height="32"/>
  <object id="159" x="1024" y="288" width="8" height="24"/>
  <object id="160" x="1072" y="288" width="16" height="8"/>
  <object id="161" x="1264" y="288" width="16" height="16"/>
  <object id="162" x="656" y="296" width="16" height="8"/>
  <object id="163" x="856" y="296" width="32" height="8"/>
  <object id="164" x="1080" y="296" width="16" height="8"/>
  <object id="165" x="1280" y="296" width="88" height="8"/>
  <object id="166" x="648" y="304" width="16" height="8"/>
  <object id="167" x="864" y="304" width="16" height="8"/>
  <object id="168" x="992" y="304" width="8" height="16"/>
  <object id="169" x="1008" y="304" width="16" height="8"/>
  <object id="170" x="1088" y="304" width="16" height="8"/>
  <object id="171" x="1112" y="304" width="16" height="8"/>
  <object id="172" x="120" y="312" width="8" height="352"/>
  <object id="173" x="632" y="312" width="24" height="8"/>
  <object id="174" x="728" y="312" width="32" height="8"/>
  <object id="175" x="1000" y="312" width="16" height="8"/>
  <object id="176" x="1096" y="312" width="24" height="8"/>
  <object id="177" x="128" y="320" width="104" height="8"/>
  <object id="178" x="1432" y="336" width="184" height="8"/>
  <object id="179" x="1416" y="344" width="24" height="8"/>
  <object id="180" x="1608" y="344" width="24" height="8"/>
  <object id="181" x="1408" y="352" width="16" height="8"/>
  <object id="182" x="1624" y="352" width="24" height="8"/>
  <object id="183" x="1392" y="360" width="24" height="8"/>
  <object id="184" x="1640" y="360" width="72" height="8"/>
  <object id="185" x="1344" y="368" width="56" height="8"/>
  <object id="186" x="1704" y="368" width="8" height="40"/>
  <object id="187" x="1344" y="376" width="8" height="72"/>
  <object id="188" x="192" y="400" width="256" height="8"/>
  <object id="189" x="1712" y="400" width="8" height="224"/>
  <object id="190" x="192" y="408" width="8" height="152"/>
  <object id="191" x="440" y="408" width="24" height="8"/>
  <object id="192" x="456" y="416" width="8" height="160"/>
  <object id="193" x="1336" y="440" width="8" height="16"/>
  <object id="194" x="1312" y="448" width="24" height="8"/>
  <object id="195" x="1312" y="456" width="8" height="88"/>
  <object id="196" x="1320" y="536" width="88" height="8"/>
  <object id="197" x="1344" y="544" width="16" height="64"/>
  <object id="198" x="1400" y="544" width="8" height="64"/>
  <object id="199" x="200" y="552" width="16" height="8"/>
  <object id="200" x="200" y="560" width="8" height="16"/>
  <object id="201" x="400" y="560" width="56" height="8"/>
  <object id="202" x="208" y="568" width="40" height="8"/>
  <object id="203" x="400" y="568" width="8" height="32"/>
  <object id="204" x="448" y="568" width="8" height="8"/>
  <object id="205" x="240" y="576" width="8" height="24"/>
  <object id="206" x="248" y="592" width="152" height="8"/>
  <object id="207" x="1408" y="600" width="8" height="24"/>
  <object id="208" x="1416" y="616" width="296" height="8"/>
  <object id="209" x="128" y="656" width="360" height="8"/>
  <object id="210" x="480" y="664" width="8" height="136"/>
  <object id="211" x="1000" y="672" width="336" height="8"/>
  <object id="212" x="1472" y="672" width="312" height="8"/>
  <object id="213" x="1000" y="680" width="8" height="104"/>
  <object id="214" x="1328" y="680" width="8" height="96"/>
  <object id="215" x="1472" y="680" width="8" height="96"/>
  <object id="216" x="968" y="760" width="32" height="8"/>
  <object id="217" x="968" y="768" width="8" height="48"/>
  <object id="218" x="1336" y="768" width="24" height="8"/>
  <object id="219" x="1440" y="768" width="32" height="8"/>
  <object id="220" x="1352" y="776" width="16" height="8"/>
  <object id="221" x="1440" y="776" width="8" height="72"/>
  <object id="222" x="1360" y="784" width="8" height="48"/>
  <object id="223" x="392" y="792" width="88" height="8"/>
  <object id="224" x="392" y="800" width="8" height="96"/>
  <object id="225" x="1480" y="800" width="8" height="80"/>
  <object id="226" x="976" y="808" width="48" height="8"/>
  <object id="227" x="144" y="816" width="72" height="8"/>
  <object id="228" x="1016" y="816" width="8" height="24"/>
  <object id="229" x="1488" y="816" width="216" height="8"/>
  <object id="230" x="144" y="824" width="8" height="112"/>
  <object id="231" x="208" y="824" width="8" height="72"/>
  <object id="232" x="1248" y="824" width="112" height="8"/>
  <object id="233" x="1696" y="824" width="8" height="48"/>
  <object id="234" x="1024" y="832" width="232" height="8"/>
  <object id="235" x="1448" y="840" width="32" height="8"/>
  <object id="236" x="1472" y="848" width="8" height="32"/>
  <object id="237" x="1704" y="864" width="8" height="32"/>
  <object id="238" x="216" y="888" width="176" height="8"/>
  <object id="239" x="1712" y="888" width="40" height="8"/>
  <object id="240" x="1744" y="896" width="8" height="40"/>
  <object id="241" x="496" y="904" width="40" height="8"/>
  <object id="242" x="1344" y="904" width="32" height="8"/>
  <object id="243" x="496" y="912" width="8" height="24"/>
  <object id="244" x="528" y="912" width="8" height="32"/>
  <object id="245" x="1344" y="912" width="8" height="32"/>
  <object id="246" x="1368" y="912" width="8" height="24"/>
  <object id="247" x="152" y="928" width="344" height="8"/>
  <object id="248" x="1376" y="928" width="368" height="8"/>
  <object id="249" x="536" y="936" width="808" height="8"/>
 </objectgroup>
 <objectgroup id="259" name="overhead">
  <object id="250" x="238" y="374" width="44" height="44"><properties><property name="mask" value="mask_000.png"/></properties></object>
  <object id="251" x="294" y="374" width="52" height="36"><properties><property name="mask" value="mask_001.png"/></properties></object>
  <object id="252" x="358" y="374" width="52" height="36"><properties><property name="mask" value="mask_002.png"/></properties></object>
 </objectgroup>
 <objectgroup id="260" name="spawn">
  <object id="253" name="player" x="778" y="908"><point/></object>
  <object id="254" name="teamjang" x="1312" y="323"><point/></object>
  <object id="255" name="sasu" x="807" y="283"><point/></object>
  <object id="256" name="bujang" x="371" y="229"><point/></object>
 </objectgroup>
</map>
