<?xml version="1.0" encoding="UTF-8"?>
<map version="1.10" tiledversion="1.12.2" orientation="orthogonal" renderorder="right-down" width="80" height="45" tilewidth="24" tileheight="24" infinite="0" nextlayerid="7" nextobjectid="58">
 <imagelayer id="2" name="background" locked="1">
  <image source="작업순서_조리·식품제조현장.png" width="1920" height="1080"/>
 </imagelayer>
 <objectgroup id="3" name="play_bounds" locked="1">
  <object id="1" x="70" y="80" width="1780" height="656"/>
 </objectgroup>
 <objectgroup id="4" name="walkable" locked="1">
  <object id="2" x="70" y="80" width="1780" height="656"/>
 </objectgroup>
 <objectgroup id="5" name="collision" locked="1">
  <object id="3" x="68.8995" y="131.535" width="234.885" height="66.8117"/>
  <object id="4" x="155.546" y="73.0753" width="42.8012" height="18.7908"/>
  <object id="5" x="225.489" y="73.0753" width="100.217" height="19.8347"/>
  <object id="6" x="339.278" y="75.1631" width="50.1087" height="19.8347"/>
  <object id="7" x="789.213" y="82.4706" width="167.029" height="57.4163"/>
  <object id="8" x="989.648" y="80.3828" width="194.171" height="58.4602"/>
  <object id="9" x="1202.61" y="102.305" width="32.3619" height="37.5816"/>
  <object id="10" x="1201.57" y="82.4706" width="34.4498" height="44.8891"/>
  <object id="11" x="1249.59" y="79.3388" width="275.598" height="49.0648"/>
  <object id="12" x="1546.06" y="83.5146" width="108.569" height="34.4498"/>
  <object id="13" x="1669.25" y="94.9978" width="18.7908" height="96.0418"/>
  <object id="14" x="1437.49" y="185.82" width="242.192" height="14.6151"/>
  <object id="15" x="1445.85" y="196.259" width="102.305" height="50.1087"/>
  <object id="16" x="1537.71" y="229.665" width="122.14" height="45.933"/>
  <object id="17" x="1668.2" y="202.523" width="14.6151" height="35.4937"/>
  <object id="18" x="1694.3" y="85.6024" width="156.59" height="31.318"/>
  <object id="19" x="1731.88" y="188.952" width="49.0648" height="92.91"/>
  <object id="20" x="1735.02" y="280.818" width="43.8452" height="73.0753"/>
  <object id="21" x="1775.73" y="273.51" width="117.964" height="106.481"/>
  <object id="22" x="1769.46" y="486.472" width="84.5585" height="87.6903"/>
  <object id="23" x="1769.46" y="672.292" width="78.2949" height="76.207"/>
  <object id="24" x="1815.4" y="636.799" width="34.4498" height="38.6255"/>
  <object id="25" x="1547.11" y="189.996" width="109.613" height="59.5041"/>
  <object id="26" x="315.268" y="145.107" width="135.711" height="55.3284"/>
  <object id="27" x="75.1631" y="280.818" width="232.797" height="49.0648"/>
  <object id="28" x="90.8221" y="342.41" width="94.9978" height="48.0209"/>
  <object id="29" x="256.807" y="337.19" width="28.1862" height="89.7782"/>
  <object id="30" x="103.349" y="387.299" width="44.8891" height="59.5041"/>
  <object id="31" x="86.6464" y="446.803" width="45.933" height="54.2845"/>
  <object id="32" x="191.04" y="460.374" width="21.9226" height="36.5376"/>
  <object id="33" x="288.125" y="330.926" width="26.0983" height="134.667"/>
  <object id="34" x="75.1631" y="547.02" width="226.533" height="18.7908"/>
  <object id="35" x="274.554" y="553.284" width="29.2301" height="60.5481"/>
  <object id="36" x="85.6024" y="572.075" width="199.391" height="45.933"/>
  <object id="37" x="359.113" y="395.65" width="141.975" height="224.445"/>
  <object id="38" x="378.947" y="297.521" width="40.7134" height="83.5146"/>
  <object id="39" x="553.284" y="209.83" width="511.527" height="134.667"/>
  <object id="40" x="1078.38" y="217.138" width="247.412" height="78.2949"/>
  <object id="41" x="556.416" y="182.688" width="576.251" height="26.0983"/>
  <object id="43" x="613.832" y="421.749" width="119.008" height="144.063"/>
  <object id="44" x="789.213" y="424.88" width="259.939" height="112.745"/>
  <object id="45" x="1146.24" y="424.88" width="147.194" height="134.667"/>
  <object id="46" x="597.129" y="647.238" width="702.566" height="93.9539"/>
  <object id="47" x="1403.04" y="404.002" width="275.598" height="114.833"/>
  <object id="48" x="1478.21" y="365.376" width="201.479" height="53.2405"/>
  <object id="49" x="1419.75" y="628.447" width="39.6694" height="100.217"/>
  <object id="50" x="1461.51" y="678.556" width="168.073" height="63.6799"/>
  <object id="51" x="321.531" y="207.742" width="26.0983" height="27.1422"/>
  <object id="56" x="587.734" y="508.395" width="20.8786" height="35.4937"/>
  <object id="57" x="1423.92" y="372.684" width="35.4937" height="27.1422"/>
 </objectgroup>
 <objectgroup id="6" name="spawns" locked="1">
  <object id="52" name="팀장" x="484.385" y="309.004">
   <point/>
  </object>
  <object id="53" name="부장" x="542.845" y="680.644">
   <point/>
  </object>
  <object id="54" name="사수" x="1332.06" y="413.397">
   <point/>
  </object>
  <object id="55" name="player" x="1547.11" y="628.447">
   <point/>
  </object>
 </objectgroup>
</map>
