<?xml version="1.0" encoding="UTF-8"?>
<map version="1.10" tiledversion="1.12.2" orientation="orthogonal" renderorder="right-down" width="80" height="45" tilewidth="24" tileheight="24" infinite="0" nextlayerid="7" nextobjectid="39">
 <imagelayer id="2" name="background" locked="1">
  <image source="손으로_만드는_예술_작업장.png" width="1920" height="1080"/>
 </imagelayer>
 <objectgroup id="3" name="play_bounds" locked="1">
  <object id="1" name="main_play_area" x="70" y="80" width="1780" height="656"/>
 </objectgroup>
 <objectgroup id="4" name="walkable" locked="1">
  <object id="2" name="walkable" x="70" y="80" width="1780" height="656"/>
 </objectgroup>
 <objectgroup id="5" name="collision" locked="1">
  <object id="3" x="483.576" y="94.1312" width="1022.52" height="123.663"/>
  <object id="4" x="387.599" y="83.057" width="83.057" height="23.9942"/>
  <object id="5" x="1511.64" y="84.9027" width="71.9827" height="25.8399"/>
  <object id="6" x="1572.55" y="110.743" width="99.6683" height="297.159"/>
  <object id="7" x="1563.32" y="437.433" width="55.3713" height="214.102"/>
  <object id="8" x="1620.53" y="487.267" width="31.3771" height="160.577"/>
  <object id="9" x="1651.91" y="513.107" width="38.7599" height="123.663"/>
  <object id="10" x="1757.12" y="267.628" width="83.057" height="465.119"/>
  <object id="11" x="1674.06" y="118.125" width="156.885" height="97.8226"/>
  <object id="12" x="1098.2" y="293.468" width="393.136" height="77.5198"/>
  <object id="13" x="1077.89" y="452.199" width="394.982" height="131.045"/>
  <object id="14" x="769.661" y="291.622" width="223.331" height="119.971"/>
  <object id="15" x="487.267" y="286.085" width="215.948" height="129.2"/>
  <object id="16" x="489.113" y="500.187" width="201.182" height="121.817"/>
  <object id="17" x="777.044" y="514.953" width="225.177" height="119.971"/>
  <object id="18" x="823.187" y="701.37" width="509.416" height="29.5314"/>
  <object id="19" x="1417.51" y="714.29" width="147.657" height="31.3771"/>
  <object id="20" x="1328.91" y="721.673" width="90.4398" height="22.1485"/>
  <object id="21" x="1576.24" y="714.29" width="166.114" height="22.1485"/>
  <object id="22" x="503.879" y="699.524" width="227.022" height="38.7599"/>
  <object id="23" x="75.6741" y="686.604" width="352.531" height="53.5256"/>
  <object id="24" x="79.3655" y="651.536" width="138.428" height="29.5314"/>
  <object id="25" x="289.776" y="454.045" width="97.8226" height="177.188"/>
  <object id="26" x="99.6683" y="442.97" width="83.057" height="142.12"/>
  <object id="27" x="83.057" y="289.776" width="308.234" height="107.051"/>
  <object id="28" x="313.771" y="396.828" width="83.057" height="51.6799"/>
  <object id="29" x="64.5999" y="90.4398" width="90.4398" height="177.188"/>
  <object id="30" x="155.04" y="79.3655" width="241.788" height="68.2913"/>
  <object id="31" x="302.696" y="143.965" width="90.4398" height="42.4513"/>
  <object id="32" x="199.337" y="195.645" width="42.4513" height="36.9142"/>
  <object id="33" x="426.359" y="730.901" width="77.5198" height="42.4513"/>
  <object id="34" x="741.975" y="734.593" width="83.057" height="42.4513"/>
 </objectgroup>
 <objectgroup id="6" name="spawn" locked="1">
  <object id="35" name="player" x="540.793" y="450.353">
   <point/>
  </object>
  <object id="36" name="sasu" x="1323.37" y="618.313">
   <point/>
  </object>
  <object id="37" name="teamjang" x="232.559" y="465.119">
   <point/>
  </object>
  <object id="38" name="bujang" x="1725.74" y="302.696">
   <point/>
  </object>
 </objectgroup>
</map>
