<?xml version="1.0" encoding="UTF-8"?>
<map version="1.10" tiledversion="1.12.2" orientation="orthogonal" renderorder="right-down" width="240" height="135" tilewidth="8" tileheight="8" infinite="0" nextlayerid="99" nextobjectid="224">
 <imagelayer id="90" name="background">
  <image source="ys-01.png" width="1920" height="1080"/>
 </imagelayer>
 <objectgroup id="223" name="walkable">
  <object id="1" x="136" y="216" width="104" height="168"/>
  <object id="2" x="616" y="216" width="720" height="144"/>
  <object id="3" x="240" y="232" width="8" height="312"/>
  <object id="4" x="552" y="240" width="64" height="120"/>
  <object id="5" x="1336" y="240" width="80" height="696"/>
  <object id="6" x="1688" y="240" width="96" height="96"/>
  <object id="7" x="128" y="248" width="8" height="136"/>
  <object id="8" x="248" y="248" width="8" height="296"/>
  <object id="9" x="112" y="256" width="16" height="128"/>
  <object id="10" x="104" y="264" width="8" height="120"/>
  <object id="11" x="256" y="264" width="144" height="280"/>
  <object id="12" x="96" y="272" width="8" height="112"/>
  <object id="13" x="400" y="272" width="152" height="88"/>
  <object id="14" x="1416" y="272" width="272" height="56"/>
  <object id="15" x="80" y="280" width="16" height="104"/>
  <object id="16" x="1784" y="280" width="16" height="56"/>
  <object id="17" x="32" y="288" width="48" height="96"/>
  <object id="18" x="1800" y="288" width="8" height="48"/>
  <object id="19" x="1808" y="296" width="8" height="40"/>
  <object id="20" x="1816" y="304" width="8" height="32"/>
  <object id="21" x="1824" y="312" width="8" height="24"/>
  <object id="22" x="1832" y="320" width="16" height="16"/>
  <object id="23" x="1416" y="328" width="16" height="608"/>
  <object id="24" x="1520" y="328" width="168" height="40"/>
  <object id="25" x="1848" y="328" width="8" height="8"/>
  <object id="26" x="1688" y="336" width="48" height="168"/>
  <object id="27" x="400" y="360" width="80" height="576"/>
  <object id="28" x="800" y="360" width="208" height="216"/>
  <object id="29" x="1328" y="360" width="8" height="504"/>
  <object id="30" x="1560" y="368" width="128" height="112"/>
  <object id="31" x="232" y="384" width="8" height="160"/>
  <object id="32" x="1736" y="432" width="64" height="88"/>
  <object id="33" x="32" y="456" width="200" height="88"/>
  <object id="34" x="784" y="456" width="16" height="120"/>
  <object id="35" x="1320" y="456" width="8" height="408"/>
  <object id="36" x="1536" y="456" width="24" height="8"/>
  <object id="37" x="480" y="464" width="8" height="472"/>
  <object id="38" x="560" y="464" width="136" height="112"/>
  <object id="39" x="1008" y="464" width="16" height="144"/>
  <object id="40" x="1104" y="464" width="144" height="144"/>
  <object id="41" x="1544" y="464" width="16" height="8"/>
  <object id="42" x="1800" y="472" width="80" height="48"/>
  <object id="43" x="1576" y="480" width="112" height="8"/>
  <object id="44" x="488" y="488" width="72" height="88"/>
  <object id="45" x="696" y="488" width="88" height="88"/>
  <object id="46" x="1024" y="488" width="80" height="120"/>
  <object id="47" x="1248" y="488" width="72" height="120"/>
  <object id="48" x="1584" y="488" width="104" height="8"/>
  <object id="49" x="1600" y="496" width="88" height="8"/>
  <object id="50" x="1432" y="504" width="24" height="432"/>
  <object id="51" x="1704" y="504" width="32" height="40"/>
  <object id="52" x="1736" y="520" width="56" height="24"/>
  <object id="53" x="280" y="544" width="120" height="8"/>
  <object id="54" x="1744" y="544" width="48" height="264"/>
  <object id="55" x="288" y="552" width="112" height="192"/>
  <object id="56" x="1456" y="560" width="24" height="232"/>
  <object id="57" x="1480" y="568" width="24" height="224"/>
  <object id="58" x="488" y="576" width="56" height="360"/>
  <object id="59" x="888" y="576" width="120" height="32"/>
  <object id="60" x="1504" y="600" width="8" height="344"/>
  <object id="61" x="888" y="608" width="112" height="200"/>
  <object id="62" x="1312" y="608" width="8" height="256"/>
  <object id="63" x="1736" y="616" width="8" height="192"/>
  <object id="64" x="280" y="624" width="8" height="312"/>
  <object id="65" x="1512" y="632" width="64" height="320"/>
  <object id="66" x="1632" y="640" width="16" height="328"/>
  <object id="67" x="1576" y="648" width="16" height="320"/>
  <object id="68" x="1648" y="648" width="16" height="320"/>
  <object id="69" x="1592" y="656" width="40" height="312"/>
  <object id="70" x="1664" y="656" width="16" height="312"/>
  <object id="71" x="1680" y="664" width="56" height="144"/>
  <object id="72" x="1792" y="664" width="40" height="144"/>
  <object id="73" x="272" y="672" width="8" height="88"/>
  <object id="74" x="248" y="680" width="24" height="80"/>
  <object id="75" x="544" y="680" width="344" height="128"/>
  <object id="76" x="1000" y="680" width="40" height="128"/>
  <object id="77" x="1088" y="680" width="56" height="144"/>
  <object id="78" x="1192" y="680" width="40" height="184"/>
  <object id="79" x="1288" y="680" width="24" height="184"/>
  <object id="80" x="1040" y="720" width="48" height="88"/>
  <object id="81" x="1144" y="720" width="48" height="104"/>
  <object id="82" x="1232" y="720" width="56" height="144"/>
  <object id="83" x="96" y="728" width="48" height="208"/>
  <object id="84" x="288" y="744" width="72" height="8"/>
  <object id="85" x="384" y="744" width="16" height="192"/>
  <object id="86" x="288" y="752" width="32" height="184"/>
  <object id="87" x="1488" y="792" width="16" height="8"/>
  <object id="88" x="544" y="808" width="216" height="128"/>
  <object id="89" x="1072" y="808" width="16" height="184"/>
  <object id="90" x="1680" y="808" width="40" height="128"/>
  <object id="91" x="1088" y="824" width="32" height="152"/>
  <object id="92" x="1176" y="824" width="16" height="40"/>
  <object id="93" x="144" y="840" width="136" height="96"/>
  <object id="94" x="760" y="848" width="40" height="144"/>
  <object id="95" x="1040" y="848" width="32" height="144"/>
  <object id="96" x="80" y="856" width="16" height="80"/>
  <object id="97" x="320" y="864" width="64" height="72"/>
  <object id="98" x="64" y="896" width="16" height="40"/>
  <object id="99" x="1120" y="896" width="8" height="80"/>
  <object id="100" x="696" y="936" width="64" height="40"/>
  <object id="101" x="1680" y="936" width="32" height="8"/>
  <object id="102" x="1680" y="944" width="24" height="24"/>
  <object id="103" x="1520" y="952" width="56" height="16"/>
  <object id="104" x="728" y="976" width="32" height="16"/>
  <object id="105" x="1088" y="976" width="16" height="16"/>
 </objectgroup>
 <objectgroup id="224" name="collision">
  <object id="106" x="0" y="0" width="1920" height="216"/>
  <object id="107" x="0" y="216" width="136" height="32"/>
  <object id="108" x="240" y="216" width="376" height="16"/>
  <object id="109" x="1336" y="216" width="584" height="24"/>
  <object id="110" x="248" y="232" width="368" height="8"/>
  <object id="111" x="248" y="240" width="304" height="8"/>
  <object id="112" x="1416" y="240" width="272" height="32"/>
  <object id="113" x="1784" y="240" width="136" height="40"/>
  <object id="114" x="0" y="248" width="128" height="8"/>
  <object id="115" x="256" y="248" width="296" height="16"/>
  <object id="116" x="0" y="256" width="112" height="8"/>
  <object id="117" x="0" y="264" width="104" height="8"/>
  <object id="118" x="400" y="264" width="152" height="8"/>
  <object id="119" x="0" y="272" width="96" height="8"/>
  <object id="120" x="0" y="280" width="80" height="8"/>
  <object id="121" x="1800" y="280" width="120" height="8"/>
  <object id="122" x="0" y="288" width="32" height="792"/>
  <object id="123" x="1808" y="288" width="112" height="8"/>
  <object id="124" x="1816" y="296" width="104" height="8"/>
  <object id="125" x="1824" y="304" width="96" height="8"/>
  <object id="126" x="1832" y="312" width="88" height="8"/>
  <object id="127" x="1848" y="320" width="72" height="8"/>
  <object id="128" x="1432" y="328" width="88" height="176"/>
  <object id="129" x="1856" y="328" width="64" height="144"/>
  <object id="130" x="1736" y="336" width="120" height="96"/>
  <object id="131" x="480" y="360" width="320" height="96"/>
  <object id="132" x="1008" y="360" width="320" height="96"/>
  <object id="133" x="1520" y="368" width="40" height="80"/>
  <object id="134" x="32" y="384" width="200" height="72"/>
  <object id="135" x="1800" y="432" width="56" height="40"/>
  <object id="136" x="1520" y="448" width="32" height="8"/>
  <object id="137" x="480" y="456" width="304" height="8"/>
  <object id="138" x="1008" y="456" width="312" height="8"/>
  <object id="139" x="1520" y="456" width="16" height="176"/>
  <object id="140" x="488" y="464" width="72" height="24"/>
  <object id="141" x="696" y="464" width="88" height="24"/>
  <object id="142" x="1024" y="464" width="80" height="24"/>
  <object id="143" x="1248" y="464" width="72" height="24"/>
  <object id="144" x="1536" y="464" width="8" height="168"/>
  <object id="145" x="1544" y="472" width="8" height="160"/>
  <object id="146" x="1880" y="472" width="40" height="608"/>
  <object id="147" x="1552" y="480" width="16" height="152"/>
  <object id="148" x="1568" y="488" width="8" height="144"/>
  <object id="149" x="1576" y="496" width="24" height="152"/>
  <object id="150" x="1456" y="504" width="64" height="56"/>
  <object id="151" x="1600" y="504" width="104" height="136"/>
  <object id="152" x="1792" y="520" width="88" height="144"/>
  <object id="153" x="32" y="544" width="248" height="128"/>
  <object id="154" x="1704" y="544" width="40" height="72"/>
  <object id="155" x="280" y="552" width="8" height="72"/>
  <object id="156" x="1480" y="560" width="40" height="8"/>
  <object id="157" x="1504" y="568" width="16" height="32"/>
  <object id="158" x="544" y="576" width="344" height="104"/>
  <object id="159" x="1512" y="600" width="8" height="32"/>
  <object id="160" x="1000" y="608" width="312" height="72"/>
  <object id="161" x="1704" y="616" width="32" height="48"/>
  <object id="162" x="1600" y="640" width="32" height="16"/>
  <object id="163" x="1648" y="640" width="56" height="8"/>
  <object id="164" x="1592" y="648" width="8" height="8"/>
  <object id="165" x="1664" y="648" width="40" height="8"/>
  <object id="166" x="1680" y="656" width="24" height="8"/>
  <object id="167" x="1832" y="664" width="48" height="416"/>
  <object id="168" x="32" y="672" width="240" height="8"/>
  <object id="169" x="32" y="680" width="216" height="48"/>
  <object id="170" x="1040" y="680" width="48" height="40"/>
  <object id="171" x="1144" y="680" width="48" height="40"/>
  <object id="172" x="1232" y="680" width="56" height="40"/>
  <object id="173" x="32" y="728" width="64" height="128"/>
  <object id="174" x="144" y="728" width="104" height="112"/>
  <object id="175" x="360" y="744" width="24" height="120"/>
  <object id="176" x="320" y="752" width="40" height="112"/>
  <object id="177" x="248" y="760" width="32" height="80"/>
  <object id="178" x="1456" y="792" width="32" height="288"/>
  <object id="179" x="1488" y="800" width="16" height="280"/>
  <object id="180" x="760" y="808" width="312" height="40"/>
  <object id="181" x="1720" y="808" width="112" height="272"/>
  <object id="182" x="1120" y="824" width="56" height="72"/>
  <object id="183" x="800" y="848" width="240" height="232"/>
  <object id="184" x="32" y="856" width="48" height="40"/>
  <object id="185" x="1176" y="864" width="160" height="216"/>
  <object id="186" x="32" y="896" width="32" height="184"/>
  <object id="187" x="1128" y="896" width="48" height="184"/>
  <object id="188" x="64" y="936" width="632" height="144"/>
  <object id="189" x="1336" y="936" width="120" height="144"/>
  <object id="190" x="1712" y="936" width="8" height="144"/>
  <object id="191" x="1504" y="944" width="8" height="136"/>
  <object id="192" x="1704" y="944" width="8" height="136"/>
  <object id="193" x="1512" y="952" width="8" height="128"/>
  <object id="194" x="1520" y="968" width="184" height="112"/>
  <object id="195" x="696" y="976" width="32" height="104"/>
  <object id="196" x="1104" y="976" width="24" height="104"/>
  <object id="197" x="728" y="992" width="72" height="88"/>
  <object id="198" x="1040" y="992" width="64" height="88"/>
 </objectgroup>
 <objectgroup id="225" name="overhead">
  <object id="199" x="1437" y="288" width="76" height="73"><properties><property name="mask" value="mask_000.png"/></properties></object>
  <object id="200" x="37" y="302" width="192" height="110"><properties><property name="mask" value="mask_001.png"/></properties></object>
  <object id="201" x="478" y="306" width="321" height="91"><properties><property name="mask" value="mask_002.png"/></properties></object>
  <object id="202" x="1007" y="306" width="320" height="96"><properties><property name="mask" value="mask_003.png"/></properties></object>
  <object id="203" x="1739" y="308" width="58" height="59"><properties><property name="mask" value="mask_004.png"/></properties></object>
  <object id="204" x="1639" y="469" width="63" height="50"><properties><property name="mask" value="mask_005.png"/></properties></object>
  <object id="205" x="548" y="524" width="340" height="68"><properties><property name="mask" value="mask_006.png"/></properties></object>
  <object id="206" x="193" y="528" width="36" height="33"><properties><property name="mask" value="mask_007.png"/></properties></object>
  <object id="207" x="238" y="533" width="38" height="23"><properties><property name="mask" value="mask_008.png"/></properties></object>
  <object id="208" x="997" y="562" width="327" height="70"><properties><property name="mask" value="mask_009.png"/></properties></object>
  <object id="209" x="761" y="754" width="310" height="84"><properties><property name="mask" value="mask_010.png"/></properties></object>
  <object id="210" x="1456" y="762" width="35" height="47"><properties><property name="mask" value="mask_011.png"/></properties></object>
  <object id="211" x="1732" y="776" width="35" height="42"><properties><property name="mask" value="mask_012.png"/></properties></object>
  <object id="212" x="1115" y="781" width="59" height="72"><properties><property name="mask" value="mask_013.png"/></properties></object>
  <object id="213" x="1196" y="794" width="136" height="92"><properties><property name="mask" value="mask_014.png"/></properties></object>
  <object id="214" x="159" y="907" width="170" height="51"><properties><property name="mask" value="mask_015.png"/></properties></object>
  <object id="215" x="533" y="909" width="71" height="48"><properties><property name="mask" value="mask_016.png"/></properties></object>
  <object id="216" x="664" y="921" width="33" height="34"><properties><property name="mask" value="mask_017.png"/></properties></object>
 </objectgroup>
 <objectgroup id="226" name="spawn">
  <object id="217" name="player" x="1508" y="724"><point/></object>
  <object id="218" name="bujang" x="764" y="924"><point/></object>
  <object id="219" name="teamjang" x="132" y="884"><point/></object>
  <object id="220" name="sasu" x="1628" y="324"><point/></object>
  <object id="221" name="npc4" x="172" y="276"><point/></object>
  <object id="222" name="npc5" x="596" y="500"><point/></object>
 </objectgroup>
</map>
