<?xml version="1.0" encoding="UTF-8"?>
<map version="1.10" tiledversion="1.12.2" orientation="orthogonal" renderorder="right-down" width="80" height="45" tilewidth="24" tileheight="24" infinite="0" nextlayerid="7" nextobjectid="63">
 <imagelayer id="2" name="background" locked="1">
  <image source="현대_백엔드_개발자_사무실.png" width="1920" height="1080"/>
 </imagelayer>
 <objectgroup id="3" name="player_bounds" locked="1">
  <object id="1" x="70" y="80" width="1780" height="656"/>
 </objectgroup>
 <objectgroup id="4" name="walkable" locked="1">
  <object id="2" x="70" y="80" width="1780" height="656"/>
 </objectgroup>
 <objectgroup id="5" name="collision" locked="1">
  <object id="3" x="96.6667" y="86" width="314.667" height="103.333"/>
  <object id="4" x="415.333" y="102.667" width="91.3333" height="80"/>
  <object id="5" x="497.333" y="84.6667" width="11.3333" height="158.667"/>
  <object id="6" x="507.333" y="93.3333" width="534.667" height="120"/>
  <object id="7" x="560" y="205.333" width="403.333" height="40"/>
  <object id="8" x="1025.33" y="197.333" width="10" height="128.667"/>
  <object id="9" x="1033.33" y="306.667" width="60.6667" height="20.6667"/>
  <object id="10" x="1260.67" y="307.333" width="54.6667" height="20"/>
  <object id="11" x="1314.67" y="82.6667" width="10.6667" height="245.333"/>
  <object id="12" x="1037.33" y="85.3333" width="278.667" height="90"/>
  <object id="13" x="1113.33" y="200.667" width="100" height="75.3333"/>
  <object id="14" x="1215.33" y="207.333" width="12" height="56.6667"/>
  <object id="15" x="1097.33" y="208.667" width="22" height="53.3333"/>
  <object id="16" x="1233.33" y="230.667" width="22.6667" height="28.6667"/>
  <object id="17" x="1070" y="229.333" width="25.3333" height="22"/>
  <object id="18" x="114.667" y="203.333" width="189.333" height="31.3333"/>
  <object id="19" x="116" y="236.667" width="20" height="80.6667"/>
  <object id="20" x="196" y="279.333" width="60" height="40.6667"/>
  <object id="21" x="282.667" y="290.667" width="20" height="24.6667"/>
  <object id="22" x="95.3333" y="192" width="8.66667" height="544"/>
  <object id="23" x="111.333" y="420" width="242" height="94"/>
  <object id="24" x="115.333" y="547.333" width="18.6667" height="68"/>
  <object id="25" x="171.333" y="577.333" width="102.667" height="53.3333"/>
  <object id="26" x="309.333" y="608.667" width="24.6667" height="64"/>
  <object id="27" x="344" y="646" width="14" height="51.3333"/>
  <object id="28" x="118" y="662" width="141.333" height="22"/>
  <object id="29" x="133.333" y="727.333" width="68" height="14"/>
  <object id="30" x="1324.67" y="83.3333" width="178.667" height="13.3333"/>
  <object id="31" x="1337.33" y="99.3333" width="14" height="224.667"/>
  <object id="32" x="1489.33" y="93.3333" width="12" height="115.333"/>
  <object id="33" x="1350.67" y="256.667" width="147.333" height="74.6667"/>
  <object id="34" x="1600" y="81.3333" width="12" height="132"/>
  <object id="35" x="1612.67" y="92" width="232" height="74"/>
  <object id="36" x="1838.67" y="164.667" width="27.3333" height="118.667"/>
  <object id="37" x="1836" y="288.667" width="17.3333" height="176.667"/>
  <object id="38" x="1837.33" y="465.333" width="12.6667" height="272.667"/>
  <object id="39" x="1758" y="375.333" width="60.6667" height="85.3333"/>
  <object id="40" x="1773.33" y="534.667" width="34.6667" height="62.6667"/>
  <object id="41" x="1250.67" y="394" width="413.333" height="100.667"/>
  <object id="42" x="1325.33" y="526" width="260.667" height="126"/>
  <object id="43" x="1302" y="557.333" width="34" height="62"/>
  <object id="44" x="1573.33" y="556.667" width="36" height="70"/>
  <object id="45" x="486" y="384.667" width="238.667" height="78"/>
  <object id="46" x="500.667" y="367.333" width="200.667" height="34"/>
  <object id="47" x="736.667" y="405.333" width="25.3333" height="64"/>
  <object id="48" x="442.667" y="407.333" width="26.6667" height="62"/>
  <object id="49" x="440.667" y="592.667" width="25.3333" height="61.3333"/>
  <object id="50" x="490" y="558.667" width="228.667" height="97.3333"/>
  <object id="51" x="738.667" y="592.667" width="22" height="57.3333"/>
  <object id="52" x="856.667" y="593.333" width="22.6667" height="58.6667"/>
  <object id="53" x="1106" y="600.667" width="24.6667" height="47.3333"/>
  <object id="54" x="892" y="563.333" width="197.333" height="92.6667"/>
  <object id="55" x="852.667" y="396" width="26.6667" height="66.6667"/>
  <object id="56" x="889.333" y="379.333" width="206" height="92"/>
  <object id="57" x="1102" y="398.667" width="30.6667" height="60.6667"/>
  <object id="58" x="1686" y="167.333" width="144.667" height="98"/>
 </objectgroup>
 <objectgroup id="6" name="spawns" locked="1">
  <object id="59" name="사수" x="786.667" y="294.667">
   <point/>
  </object>
  <object id="60" name="player" x="1194.67" y="563.333">
   <point/>
  </object>
  <object id="61" name="부장" x="1273.33" y="282.667">
   <point/>
  </object>
  <object id="62" name="팀장" x="374" y="308.667">
   <point/>
  </object>
 </objectgroup>
</map>
