<?xml version="1.0" encoding="UTF-8"?>
<map version="1.10" tiledversion="1.12.2" orientation="orthogonal" renderorder="right-down" width="80" height="45" tilewidth="24" tileheight="24" infinite="0" nextlayerid="8" nextobjectid="42">
 <imagelayer id="2" name="background" locked="1">
  <image source="첨단소재_연구실.png" width="1920" height="1080"/>
 </imagelayer>
 <objectgroup id="3" name="play_bounds" locked="1">
  <object id="1" name="main_play_area" x="70" y="80" width="1780" height="656"/>
 </objectgroup>
 <objectgroup id="4" name="walkable" locked="1">
  <object id="2" name="walkable" x="70" y="80" width="1780" height="656"/>
 </objectgroup>
 <objectgroup id="6" name="collision" locked="1">
  <object id="3" x="686.604" y="101.514" width="472.502" height="166.114"/>
  <object id="4" x="1164.64" y="101.514" width="59.0627" height="105.205"/>
  <object id="5" x="1196.02" y="201.182" width="31.3771" height="127.354"/>
  <object id="6" x="1225.55" y="114.434" width="114.434" height="77.5198"/>
  <object id="7" x="559.25" y="107.051" width="121.817" height="132.891"/>
  <object id="8" x="487.267" y="107.051" width="57.217" height="119.971"/>
  <object id="9" x="520.49" y="221.485" width="25.8399" height="64.5999"/>
  <object id="10" x="396.828" y="105.205" width="88.5941" height="86.7484"/>
  <object id="11" x="162.422" y="308.234" width="241.788" height="55.3713"/>
  <object id="12" x="252.862" y="215.948" width="51.6799" height="60.9084"/>
  <object id="13" x="162.422" y="103.36" width="228.868" height="60.9084"/>
  <object id="14" x="151.348" y="171.651" width="49.8342" height="140.274"/>
  <object id="15" x="149.503" y="365.451" width="60.9084" height="263.937"/>
  <object id="16" x="147.657" y="627.541" width="35.0685" height="71.9827"/>
  <object id="17" x="188.262" y="658.919" width="215.948" height="73.8284"/>
  <object id="18" x="402.365" y="699.524" width="1120.35" height="36.9142"/>
  <object id="19" x="551.867" y="348.839" width="653.381" height="86.7484"/>
  <object id="20" x="550.022" y="520.49" width="382.062" height="62.7541"/>
  <object id="21" x="983.764" y="518.645" width="245.479" height="66.4456"/>
  <object id="22" x="1323.37" y="472.502" width="129.2" height="140.274"/>
  <object id="23" x="1332.6" y="119.971" width="36.9142" height="339.611"/>
  <object id="24" x="1365.83" y="367.296" width="81.2112" height="107.051"/>
  <object id="25" x="1365.83" y="116.28" width="191.954" height="219.64"/>
  <object id="26" x="1563.32" y="105.205" width="36.9142" height="147.657"/>
  <object id="27" x="1557.78" y="369.142" width="47.9885" height="99.6683"/>
  <object id="28" x="1572.55" y="463.273" width="40.6056" height="166.114"/>
  <object id="29" x="1620.53" y="481.73" width="193.8" height="116.28"/>
  <object id="30" x="1801.41" y="592.473" width="31.3771" height="103.36"/>
  <object id="31" x="1729.43" y="655.227" width="79.3655" height="47.9885"/>
  <object id="32" x="1646.37" y="369.142" width="105.205" height="60.9084"/>
  <object id="33" x="1603.92" y="110.743" width="156.885" height="138.428"/>
  <object id="34" x="1609.46" y="241.788" width="149.503" height="71.9827"/>
  <object id="35" x="1777.42" y="105.205" width="20.3028" height="79.3655"/>
  <object id="36" x="1797.72" y="188.262" width="29.5314" height="289.776"/>
  <object id="37" x="286.085" y="420.822" width="107.051" height="171.651"/>
 </objectgroup>
 <objectgroup id="7" name="spawn" locked="1">
  <object id="38" name="player" x="675.53" y="623.85">
   <point/>
  </object>
  <object id="39" name="sasu" x="1061.28" y="605.393">
   <point/>
  </object>
  <object id="40" name="teamjang" x="339.611" y="249.171">
   <point/>
  </object>
  <object id="41" name="bujang" x="1507.95" y="382.062">
   <point/>
  </object>
 </objectgroup>
</map>
