<?xml version="1.0" encoding="UTF-8"?>
<map version="1.10" tiledversion="1.12.2" orientation="orthogonal" renderorder="right-down" width="80" height="45" tilewidth="24" tileheight="24" infinite="0" nextlayerid="8" nextobjectid="134">
 <imagelayer id="2" name="background" locked="1">
  <image source="행사_전시_기획_사무실과_갤러리.png" width="1920" height="1080"/>
 </imagelayer>
 <objectgroup id="3" name="player_bounds" locked="1">
  <object id="1" name="main_player_area" x="70" y="80" width="1780" height="656"/>
 </objectgroup>
 <objectgroup id="4" name="walkable" locked="1">
  <object id="2" x="70" y="80" width="1780" height="656"/>
  <object id="5" name="walkable" x="70" y="80" width="1780" height="656"/>
 </objectgroup>
 <objectgroup id="5" name="collision" locked="1">
  <object id="6" x="106.43" y="281.595" width="88.1973" height="114.19"/>
  <object id="7" x="108.647" y="394.676" width="89.3063" height="127.494"/>
  <object id="8" x="97.5604" y="567.624" width="138.977" height="104.212"/>
  <object id="9" x="312.637" y="536.582" width="47.6716" height="115.299"/>
  <object id="10" x="129.711" y="230.597" width="273.834" height="38.8024"/>
  <object id="11" x="437.913" y="199.555" width="268.291" height="68.7357"/>
  <object id="12" x="696.437" y="220.837" width="33.2592" height="49.8888"/>
  <object id="13" x="270.508" y="308.202" width="478.933" height="109.755"/>
  <object id="14" x="799.33" y="225.054" width="302.659" height="117.516"/>
  <object id="15" x="880.261" y="375.829" width="166.296" height="85.3654"/>
  <object id="17" x="797.113" y="515.518" width="292.682" height="48.7802"/>
  <object id="18" x="798.019" y="585.362" width="289.557" height="109.755"/>
  <object id="19" x="389.133" y="472.281" width="298.419" height="159.802"/>
  <object id="20" x="728.377" y="554.321" width="46.1061" height="75.3876"/>
  <object id="21" x="1073.16" y="125.276" width="105.321" height="137.471"/>
  <object id="22" x="1215.07" y="152.992" width="84.2567" height="59.8666"/>
  <object id="45" x="360.308" y="141.906" width="43.237" height="116.407"/>
  <object id="47" x="1202.88" y="662.967" width="53.2148" height="65.4098"/>
  <object id="49" x="1601.99" y="123.059" width="22.1728" height="213.968"/>
  <object id="52" x="1156.31" y="286.029" width="21.0642" height="246.118"/>
  <object id="53" x="1166.29" y="278.269"/>
  <object id="54" x="1166.29" y="278.269"/>
  <object id="55" x="1222.83" y="116.407" width="130.82" height="32.1506"/>
  <object id="77" x="107" y="131" width="24" height="73"/>
  <object id="78" x="157" y="128" width="22" height="67"/>
  <object id="79" x="210" y="166" width="58" height="33"/>
  <object id="80" x="320" y="158" width="26" height="34"/>
  <object id="81" x="176" y="115" width="100" height="11"/>
  <object id="82" x="1260" y="528.333" width="36" height="99"/>
  <object id="83" x="1236" y="402" width="46" height="105"/>
  <object id="84" x="1273.33" y="421" width="48" height="97.6667"/>
  <object id="85" x="1319.33" y="450" width="52" height="92"/>
  <object id="86" x="1347" y="473" width="61" height="102"/>
  <object id="87" x="1309" y="216.333" width="24" height="82.6667"/>
  <object id="88" x="1263" y="311" width="23" height="65"/>
  <object id="90" x="1411" y="149" width="170" height="130"/>
  <object id="91" x="1375.33" y="123.333" width="18.6667" height="112.667"/>
  <object id="92" x="1701.33" y="146.667" width="26.6667" height="116"/>
  <object id="93" x="1759.33" y="174" width="102" height="61.3333"/>
  <object id="94" x="1796.67" y="113.333" width="56.6667" height="66.6667"/>
  <object id="95" x="1717.33" y="170.667" width="18" height="64.6667"/>
  <object id="96" x="1979.33" y="255.333" height="0.666667"/>
  <object id="98" x="1746" y="304" width="39.3333" height="118.667"/>
  <object id="99" x="1724.67" y="340.667" width="29.3333" height="70.6667"/>
  <object id="100" x="1786.67" y="354.667" width="49.3333" height="93.3333"/>
  <object id="101" x="1808.67" y="336.667" width="44.6667" height="75.3333"/>
  <object id="102" x="1809.33" y="323.333" width="38.6667" height="18"/>
  <object id="103" x="1390" y="304.667" width="14.6667" height="66.6667"/>
  <object id="104" x="1405.33" y="319.333" width="34" height="54"/>
  <object id="105" x="1433.33" y="331.333" width="46" height="50"/>
  <object id="106" x="1477.33" y="343.333" width="58" height="48"/>
  <object id="107" x="1535.33" y="337.333" width="58.6667" height="5.33333"/>
  <object id="108" x="1588.67" y="329.333" width="11.3333" height="46"/>
  <object id="109" x="1681.33" y="442" width="25.3333" height="132.667"/>
  <object id="110" x="1560" y="373.333" width="21.3333" height="126.667"/>
  <object id="111" x="1590.67" y="429.333"/>
  <object id="112" x="1575.33" y="389.333" width="38.6667" height="122.667"/>
  <object id="113" x="1608.67" y="406.667" width="34.6667" height="122.667"/>
  <object id="114" x="1637.33" y="424.667" width="42.6667" height="122.667"/>
  <object id="115" x="1461.33" y="601.333" width="78.6667" height="45.3333"/>
  <object id="116" x="1501.33" y="636.667" width="36.6667" height="20.6667"/>
  <object id="117" x="1574.67" y="597.333" width="68.6667" height="31.3333"/>
  <object id="118" x="1592.67" y="548.667" width="33.3333" height="44.6667"/>
  <object id="119" x="1356.67" y="655.333" width="122" height="54.6667"/>
  <object id="120" x="1246.67" y="585.333" width="65.3333" height="35.3333"/>
  <object id="121" x="1684.67" y="390.667" width="16.6667" height="40"/>
  <object id="122" x="1065.33" y="534" width="20.6667" height="69.3333"/>
  <object id="123" x="793.333" y="486" width="24" height="56.6667"/>
  <object id="124" x="1157.33" y="519.333" width="16.6667" height="103.333"/>
  <object id="125" x="1789.33" y="619.333" width="76" height="72.6667"/>
  <object id="126" x="1834.67" y="579.333" width="38.6667" height="53.3333"/>
  <object id="127" x="1809.33" y="600" width="34.6667" height="28.6667"/>
  <object id="128" x="1677.33" y="688.667" width="114.667" height="18.6667"/>
  <object id="129" x="1689.33" y="680.667" width="98.6667" height="6.66667"/>
  <object id="130" x="1705.33" y="668.667" width="66" height="7.33333"/>
  <object id="131" x="1724.67" y="658" width="53.3333" height="5.33333"/>
  <object id="132" x="1736" y="644" width="42.6667" height="10"/>
 </objectgroup>
 <objectgroup id="6" name="spawns" locked="1">
  <object id="42" name="player" x="263.857" y="490.019">
   <point/>
  </object>
  <object id="43" name="부장" x="756.093" y="458.977">
   <point/>
  </object>
  <object id="44" name="사수" x="709.53" y="671.836">
   <point/>
  </object>
  <object id="133" name="팀장" x="1495.56" y="492.237">
   <point/>
  </object>
 </objectgroup>
</map>
