<?xml version="1.0" encoding="UTF-8"?>
<map version="1.10" tiledversion="1.12.2" orientation="orthogonal" renderorder="right-down" width="80" height="45" tilewidth="24" tileheight="24" infinite="0" nextlayerid="7" nextobjectid="44">
 <imagelayer id="2" name="background" locked="1">
  <image source="구매_자재_관리_사무실.png" width="1920" height="1080"/>
 </imagelayer>
 <objectgroup id="3" name="play_bounds" locked="1">
  <object id="1" name="main_play_area" x="70" y="80" width="1780" height="656"/>
 </objectgroup>
 <objectgroup id="4" name="walkable" locked="1">
  <object id="2" name="walkable" x="70" y="80" width="1780" height="656"/>
 </objectgroup>
 <objectgroup id="5" name="collision" locked="1">
  <object id="3" x="75.6741" y="97.8226" width="407.902" height="99.6683"/>
  <object id="4" x="107.051" y="258.399" width="354.376" height="47.9885"/>
  <object id="6" x="94.1312" y="383.908" width="359.913" height="108.897"/>
  <object id="7" x="77.5198" y="542.639" width="138.428" height="179.034"/>
  <object id="8" x="256.554" y="562.942" width="195.645" height="103.36"/>
  <object id="9" x="358.068" y="701.37" width="121.817" height="40.6056"/>
  <object id="10" x="221.485" y="697.678" width="64.5999" height="40.6056"/>
  <object id="11" x="561.096" y="693.987" width="1125.88" height="35.0685"/>
  <object id="12" x="570.324" y="407.902" width="169.805" height="77.5198"/>
  <object id="13" x="561.096" y="544.484" width="182.725" height="101.514"/>
  <object id="14" x="802.884" y="550.022" width="263.937" height="95.9769"/>
  <object id="15" x="801.038" y="393.136" width="243.634" height="90.4398"/>
  <object id="16" x="620.159" y="169.805" width="262.091" height="151.348"/>
  <object id="17" x="537.102" y="79.3655" width="18.4571" height="278.702"/>
  <object id="18" x="557.404" y="73.8284" width="585.09" height="108.897"/>
  <object id="19" x="943.158" y="179.034" width="125.508" height="108.897"/>
  <object id="20" x="1146.19" y="88.5941" width="14.7657" height="282.394"/>
  <object id="21" x="1159.11" y="328.536" width="60.9084" height="55.3713"/>
  <object id="22" x="1221.86" y="210.411" width="62.7541" height="88.5941"/>
  <object id="23" x="1162.8" y="75.6741" width="182.725" height="112.588"/>
  <object id="24" x="1345.52" y="188.262" width="9.22855" height="322.999"/>
  <object id="25" x="1184.95" y="479.885" width="99.6683" height="40.6056"/>
  <object id="26" x="1194.17" y="527.873" width="14.7657" height="166.114"/>
  <object id="27" x="1207.09" y="518.645" width="55.3713" height="95.9769"/>
  <object id="28" x="1212.63" y="638.616" width="51.6799" height="49.8342"/>
  <object id="29" x="1354.75" y="575.862" width="64.5999" height="73.8284"/>
  <object id="30" x="1450.73" y="634.924" width="71.9827" height="60.9084"/>
  <object id="31" x="1613.15" y="638.616" width="227.022" height="55.3713"/>
  <object id="32" x="1576.24" y="465.119" width="234.405" height="99.6683"/>
  <object id="33" x="1391.67" y="490.959" width="107.051" height="53.5256"/>
  <object id="34" x="1362.13" y="326.691" width="119.971" height="70.137"/>
  <object id="35" x="1579.93" y="287.931" width="232.559" height="114.434"/>
  <object id="36" x="1367.67" y="400.519" width="31.3771" height="44.297"/>
  <object id="37" x="1345.52" y="88.5941" width="42.4513" height="208.565"/>
  <object id="38" x="1399.05" y="86.7484" width="94.1312" height="55.3713"/>
  <object id="39" x="1502.41" y="81.2112" width="348.839" height="153.194"/>
 </objectgroup>
 <objectgroup id="6" name="spawn">
  <object id="40" name="player" x="623.85" y="669.993">
   <point/>
  </object>
  <object id="41" name="sasu" x="856.41" y="660.764">
   <point/>
  </object>
  <object id="42" name="teamjang" x="1609.46" y="426.359">
   <point/>
  </object>
  <object id="43" name="bujang" x="263.937" y="520.49">
   <point/>
  </object>
 </objectgroup>
</map>
