<?xml version="1.0" encoding="UTF-8"?>
<map version="1.10" tiledversion="1.12.2" orientation="orthogonal" renderorder="right-down" width="240" height="135" tilewidth="8" tileheight="8" infinite="0" nextlayerid="99" nextobjectid="387">
 <imagelayer id="90" name="background">
  <image source="jm-05.png" width="1920" height="1080"/>
 </imagelayer>
 <objectgroup id="386" name="walkable">
  <object id="1" x="736" y="80" width="104" height="840"/>
  <object id="2" x="720" y="96" width="16" height="824"/>
  <object id="3" x="840" y="104" width="8" height="816"/>
  <object id="4" x="680" y="120" width="40" height="656"/>
  <object id="5" x="848" y="120" width="32" height="800"/>
  <object id="6" x="576" y="128" width="104" height="104"/>
  <object id="7" x="248" y="152" width="328" height="80"/>
  <object id="8" x="1120" y="192" width="48" height="272"/>
  <object id="9" x="208" y="208" width="40" height="256"/>
  <object id="10" x="1096" y="216" width="24" height="264"/>
  <object id="11" x="248" y="232" width="72" height="16"/>
  <object id="12" x="328" y="232" width="200" height="16"/>
  <object id="13" x="536" y="232" width="88" height="16"/>
  <object id="14" x="640" y="232" width="40" height="680"/>
  <object id="15" x="1168" y="232" width="16" height="232"/>
  <object id="16" x="976" y="240" width="88" height="544"/>
  <object id="17" x="1232" y="240" width="96" height="224"/>
  <object id="18" x="328" y="248" width="48" height="216"/>
  <object id="19" x="472" y="248" width="56" height="504"/>
  <object id="20" x="968" y="248" width="8" height="536"/>
  <object id="21" x="880" y="256" width="56" height="664"/>
  <object id="22" x="960" y="256" width="8" height="584"/>
  <object id="23" x="1064" y="256" width="32" height="224"/>
  <object id="24" x="1184" y="256" width="48" height="208"/>
  <object id="25" x="1328" y="256" width="48" height="320"/>
  <object id="26" x="936" y="264" width="24" height="648"/>
  <object id="27" x="200" y="288" width="8" height="80"/>
  <object id="28" x="592" y="320" width="32" height="432"/>
  <object id="29" x="1440" y="336" width="32" height="96"/>
  <object id="30" x="248" y="344" width="8" height="120"/>
  <object id="31" x="376" y="344" width="96" height="416"/>
  <object id="32" x="1392" y="344" width="48" height="88"/>
  <object id="33" x="1472" y="344" width="8" height="88"/>
  <object id="34" x="1656" y="344" width="80" height="88"/>
  <object id="35" x="1760" y="344" width="32" height="88"/>
  <object id="36" x="296" y="352" width="32" height="112"/>
  <object id="37" x="1384" y="352" width="8" height="392"/>
  <object id="38" x="1480" y="352" width="40" height="80"/>
  <object id="39" x="288" y="360" width="8" height="104"/>
  <object id="40" x="528" y="360" width="24" height="392"/>
  <object id="41" x="1376" y="360" width="8" height="384"/>
  <object id="42" x="1552" y="360" width="104" height="72"/>
  <object id="43" x="1736" y="360" width="24" height="72"/>
  <object id="44" x="256" y="368" width="32" height="96"/>
  <object id="45" x="552" y="368" width="40" height="384"/>
  <object id="46" x="624" y="368" width="16" height="384"/>
  <object id="47" x="48" y="376" width="32" height="384"/>
  <object id="48" x="1520" y="376" width="32" height="56"/>
  <object id="49" x="80" y="384" width="128" height="80"/>
  <object id="50" x="32" y="408" width="16" height="592"/>
  <object id="51" x="24" y="424" width="8" height="576"/>
  <object id="52" x="1392" y="432" width="16" height="312"/>
  <object id="53" x="80" y="464" width="16" height="8"/>
  <object id="54" x="336" y="464" width="40" height="8"/>
  <object id="55" x="1120" y="464" width="8" height="16"/>
  <object id="56" x="1136" y="464" width="40" height="8"/>
  <object id="57" x="1312" y="464" width="16" height="16"/>
  <object id="58" x="80" y="472" width="8" height="240"/>
  <object id="59" x="344" y="472" width="32" height="8"/>
  <object id="60" x="352" y="480" width="24" height="136"/>
  <object id="61" x="1064" y="480" width="24" height="344"/>
  <object id="62" x="1728" y="480" width="32" height="64"/>
  <object id="63" x="1424" y="488" width="72" height="144"/>
  <object id="64" x="344" y="496" width="8" height="120"/>
  <object id="65" x="1720" y="496" width="8" height="48"/>
  <object id="66" x="88" y="504" width="16" height="112"/>
  <object id="67" x="104" y="512" width="8" height="104"/>
  <object id="68" x="1496" y="512" width="224" height="32"/>
  <object id="69" x="112" y="520" width="8" height="96"/>
  <object id="70" x="336" y="520" width="8" height="96"/>
  <object id="71" x="120" y="528" width="8" height="88"/>
  <object id="72" x="184" y="528" width="40" height="88"/>
  <object id="73" x="128" y="536" width="56" height="80"/>
  <object id="74" x="224" y="536" width="8" height="80"/>
  <object id="75" x="328" y="536" width="8" height="80"/>
  <object id="76" x="232" y="544" width="96" height="72"/>
  <object id="77" x="1496" y="544" width="56" height="8"/>
  <object id="78" x="1632" y="544" width="88" height="8"/>
  <object id="79" x="1496" y="552" width="48" height="80"/>
  <object id="80" x="1640" y="552" width="72" height="104"/>
  <object id="81" x="1360" y="576" width="16" height="168"/>
  <object id="82" x="1632" y="576" width="8" height="80"/>
  <object id="83" x="1624" y="584" width="8" height="72"/>
  <object id="84" x="1088" y="592" width="272" height="32"/>
  <object id="85" x="1544" y="592" width="8" height="64"/>
  <object id="86" x="1568" y="592" width="48" height="296"/>
  <object id="87" x="1552" y="600" width="8" height="56"/>
  <object id="88" x="1616" y="600" width="8" height="56"/>
  <object id="89" x="1560" y="608" width="8" height="136"/>
  <object id="90" x="88" y="616" width="8" height="8"/>
  <object id="91" x="216" y="624" width="104" height="40"/>
  <object id="92" x="1088" y="624" width="184" height="120"/>
  <object id="93" x="368" y="632" width="8" height="128"/>
  <object id="94" x="1424" y="632" width="40" height="24"/>
  <object id="95" x="1528" y="632" width="16" height="8"/>
  <object id="96" x="320" y="640" width="8" height="32"/>
  <object id="97" x="1536" y="640" width="8" height="16"/>
  <object id="98" x="1272" y="656" width="88" height="88"/>
  <object id="99" x="240" y="664" width="80" height="24"/>
  <object id="100" x="88" y="680" width="8" height="32"/>
  <object id="101" x="1408" y="680" width="152" height="64"/>
  <object id="102" x="1616" y="680" width="304" height="64"/>
  <object id="103" x="240" y="688" width="56" height="16"/>
  <object id="104" x="256" y="704" width="32" height="56"/>
  <object id="105" x="360" y="712" width="8" height="48"/>
  <object id="106" x="96" y="728" width="160" height="32"/>
  <object id="107" x="288" y="728" width="72" height="32"/>
  <object id="108" x="80" y="736" width="16" height="32"/>
  <object id="109" x="1088" y="744" width="168" height="88"/>
  <object id="110" x="1832" y="744" width="88" height="24"/>
  <object id="111" x="472" y="752" width="32" height="8"/>
  <object id="112" x="48" y="760" width="24" height="104"/>
  <object id="113" x="96" y="760" width="112" height="56"/>
  <object id="114" x="88" y="768" width="8" height="48"/>
  <object id="115" x="1616" y="768" width="24" height="120"/>
  <object id="116" x="1848" y="768" width="72" height="32"/>
  <object id="117" x="680" y="776" width="8" height="136"/>
  <object id="118" x="712" y="776" width="8" height="136"/>
  <object id="119" x="1000" y="784" width="64" height="40"/>
  <object id="120" x="1856" y="800" width="64" height="56"/>
  <object id="121" x="176" y="816" width="32" height="184"/>
  <object id="122" x="1000" y="824" width="32" height="104"/>
  <object id="123" x="1080" y="824" width="8" height="8"/>
  <object id="124" x="1096" y="832" width="160" height="104"/>
  <object id="125" x="1640" y="840" width="16" height="48"/>
  <object id="126" x="1536" y="848" width="32" height="40"/>
  <object id="127" x="1864" y="856" width="56" height="120"/>
  <object id="128" x="48" y="864" width="16" height="136"/>
  <object id="129" x="704" y="864" width="8" height="48"/>
  <object id="130" x="976" y="864" width="24" height="32"/>
  <object id="131" x="960" y="872" width="16" height="32"/>
  <object id="132" x="1544" y="888" width="48" height="40"/>
  <object id="133" x="208" y="896" width="296" height="40"/>
  <object id="134" x="960" y="904" width="8" height="8"/>
  <object id="135" x="936" y="912" width="16" height="8"/>
  <object id="136" x="80" y="920" width="96" height="80"/>
  <object id="137" x="1560" y="928" width="32" height="16"/>
  <object id="138" x="208" y="936" width="288" height="64"/>
  <object id="139" x="64" y="968" width="16" height="32"/>
 </objectgroup>
 <objectgroup id="387" name="collision">
  <object id="140" x="728" y="72" width="120" height="8"/>
  <object id="141" x="728" y="80" width="8" height="16"/>
  <object id="142" x="840" y="80" width="8" height="32"/>
  <object id="143" x="712" y="88" width="16" height="8"/>
  <object id="144" x="712" y="96" width="8" height="24"/>
  <object id="145" x="848" y="104" width="8" height="16"/>
  <object id="146" x="672" y="112" width="40" height="8"/>
  <object id="147" x="856" y="112" width="32" height="8"/>
  <object id="148" x="568" y="120" width="112" height="8"/>
  <object id="149" x="880" y="120" width="8" height="136"/>
  <object id="150" x="568" y="128" width="8" height="24"/>
  <object id="151" x="240" y="144" width="328" height="8"/>
  <object id="152" x="240" y="152" width="8" height="56"/>
  <object id="153" x="1112" y="184" width="64" height="8"/>
  <object id="154" x="1112" y="192" width="8" height="24"/>
  <object id="155" x="1168" y="192" width="8" height="40"/>
  <object id="156" x="200" y="200" width="40" height="8"/>
  <object id="157" x="200" y="208" width="8" height="80"/>
  <object id="158" x="1088" y="208" width="24" height="8"/>
  <object id="159" x="1088" y="216" width="8" height="40"/>
  <object id="160" x="1176" y="224" width="16" height="8"/>
  <object id="161" x="320" y="232" width="8" height="120"/>
  <object id="162" x="528" y="232" width="8" height="128"/>
  <object id="163" x="624" y="232" width="16" height="24"/>
  <object id="164" x="968" y="232" width="112" height="8"/>
  <object id="165" x="1184" y="232" width="8" height="24"/>
  <object id="166" x="1224" y="232" width="112" height="8"/>
  <object id="167" x="960" y="240" width="16" height="8"/>
  <object id="168" x="1064" y="240" width="8" height="16"/>
  <object id="169" x="1224" y="240" width="8" height="16"/>
  <object id="170" x="1328" y="240" width="8" height="16"/>
  <object id="171" x="248" y="248" width="72" height="8"/>
  <object id="172" x="376" y="248" width="96" height="8"/>
  <object id="173" x="536" y="248" width="88" height="8"/>
  <object id="174" x="888" y="248" width="56" height="8"/>
  <object id="175" x="952" y="248" width="16" height="8"/>
  <object id="176" x="1072" y="248" width="16" height="8"/>
  <object id="177" x="1192" y="248" width="32" height="8"/>
  <object id="178" x="1336" y="248" width="48" height="8"/>
  <object id="179" x="248" y="256" width="8" height="88"/>
  <object id="180" x="376" y="256" width="8" height="88"/>
  <object id="181" x="464" y="256" width="8" height="88"/>
  <object id="182" x="632" y="256" width="8" height="112"/>
  <object id="183" x="936" y="256" width="24" height="8"/>
  <object id="184" x="1376" y="256" width="8" height="104"/>
  <object id="185" x="192" y="280" width="8" height="104"/>
  <object id="186" x="584" y="312" width="48" height="8"/>
  <object id="187" x="584" y="320" width="8" height="48"/>
  <object id="188" x="624" y="320" width="8" height="48"/>
  <object id="189" x="1432" y="328" width="48" height="8"/>
  <object id="190" x="256" y="336" width="8" height="32"/>
  <object id="191" x="384" y="336" width="80" height="8"/>
  <object id="192" x="1384" y="336" width="56" height="8"/>
  <object id="193" x="1472" y="336" width="16" height="8"/>
  <object id="194" x="1648" y="336" width="96" height="8"/>
  <object id="195" x="1752" y="336" width="48" height="8"/>
  <object id="196" x="288" y="344" width="32" height="8"/>
  <object id="197" x="1384" y="344" width="8" height="8"/>
  <object id="198" x="1480" y="344" width="48" height="8"/>
  <object id="199" x="1648" y="344" width="8" height="16"/>
  <object id="200" x="1736" y="344" width="8" height="16"/>
  <object id="201" x="1752" y="344" width="8" height="16"/>
  <object id="202" x="1792" y="344" width="8" height="96"/>
  <object id="203" x="280" y="352" width="16" height="8"/>
  <object id="204" x="536" y="352" width="24" height="8"/>
  <object id="205" x="1520" y="352" width="8" height="24"/>
  <object id="206" x="1544" y="352" width="104" height="8"/>
  <object id="207" x="1744" y="352" width="8" height="8"/>
  <object id="208" x="264" y="360" width="24" height="8"/>
  <object id="209" x="552" y="360" width="32" height="8"/>
  <object id="210" x="1544" y="360" width="8" height="16"/>
  <object id="211" x="40" y="368" width="48" height="8"/>
  <object id="212" x="200" y="368" width="8" height="16"/>
  <object id="213" x="1528" y="368" width="16" height="8"/>
  <object id="214" x="40" y="376" width="8" height="32"/>
  <object id="215" x="80" y="376" width="112" height="8"/>
  <object id="216" x="24" y="400" width="16" height="8"/>
  <object id="217" x="24" y="408" width="8" height="16"/>
  <object id="218" x="16" y="416" width="8" height="592"/>
  <object id="219" x="1408" y="432" width="384" height="8"/>
  <object id="220" x="1408" y="440" width="8" height="240"/>
  <object id="221" x="96" y="464" width="240" height="8"/>
  <object id="222" x="1128" y="464" width="8" height="24"/>
  <object id="223" x="1176" y="464" width="136" height="8"/>
  <object id="224" x="88" y="472" width="16" height="8"/>
  <object id="225" x="328" y="472" width="16" height="8"/>
  <object id="226" x="1136" y="472" width="48" height="8"/>
  <object id="227" x="1304" y="472" width="8" height="16"/>
  <object id="228" x="1720" y="472" width="48" height="8"/>
  <object id="229" x="88" y="480" width="8" height="24"/>
  <object id="230" x="336" y="480" width="16" height="16"/>
  <object id="231" x="1088" y="480" width="40" height="8"/>
  <object id="232" x="1176" y="480" width="8" height="8"/>
  <object id="233" x="1312" y="480" width="16" height="8"/>
  <object id="234" x="1416" y="480" width="88" height="8"/>
  <object id="235" x="1720" y="480" width="8" height="16"/>
  <object id="236" x="1760" y="480" width="8" height="72"/>
  <object id="237" x="1088" y="488" width="8" height="104"/>
  <object id="238" x="1320" y="488" width="8" height="104"/>
  <object id="239" x="1416" y="488" width="8" height="176"/>
  <object id="240" x="1496" y="488" width="8" height="24"/>
  <object id="241" x="1712" y="488" width="8" height="24"/>
  <object id="242" x="96" y="496" width="16" height="8"/>
  <object id="243" x="336" y="496" width="8" height="24"/>
  <object id="244" x="104" y="504" width="16" height="8"/>
  <object id="245" x="1504" y="504" width="208" height="8"/>
  <object id="246" x="112" y="512" width="16" height="8"/>
  <object id="247" x="328" y="512" width="8" height="24"/>
  <object id="248" x="120" y="520" width="16" height="8"/>
  <object id="249" x="176" y="520" width="56" height="8"/>
  <object id="250" x="128" y="528" width="56" height="8"/>
  <object id="251" x="224" y="528" width="16" height="8"/>
  <object id="252" x="320" y="528" width="8" height="16"/>
  <object id="253" x="232" y="536" width="88" height="8"/>
  <object id="254" x="1552" y="544" width="80" height="8"/>
  <object id="255" x="1720" y="544" width="40" height="8"/>
  <object id="256" x="1544" y="552" width="16" height="8"/>
  <object id="257" x="1624" y="552" width="16" height="8"/>
  <object id="258" x="1712" y="552" width="16" height="8"/>
  <object id="259" x="1544" y="560" width="8" height="32"/>
  <object id="260" x="1632" y="560" width="8" height="16"/>
  <object id="261" x="1712" y="560" width="8" height="104"/>
  <object id="262" x="1624" y="568" width="8" height="16"/>
  <object id="263" x="1328" y="576" width="32" height="16"/>
  <object id="264" x="1616" y="576" width="8" height="24"/>
  <object id="265" x="1096" y="584" width="224" height="8"/>
  <object id="266" x="1552" y="584" width="64" height="8"/>
  <object id="267" x="1552" y="592" width="16" height="8"/>
  <object id="268" x="1560" y="600" width="8" height="8"/>
  <object id="269" x="96" y="616" width="280" height="8"/>
  <object id="270" x="88" y="624" width="16" height="8"/>
  <object id="271" x="208" y="624" width="8" height="48"/>
  <object id="272" x="320" y="624" width="8" height="16"/>
  <object id="273" x="360" y="624" width="16" height="8"/>
  <object id="274" x="1272" y="624" width="88" height="8"/>
  <object id="275" x="88" y="632" width="8" height="48"/>
  <object id="276" x="328" y="632" width="8" height="56"/>
  <object id="277" x="360" y="632" width="8" height="80"/>
  <object id="278" x="1272" y="632" width="8" height="24"/>
  <object id="279" x="1352" y="632" width="8" height="24"/>
  <object id="280" x="1464" y="632" width="64" height="8"/>
  <object id="281" x="1464" y="640" width="8" height="24"/>
  <object id="282" x="1520" y="640" width="16" height="8"/>
  <object id="283" x="1280" y="648" width="72" height="8"/>
  <object id="284" x="1528" y="648" width="8" height="16"/>
  <object id="285" x="1424" y="656" width="40" height="8"/>
  <object id="286" x="1472" y="656" width="56" height="8"/>
  <object id="287" x="1536" y="656" width="24" height="8"/>
  <object id="288" x="1616" y="656" width="96" height="8"/>
  <object id="289" x="216" y="664" width="24" height="8"/>
  <object id="290" x="1552" y="664" width="8" height="16"/>
  <object id="291" x="1616" y="664" width="8" height="16"/>
  <object id="292" x="96" y="672" width="8" height="56"/>
  <object id="293" x="232" y="672" width="8" height="40"/>
  <object id="294" x="320" y="672" width="8" height="24"/>
  <object id="295" x="1416" y="672" width="136" height="8"/>
  <object id="296" x="1624" y="672" width="296" height="8"/>
  <object id="297" x="1912" y="680" width="8" height="304"/>
  <object id="298" x="296" y="688" width="24" height="8"/>
  <object id="299" x="296" y="696" width="8" height="16"/>
  <object id="300" x="240" y="704" width="16" height="8"/>
  <object id="301" x="288" y="704" width="8" height="24"/>
  <object id="302" x="352" y="704" width="8" height="24"/>
  <object id="303" x="80" y="712" width="16" height="24"/>
  <object id="304" x="248" y="712" width="8" height="16"/>
  <object id="305" x="104" y="720" width="144" height="8"/>
  <object id="306" x="296" y="720" width="56" height="8"/>
  <object id="307" x="1256" y="744" width="312" height="8"/>
  <object id="308" x="1616" y="744" width="216" height="8"/>
  <object id="309" x="504" y="752" width="136" height="8"/>
  <object id="310" x="1256" y="752" width="8" height="192"/>
  <object id="311" x="1560" y="752" width="8" height="96"/>
  <object id="312" x="1616" y="752" width="8" height="16"/>
  <object id="313" x="1824" y="752" width="8" height="24"/>
  <object id="314" x="72" y="760" width="8" height="112"/>
  <object id="315" x="208" y="760" width="304" height="8"/>
  <object id="316" x="632" y="760" width="8" height="160"/>
  <object id="317" x="1624" y="760" width="24" height="8"/>
  <object id="318" x="80" y="768" width="8" height="56"/>
  <object id="319" x="208" y="768" width="8" height="128"/>
  <object id="320" x="1640" y="768" width="8" height="72"/>
  <object id="321" x="1832" y="768" width="16" height="8"/>
  <object id="322" x="688" y="776" width="24" height="8"/>
  <object id="323" x="1840" y="776" width="8" height="32"/>
  <object id="324" x="688" y="784" width="8" height="136"/>
  <object id="325" x="704" y="784" width="8" height="80"/>
  <object id="326" x="968" y="784" width="32" height="8"/>
  <object id="327" x="968" y="792" width="8" height="56"/>
  <object id="328" x="992" y="792" width="8" height="72"/>
  <object id="329" x="1848" y="800" width="8" height="64"/>
  <object id="330" x="88" y="816" width="88" height="8"/>
  <object id="331" x="168" y="824" width="8" height="96"/>
  <object id="332" x="1032" y="824" width="48" height="8"/>
  <object id="333" x="1032" y="832" width="8" height="104"/>
  <object id="334" x="1072" y="832" width="24" height="8"/>
  <object id="335" x="1528" y="832" width="8" height="64"/>
  <object id="336" x="1648" y="832" width="16" height="8"/>
  <object id="337" x="960" y="840" width="8" height="32"/>
  <object id="338" x="1088" y="840" width="8" height="104"/>
  <object id="339" x="1536" y="840" width="24" height="8"/>
  <object id="340" x="1656" y="840" width="8" height="64"/>
  <object id="341" x="696" y="848" width="8" height="72"/>
  <object id="342" x="968" y="856" width="24" height="8"/>
  <object id="343" x="1856" y="856" width="8" height="128"/>
  <object id="344" x="64" y="864" width="8" height="104"/>
  <object id="345" x="968" y="864" width="8" height="8"/>
  <object id="346" x="216" y="888" width="296" height="8"/>
  <object id="347" x="1536" y="888" width="8" height="48"/>
  <object id="348" x="1592" y="888" width="64" height="8"/>
  <object id="349" x="504" y="896" width="8" height="48"/>
  <object id="350" x="976" y="896" width="24" height="8"/>
  <object id="351" x="1592" y="896" width="8" height="56"/>
  <object id="352" x="968" y="904" width="16" height="8"/>
  <object id="353" x="992" y="904" width="8" height="32"/>
  <object id="354" x="72" y="912" width="96" height="8"/>
  <object id="355" x="640" y="912" width="48" height="8"/>
  <object id="356" x="704" y="912" width="16" height="8"/>
  <object id="357" x="952" y="912" width="24" height="8"/>
  <object id="358" x="72" y="920" width="8" height="48"/>
  <object id="359" x="712" y="920" width="248" height="8"/>
  <object id="360" x="1000" y="928" width="32" height="8"/>
  <object id="361" x="1544" y="928" width="16" height="8"/>
  <object id="362" x="496" y="936" width="8" height="72"/>
  <object id="363" x="1096" y="936" width="160" height="8"/>
  <object id="364" x="1552" y="936" width="8" height="16"/>
  <object id="365" x="1544" y="944" width="8" height="8"/>
  <object id="366" x="1560" y="944" width="32" height="8"/>
  <object id="367" x="1864" y="976" width="48" height="8"/>
  <object id="368" x="24" y="1000" width="472" height="8"/>
 </objectgroup>
 <objectgroup id="388" name="overhead">
  <object id="369" x="262" y="94" width="332" height="164"><properties><property name="mask" value="mask_000.png"/><property name="baseline" value="356"/></properties></object>
  <object id="370" x="1166" y="326" width="140" height="148"><properties><property name="mask" value="mask_001.png"/></properties></object>
  <object id="371" x="94" y="390" width="236" height="84"><properties><property name="mask" value="mask_002.png"/></properties></object>
  <object id="372" x="1414" y="390" width="348" height="52"><properties><property name="mask" value="mask_003.png"/></properties></object>
  <object id="373" x="142" y="574" width="236" height="52"><properties><property name="mask" value="mask_004.png"/></properties></object>
  <object id="374" x="1334" y="590" width="28" height="36"><properties><property name="mask" value="mask_005.png"/></properties></object>
  <object id="375" x="102" y="606" width="20" height="12"><properties><property name="mask" value="mask_006.png"/></properties></object>
  <object id="376" x="1278" y="614" width="44" height="12"><properties><property name="mask" value="mask_007.png"/></properties></object>
  <object id="377" x="510" y="638" width="132" height="132"><properties><property name="mask" value="mask_008.png"/></properties></object>
  <object id="378" x="1614" y="694" width="220" height="60"><properties><property name="mask" value="mask_009.png"/></properties></object>
  <object id="379" x="1254" y="702" width="316" height="52"><properties><property name="mask" value="mask_010.png"/></properties></object>
  <object id="380" x="22" y="910" width="476" height="108"><properties><property name="mask" value="mask_011.png"/></properties></object>
 </objectgroup>
 <objectgroup id="389" name="baseline">
  <object id="385" x="273" y="356"><polyline points="0,0 299,0"/></object>
 </objectgroup>
 <objectgroup id="390" name="spawn">
  <object id="381" name="player" x="835" y="889"><point/></object>
  <object id="382" name="sasu" x="1141" y="229"><point/></object>
  <object id="383" name="teamjang" x="388" y="492"><point/></object>
  <object id="384" name="bujang" x="1228" y="621"><point/></object>
 </objectgroup>
</map>
