<?xml version="1.0" encoding="UTF-8"?>
<map version="1.10" tiledversion="1.12.2" orientation="orthogonal" renderorder="right-down" width="240" height="135" tilewidth="8" tileheight="8" infinite="0" nextlayerid="99" nextobjectid="500">
 <imagelayer id="90" name="background">
  <image source="hr-01.png" width="1920" height="1080"/>
 </imagelayer>
 <objectgroup id="499" name="walkable">
  <object id="1" x="400" y="96" width="144" height="128"/>
  <object id="2" x="1088" y="96" width="176" height="24"/>
  <object id="3" x="1352" y="96" width="472" height="64"/>
  <object id="4" x="624" y="104" width="112" height="48"/>
  <object id="5" x="904" y="104" width="168" height="48"/>
  <object id="6" x="344" y="112" width="32" height="176"/>
  <object id="7" x="736" y="112" width="168" height="40"/>
  <object id="8" x="1088" y="120" width="72" height="8"/>
  <object id="9" x="1200" y="120" width="72" height="8"/>
  <object id="10" x="576" y="128" width="48" height="368"/>
  <object id="11" x="1088" y="128" width="64" height="8"/>
  <object id="12" x="1216" y="128" width="96" height="24"/>
  <object id="13" x="1088" y="136" width="56" height="16"/>
  <object id="14" x="1824" y="136" width="56" height="248"/>
  <object id="15" x="376" y="144" width="24" height="80"/>
  <object id="16" x="824" y="152" width="40" height="344"/>
  <object id="17" x="1056" y="152" width="16" height="320"/>
  <object id="18" x="1088" y="152" width="32" height="176"/>
  <object id="19" x="1240" y="152" width="72" height="8"/>
  <object id="20" x="1248" y="160" width="64" height="296"/>
  <object id="21" x="1352" y="160" width="112" height="24"/>
  <object id="22" x="1760" y="160" width="64" height="24"/>
  <object id="23" x="32" y="176" width="232" height="112"/>
  <object id="24" x="264" y="184" width="80" height="104"/>
  <object id="25" x="1352" y="184" width="80" height="120"/>
  <object id="26" x="1760" y="184" width="32" height="8"/>
  <object id="27" x="1800" y="184" width="24" height="200"/>
  <object id="28" x="376" y="224" width="8" height="64"/>
  <object id="29" x="424" y="224" width="120" height="856"/>
  <object id="30" x="544" y="256" width="32" height="240"/>
  <object id="31" x="1432" y="256" width="32" height="488"/>
  <object id="32" x="1768" y="256" width="32" height="128"/>
  <object id="33" x="1120" y="264" width="16" height="64"/>
  <object id="34" x="1216" y="264" width="32" height="192"/>
  <object id="35" x="1136" y="272" width="8" height="56"/>
  <object id="36" x="1760" y="272" width="8" height="112"/>
  <object id="37" x="1464" y="280" width="8" height="472"/>
  <object id="38" x="200" y="288" width="88" height="56"/>
  <object id="39" x="1144" y="288" width="72" height="168"/>
  <object id="40" x="624" y="296" width="24" height="200"/>
  <object id="41" x="800" y="296" width="24" height="200"/>
  <object id="42" x="1472" y="296" width="16" height="464"/>
  <object id="43" x="1744" y="296" width="16" height="88"/>
  <object id="44" x="696" y="304" width="64" height="192"/>
  <object id="45" x="864" y="304" width="24" height="192"/>
  <object id="46" x="936" y="304" width="56" height="320"/>
  <object id="47" x="1032" y="304" width="24" height="320"/>
  <object id="48" x="1360" y="304" width="72" height="8"/>
  <object id="49" x="88" y="312" width="112" height="40"/>
  <object id="50" x="288" y="312" width="80" height="40"/>
  <object id="51" x="648" y="312" width="48" height="184"/>
  <object id="52" x="760" y="312" width="40" height="184"/>
  <object id="53" x="888" y="312" width="48" height="184"/>
  <object id="54" x="992" y="312" width="40" height="392"/>
  <object id="55" x="1368" y="312" width="64" height="8"/>
  <object id="56" x="1376" y="320" width="56" height="8"/>
  <object id="57" x="1392" y="328" width="40" height="8"/>
  <object id="58" x="1488" y="328" width="256" height="56"/>
  <object id="59" x="368" y="336" width="48" height="24"/>
  <object id="60" x="1072" y="336" width="72" height="120"/>
  <object id="61" x="1416" y="336" width="16" height="528"/>
  <object id="62" x="200" y="344" width="16" height="8"/>
  <object id="63" x="248" y="344" width="40" height="8"/>
  <object id="64" x="80" y="352" width="64" height="32"/>
  <object id="65" x="328" y="352" width="40" height="40"/>
  <object id="66" x="1312" y="352" width="32" height="120"/>
  <object id="67" x="368" y="360" width="8" height="32"/>
  <object id="68" x="1344" y="360" width="8" height="720"/>
  <object id="69" x="1352" y="368" width="8" height="488"/>
  <object id="70" x="1360" y="376" width="8" height="480"/>
  <object id="71" x="112" y="384" width="32" height="8"/>
  <object id="72" x="1368" y="384" width="8" height="472"/>
  <object id="73" x="1488" y="384" width="192" height="72"/>
  <object id="74" x="1376" y="392" width="40" height="464"/>
  <object id="75" x="1680" y="392" width="64" height="80"/>
  <object id="76" x="1744" y="408" width="136" height="64"/>
  <object id="77" x="32" y="448" width="392" height="32"/>
  <object id="78" x="1072" y="456" width="24" height="16"/>
  <object id="79" x="1304" y="456" width="8" height="16"/>
  <object id="80" x="1488" y="456" width="24" height="312"/>
  <object id="81" x="1536" y="456" width="144" height="16"/>
  <object id="82" x="1056" y="472" width="8" height="152"/>
  <object id="83" x="1336" y="472" width="8" height="608"/>
  <object id="84" x="1544" y="472" width="32" height="88"/>
  <object id="85" x="1664" y="472" width="40" height="8"/>
  <object id="86" x="1776" y="472" width="104" height="8"/>
  <object id="87" x="32" y="480" width="200" height="16"/>
  <object id="88" x="272" y="480" width="152" height="16"/>
  <object id="89" x="1664" y="480" width="32" height="80"/>
  <object id="90" x="1776" y="480" width="48" height="24"/>
  <object id="91" x="32" y="496" width="56" height="184"/>
  <object id="92" x="320" y="496" width="104" height="248"/>
  <object id="93" x="544" y="496" width="24" height="296"/>
  <object id="94" x="848" y="496" width="32" height="240"/>
  <object id="95" x="920" y="496" width="16" height="128"/>
  <object id="96" x="1784" y="504" width="40" height="56"/>
  <object id="97" x="1656" y="528" width="8" height="32"/>
  <object id="98" x="1696" y="528" width="8" height="32"/>
  <object id="99" x="1064" y="552" width="24" height="72"/>
  <object id="100" x="1304" y="552" width="32" height="528"/>
  <object id="101" x="640" y="576" width="16" height="88"/>
  <object id="102" x="824" y="576" width="24" height="160"/>
  <object id="103" x="880" y="576" width="16" height="168"/>
  <object id="104" x="1088" y="584" width="24" height="40"/>
  <object id="105" x="1288" y="584" width="16" height="496"/>
  <object id="106" x="656" y="592" width="168" height="72"/>
  <object id="107" x="1136" y="608" width="152" height="232"/>
  <object id="108" x="88" y="624" width="8" height="48"/>
  <object id="109" x="600" y="624" width="40" height="200"/>
  <object id="110" x="976" y="624" width="16" height="80"/>
  <object id="111" x="1032" y="624" width="16" height="80"/>
  <object id="112" x="96" y="632" width="224" height="40"/>
  <object id="113" x="1776" y="656" width="24" height="208"/>
  <object id="114" x="640" y="664" width="8" height="176"/>
  <object id="115" x="816" y="664" width="8" height="72"/>
  <object id="116" x="928" y="664" width="48" height="64"/>
  <object id="117" x="1048" y="664" width="64" height="64"/>
  <object id="118" x="1800" y="664" width="8" height="200"/>
  <object id="119" x="272" y="672" width="48" height="8"/>
  <object id="120" x="1512" y="672" width="8" height="192"/>
  <object id="121" x="32" y="680" width="48" height="120"/>
  <object id="122" x="280" y="680" width="40" height="64"/>
  <object id="123" x="896" y="680" width="8" height="64"/>
  <object id="124" x="1808" y="696" width="24" height="168"/>
  <object id="125" x="976" y="704" width="8" height="24"/>
  <object id="126" x="1520" y="704" width="256" height="24"/>
  <object id="127" x="928" y="728" width="32" height="112"/>
  <object id="128" x="1080" y="728" width="32" height="112"/>
  <object id="129" x="1520" y="728" width="80" height="64"/>
  <object id="130" x="1760" y="728" width="16" height="136"/>
  <object id="131" x="80" y="736" width="200" height="16"/>
  <object id="132" x="864" y="736" width="16" height="8"/>
  <object id="133" x="280" y="744" width="32" height="24"/>
  <object id="134" x="344" y="744" width="80" height="16"/>
  <object id="135" x="1432" y="744" width="24" height="8"/>
  <object id="136" x="80" y="752" width="48" height="96"/>
  <object id="137" x="256" y="752" width="24" height="96"/>
  <object id="138" x="1432" y="752" width="16" height="8"/>
  <object id="139" x="360" y="760" width="64" height="24"/>
  <object id="140" x="1432" y="760" width="8" height="104"/>
  <object id="141" x="1480" y="760" width="8" height="8"/>
  <object id="142" x="280" y="768" width="16" height="72"/>
  <object id="143" x="648" y="768" width="168" height="72"/>
  <object id="144" x="1504" y="768" width="8" height="24"/>
  <object id="145" x="368" y="784" width="56" height="8"/>
  <object id="146" x="384" y="792" width="40" height="288"/>
  <object id="147" x="544" y="792" width="16" height="288"/>
  <object id="148" x="1520" y="792" width="16" height="72"/>
  <object id="149" x="296" y="800" width="16" height="40"/>
  <object id="150" x="960" y="800" width="24" height="48"/>
  <object id="151" x="1048" y="800" width="32" height="48"/>
  <object id="152" x="1440" y="800" width="8" height="64"/>
  <object id="153" x="592" y="808" width="8" height="16"/>
  <object id="154" x="1504" y="808" width="8" height="56"/>
  <object id="155" x="128" y="816" width="128" height="32"/>
  <object id="156" x="816" y="816" width="32" height="32"/>
  <object id="157" x="984" y="816" width="64" height="32"/>
  <object id="158" x="1496" y="816" width="8" height="48"/>
  <object id="159" x="848" y="824" width="48" height="24"/>
  <object id="160" x="1448" y="824" width="24" height="40"/>
  <object id="161" x="1488" y="824" width="8" height="40"/>
  <object id="162" x="1472" y="832" width="16" height="32"/>
  <object id="163" x="280" y="840" width="8" height="8"/>
  <object id="164" x="656" y="840" width="160" height="8"/>
  <object id="165" x="936" y="840" width="24" height="8"/>
  <object id="166" x="1080" y="840" width="16" height="8"/>
  <object id="167" x="1144" y="840" width="144" height="240"/>
  <object id="168" x="1384" y="856" width="32" height="8"/>
  <object id="169" x="1056" y="912" width="24" height="24"/>
  <object id="170" x="344" y="920" width="40" height="160"/>
  <object id="171" x="1080" y="920" width="64" height="8"/>
  <object id="172" x="1080" y="928" width="16" height="152"/>
  <object id="173" x="1120" y="928" width="24" height="152"/>
  <object id="174" x="1352" y="928" width="8" height="152"/>
  <object id="175" x="1072" y="936" width="8" height="144"/>
  <object id="176" x="296" y="984" width="48" height="96"/>
  <object id="177" x="1096" y="984" width="24" height="96"/>
  <object id="178" x="1360" y="984" width="40" height="96"/>
  <object id="179" x="696" y="1000" width="240" height="80"/>
  <object id="180" x="1400" y="1008" width="264" height="72"/>
  <object id="181" x="0" y="1056" width="296" height="24"/>
  <object id="182" x="560" y="1056" width="136" height="24"/>
  <object id="183" x="936" y="1056" width="136" height="24"/>
  <object id="184" x="1664" y="1056" width="256" height="24"/>
 </objectgroup>
 <objectgroup id="500" name="collision">
  <object id="185" x="1072" y="56" width="16" height="280"/>
  <object id="186" x="1088" y="72" width="200" height="24"/>
  <object id="187" x="1328" y="72" width="520" height="24"/>
  <object id="188" x="384" y="80" width="176" height="16"/>
  <object id="189" x="608" y="88" width="144" height="16"/>
  <object id="190" x="888" y="88" width="184" height="16"/>
  <object id="191" x="328" y="96" width="72" height="16"/>
  <object id="192" x="544" y="96" width="16" height="160"/>
  <object id="193" x="752" y="96" width="136" height="16"/>
  <object id="194" x="1264" y="96" width="24" height="32"/>
  <object id="195" x="1328" y="96" width="24" height="256"/>
  <object id="196" x="1824" y="96" width="24" height="40"/>
  <object id="197" x="1880" y="96" width="24" height="408"/>
  <object id="198" x="608" y="104" width="16" height="24"/>
  <object id="199" x="736" y="104" width="16" height="8"/>
  <object id="200" x="888" y="104" width="16" height="8"/>
  <object id="201" x="1288" y="104" width="40" height="24"/>
  <object id="202" x="328" y="112" width="16" height="72"/>
  <object id="203" x="376" y="112" width="24" height="32"/>
  <object id="204" x="560" y="112" width="48" height="16"/>
  <object id="205" x="1848" y="112" width="32" height="24"/>
  <object id="206" x="1160" y="120" width="40" height="16"/>
  <object id="207" x="560" y="128" width="16" height="128"/>
  <object id="208" x="1152" y="128" width="8" height="40"/>
  <object id="209" x="1200" y="128" width="16" height="40"/>
  <object id="210" x="1312" y="128" width="16" height="224"/>
  <object id="211" x="1144" y="136" width="8" height="32"/>
  <object id="212" x="1160" y="136" width="16" height="8"/>
  <object id="213" x="1184" y="136" width="16" height="8"/>
  <object id="214" x="1160" y="144" width="8" height="8"/>
  <object id="215" x="624" y="152" width="200" height="16"/>
  <object id="216" x="864" y="152" width="192" height="16"/>
  <object id="217" x="1120" y="152" width="24" height="16"/>
  <object id="218" x="1216" y="152" width="24" height="24"/>
  <object id="219" x="16" y="160" width="264" height="16"/>
  <object id="220" x="1240" y="160" width="8" height="104"/>
  <object id="221" x="1464" y="160" width="296" height="16"/>
  <object id="222" x="280" y="168" width="48" height="16"/>
  <object id="223" x="624" y="168" width="16" height="128"/>
  <object id="224" x="808" y="168" width="16" height="128"/>
  <object id="225" x="864" y="168" width="16" height="136"/>
  <object id="226" x="1040" y="168" width="16" height="136"/>
  <object id="227" x="1120" y="168" width="16" height="96"/>
  <object id="228" x="16" y="176" width="16" height="128"/>
  <object id="229" x="264" y="176" width="16" height="8"/>
  <object id="230" x="1232" y="176" width="8" height="88"/>
  <object id="231" x="1464" y="176" width="16" height="24"/>
  <object id="232" x="1744" y="176" width="16" height="32"/>
  <object id="233" x="1432" y="184" width="32" height="16"/>
  <object id="234" x="1480" y="184" width="8" height="16"/>
  <object id="235" x="1784" y="184" width="16" height="72"/>
  <object id="236" x="1760" y="192" width="24" height="16"/>
  <object id="237" x="1432" y="200" width="16" height="56"/>
  <object id="238" x="384" y="224" width="40" height="16"/>
  <object id="239" x="384" y="240" width="16" height="72"/>
  <object id="240" x="408" y="240" width="16" height="208"/>
  <object id="241" x="1448" y="240" width="32" height="16"/>
  <object id="242" x="1752" y="240" width="32" height="16"/>
  <object id="243" x="1200" y="248" width="32" height="16"/>
  <object id="244" x="1136" y="256" width="32" height="16"/>
  <object id="245" x="1464" y="256" width="16" height="24"/>
  <object id="246" x="1736" y="256" width="32" height="16"/>
  <object id="247" x="400" y="264" width="8" height="32"/>
  <object id="248" x="1200" y="264" width="16" height="24"/>
  <object id="249" x="1480" y="264" width="8" height="32"/>
  <object id="250" x="1144" y="272" width="56" height="16"/>
  <object id="251" x="1744" y="272" width="16" height="24"/>
  <object id="252" x="640" y="280" width="24" height="16"/>
  <object id="253" x="784" y="280" width="24" height="16"/>
  <object id="254" x="1472" y="280" width="8" height="16"/>
  <object id="255" x="1488" y="280" width="16" height="48"/>
  <object id="256" x="1720" y="280" width="24" height="24"/>
  <object id="257" x="32" y="288" width="168" height="16"/>
  <object id="258" x="288" y="288" width="96" height="24"/>
  <object id="259" x="680" y="288" width="104" height="16"/>
  <object id="260" x="880" y="288" width="8" height="16"/>
  <object id="261" x="920" y="288" width="120" height="16"/>
  <object id="262" x="648" y="296" width="32" height="16"/>
  <object id="263" x="784" y="296" width="16" height="16"/>
  <object id="264" x="888" y="296" width="32" height="16"/>
  <object id="265" x="64" y="304" width="136" height="8"/>
  <object id="266" x="680" y="304" width="16" height="8"/>
  <object id="267" x="760" y="304" width="24" height="8"/>
  <object id="268" x="920" y="304" width="16" height="8"/>
  <object id="269" x="992" y="304" width="40" height="8"/>
  <object id="270" x="1352" y="304" width="8" height="64"/>
  <object id="271" x="1728" y="304" width="16" height="24"/>
  <object id="272" x="72" y="312" width="16" height="40"/>
  <object id="273" x="368" y="312" width="16" height="24"/>
  <object id="274" x="1360" y="312" width="8" height="64"/>
  <object id="275" x="1504" y="312" width="224" height="16"/>
  <object id="276" x="384" y="320" width="24" height="16"/>
  <object id="277" x="1088" y="320" width="56" height="16"/>
  <object id="278" x="1368" y="320" width="8" height="64"/>
  <object id="279" x="1376" y="328" width="16" height="64"/>
  <object id="280" x="56" y="336" width="16" height="16"/>
  <object id="281" x="1392" y="336" width="24" height="56"/>
  <object id="282" x="64" y="352" width="16" height="48"/>
  <object id="283" x="144" y="352" width="184" height="16"/>
  <object id="284" x="1344" y="352" width="8" height="8"/>
  <object id="285" x="376" y="360" width="32" height="16"/>
  <object id="286" x="144" y="368" width="16" height="40"/>
  <object id="287" x="312" y="368" width="16" height="40"/>
  <object id="288" x="160" y="376" width="152" height="32"/>
  <object id="289" x="376" y="376" width="16" height="32"/>
  <object id="290" x="80" y="384" width="32" height="16"/>
  <object id="291" x="1680" y="384" width="200" height="8"/>
  <object id="292" x="112" y="392" width="32" height="16"/>
  <object id="293" x="328" y="392" width="48" height="16"/>
  <object id="294" x="392" y="392" width="8" height="16"/>
  <object id="295" x="1744" y="392" width="136" height="16"/>
  <object id="296" x="96" y="400" width="16" height="16"/>
  <object id="297" x="16" y="424" width="16" height="400"/>
  <object id="298" x="32" y="432" width="376" height="16"/>
  <object id="299" x="1088" y="456" width="216" height="24"/>
  <object id="300" x="1512" y="456" width="24" height="216"/>
  <object id="301" x="1064" y="472" width="24" height="80"/>
  <object id="302" x="1304" y="472" width="32" height="24"/>
  <object id="303" x="1536" y="472" width="8" height="112"/>
  <object id="304" x="1576" y="472" width="88" height="24"/>
  <object id="305" x="1704" y="472" width="72" height="24"/>
  <object id="306" x="232" y="480" width="40" height="32"/>
  <object id="307" x="1088" y="480" width="32" height="16"/>
  <object id="308" x="1272" y="480" width="32" height="16"/>
  <object id="309" x="1696" y="480" width="8" height="48"/>
  <object id="310" x="1824" y="480" width="56" height="24"/>
  <object id="311" x="88" y="496" width="144" height="16"/>
  <object id="312" x="272" y="496" width="48" height="16"/>
  <object id="313" x="568" y="496" width="280" height="80"/>
  <object id="314" x="880" y="496" width="40" height="80"/>
  <object id="315" x="1312" y="496" width="24" height="56"/>
  <object id="316" x="1576" y="496" width="24" height="88"/>
  <object id="317" x="1640" y="496" width="24" height="32"/>
  <object id="318" x="1704" y="496" width="32" height="8"/>
  <object id="319" x="1752" y="496" width="24" height="32"/>
  <object id="320" x="1616" y="504" width="24" height="24"/>
  <object id="321" x="1704" y="504" width="24" height="80"/>
  <object id="322" x="1776" y="504" width="8" height="80"/>
  <object id="323" x="1824" y="504" width="24" height="80"/>
  <object id="324" x="88" y="512" width="16" height="112"/>
  <object id="325" x="304" y="512" width="16" height="120"/>
  <object id="326" x="1088" y="528" width="24" height="56"/>
  <object id="327" x="1280" y="528" width="32" height="24"/>
  <object id="328" x="1632" y="528" width="24" height="56"/>
  <object id="329" x="1760" y="528" width="16" height="56"/>
  <object id="330" x="1280" y="552" width="24" height="32"/>
  <object id="331" x="1112" y="560" width="32" height="48"/>
  <object id="332" x="1264" y="560" width="16" height="48"/>
  <object id="333" x="1544" y="560" width="32" height="24"/>
  <object id="334" x="1600" y="560" width="16" height="24"/>
  <object id="335" x="1656" y="560" width="48" height="24"/>
  <object id="336" x="1728" y="560" width="8" height="24"/>
  <object id="337" x="1784" y="560" width="40" height="24"/>
  <object id="338" x="1848" y="560" width="16" height="24"/>
  <object id="339" x="568" y="576" width="72" height="48"/>
  <object id="340" x="656" y="576" width="168" height="16"/>
  <object id="341" x="896" y="576" width="24" height="104"/>
  <object id="342" x="1144" y="584" width="120" height="24"/>
  <object id="343" x="1280" y="584" width="8" height="24"/>
  <object id="344" x="104" y="600" width="200" height="32"/>
  <object id="345" x="1112" y="608" width="24" height="8"/>
  <object id="346" x="96" y="624" width="8" height="8"/>
  <object id="347" x="568" y="624" width="32" height="184"/>
  <object id="348" x="920" y="624" width="56" height="40"/>
  <object id="349" x="1048" y="624" width="88" height="40"/>
  <object id="350" x="1752" y="632" width="72" height="24"/>
  <object id="351" x="1824" y="640" width="8" height="56"/>
  <object id="352" x="1536" y="648" width="8" height="56"/>
  <object id="353" x="1752" y="656" width="24" height="48"/>
  <object id="354" x="1800" y="656" width="24" height="8"/>
  <object id="355" x="648" y="664" width="168" height="24"/>
  <object id="356" x="920" y="664" width="8" height="216"/>
  <object id="357" x="1112" y="664" width="24" height="256"/>
  <object id="358" x="1808" y="664" width="16" height="32"/>
  <object id="359" x="88" y="672" width="184" height="16"/>
  <object id="360" x="1520" y="672" width="16" height="32"/>
  <object id="361" x="1832" y="672" width="24" height="216"/>
  <object id="362" x="80" y="680" width="8" height="56"/>
  <object id="363" x="272" y="680" width="8" height="56"/>
  <object id="364" x="904" y="680" width="16" height="200"/>
  <object id="365" x="1544" y="680" width="208" height="24"/>
  <object id="366" x="88" y="688" width="16" height="8"/>
  <object id="367" x="256" y="688" width="16" height="8"/>
  <object id="368" x="648" y="688" width="24" height="80"/>
  <object id="369" x="792" y="688" width="24" height="80"/>
  <object id="370" x="88" y="696" width="8" height="40"/>
  <object id="371" x="264" y="696" width="8" height="40"/>
  <object id="372" x="984" y="704" width="64" height="16"/>
  <object id="373" x="96" y="720" width="168" height="16"/>
  <object id="374" x="984" y="720" width="16" height="24"/>
  <object id="375" x="1032" y="720" width="16" height="24"/>
  <object id="376" x="960" y="728" width="24" height="16"/>
  <object id="377" x="1024" y="728" width="8" height="16"/>
  <object id="378" x="1048" y="728" width="32" height="16"/>
  <object id="379" x="1600" y="728" width="160" height="16"/>
  <object id="380" x="816" y="736" width="48" height="40"/>
  <object id="381" x="312" y="744" width="32" height="32"/>
  <object id="382" x="672" y="744" width="120" height="24"/>
  <object id="383" x="864" y="744" width="40" height="24"/>
  <object id="384" x="960" y="744" width="16" height="56"/>
  <object id="385" x="1064" y="744" width="16" height="56"/>
  <object id="386" x="1456" y="744" width="16" height="32"/>
  <object id="387" x="1600" y="744" width="16" height="64"/>
  <object id="388" x="1744" y="744" width="16" height="144"/>
  <object id="389" x="128" y="752" width="128" height="16"/>
  <object id="390" x="1448" y="752" width="8" height="72"/>
  <object id="391" x="344" y="760" width="16" height="48"/>
  <object id="392" x="1440" y="760" width="8" height="40"/>
  <object id="393" x="1472" y="760" width="8" height="24"/>
  <object id="394" x="128" y="768" width="16" height="48"/>
  <object id="395" x="240" y="768" width="16" height="48"/>
  <object id="396" x="296" y="768" width="16" height="32"/>
  <object id="397" x="864" y="768" width="8" height="8"/>
  <object id="398" x="880" y="768" width="24" height="56"/>
  <object id="399" x="1480" y="768" width="24" height="16"/>
  <object id="400" x="312" y="776" width="16" height="80"/>
  <object id="401" x="816" y="776" width="24" height="40"/>
  <object id="402" x="1464" y="776" width="8" height="8"/>
  <object id="403" x="360" y="784" width="8" height="24"/>
  <object id="404" x="976" y="784" width="24" height="16"/>
  <object id="405" x="1032" y="784" width="32" height="16"/>
  <object id="406" x="1456" y="784" width="8" height="40"/>
  <object id="407" x="1488" y="784" width="16" height="32"/>
  <object id="408" x="368" y="792" width="16" height="128"/>
  <object id="409" x="560" y="792" width="8" height="288"/>
  <object id="410" x="840" y="792" width="40" height="24"/>
  <object id="411" x="1504" y="792" width="8" height="16"/>
  <object id="412" x="1536" y="792" width="64" height="16"/>
  <object id="413" x="32" y="800" width="48" height="16"/>
  <object id="414" x="144" y="800" width="96" height="16"/>
  <object id="415" x="984" y="800" width="64" height="16"/>
  <object id="416" x="1480" y="800" width="8" height="32"/>
  <object id="417" x="0" y="808" width="16" height="248"/>
  <object id="418" x="568" y="808" width="24" height="248"/>
  <object id="419" x="1464" y="808" width="16" height="16"/>
  <object id="420" x="1536" y="808" width="16" height="80"/>
  <object id="421" x="64" y="816" width="16" height="48"/>
  <object id="422" x="848" y="816" width="32" height="8"/>
  <object id="423" x="1488" y="816" width="8" height="8"/>
  <object id="424" x="592" y="824" width="48" height="48"/>
  <object id="425" x="896" y="824" width="8" height="56"/>
  <object id="426" x="1472" y="824" width="8" height="8"/>
  <object id="427" x="288" y="840" width="24" height="24"/>
  <object id="428" x="328" y="840" width="8" height="16"/>
  <object id="429" x="640" y="840" width="16" height="24"/>
  <object id="430" x="928" y="840" width="8" height="40"/>
  <object id="431" x="1096" y="840" width="16" height="80"/>
  <object id="432" x="1136" y="840" width="8" height="80"/>
  <object id="433" x="80" y="848" width="208" height="16"/>
  <object id="434" x="656" y="848" width="240" height="16"/>
  <object id="435" x="936" y="848" width="160" height="32"/>
  <object id="436" x="1552" y="848" width="192" height="40"/>
  <object id="437" x="1352" y="856" width="32" height="32"/>
  <object id="438" x="1384" y="864" width="152" height="24"/>
  <object id="439" x="1760" y="864" width="72" height="24"/>
  <object id="440" x="1856" y="864" width="64" height="24"/>
  <object id="441" x="1024" y="880" width="72" height="32"/>
  <object id="442" x="1016" y="888" width="8" height="48"/>
  <object id="443" x="1352" y="888" width="24" height="40"/>
  <object id="444" x="328" y="904" width="40" height="16"/>
  <object id="445" x="1376" y="904" width="8" height="80"/>
  <object id="446" x="1024" y="912" width="32" height="56"/>
  <object id="447" x="1080" y="912" width="16" height="8"/>
  <object id="448" x="328" y="920" width="16" height="64"/>
  <object id="449" x="1096" y="928" width="24" height="56"/>
  <object id="450" x="1360" y="928" width="16" height="56"/>
  <object id="451" x="1056" y="936" width="16" height="120"/>
  <object id="452" x="1384" y="952" width="304" height="24"/>
  <object id="453" x="280" y="968" width="48" height="16"/>
  <object id="454" x="664" y="968" width="304" height="32"/>
  <object id="455" x="1040" y="968" width="16" height="88"/>
  <object id="456" x="1384" y="976" width="48" height="8"/>
  <object id="457" x="1664" y="976" width="24" height="104"/>
  <object id="458" x="280" y="984" width="16" height="72"/>
  <object id="459" x="1400" y="984" width="264" height="24"/>
  <object id="460" x="1688" y="984" width="8" height="24"/>
  <object id="461" x="664" y="1000" width="32" height="56"/>
  <object id="462" x="936" y="1000" width="32" height="56"/>
  <object id="463" x="592" y="1024" width="72" height="32"/>
  <object id="464" x="968" y="1024" width="72" height="32"/>
  <object id="465" x="1688" y="1032" width="232" height="24"/>
  <object id="466" x="16" y="1040" width="264" height="16"/>
  <object id="467" x="296" y="1040" width="264" height="40"/>
  <object id="468" x="1072" y="1040" width="592" height="40"/>
  <object id="469" x="288" y="1056" width="8" height="24"/>
  <object id="470" x="568" y="1056" width="16" height="24"/>
  <object id="471" x="1688" y="1056" width="8" height="24"/>
 </objectgroup>
 <objectgroup id="501" name="overhead">
  <object id="472" x="646" y="126" width="44" height="36"><properties><property name="mask" value="mask_000.png"/></properties></object>
  <object id="473" x="718" y="126" width="20" height="36"><properties><property name="mask" value="mask_001.png"/></properties></object>
  <object id="474" x="758" y="126" width="52" height="36"><properties><property name="mask" value="mask_002.png"/></properties></object>
  <object id="475" x="958" y="126" width="12" height="36"><properties><property name="mask" value="mask_003.png"/></properties></object>
  <object id="476" x="990" y="126" width="44" height="36"><properties><property name="mask" value="mask_004.png"/></properties></object>
  <object id="477" x="1486" y="126" width="52" height="44"><properties><property name="mask" value="mask_005.png"/></properties></object>
  <object id="478" x="1558" y="126" width="52" height="44"><properties><property name="mask" value="mask_006.png"/></properties></object>
  <object id="479" x="1630" y="126" width="116" height="44"><properties><property name="mask" value="mask_007.png"/></properties></object>
  <object id="480" x="886" y="134" width="52" height="28"><properties><property name="mask" value="mask_008.png"/></properties></object>
  <object id="481" x="30" y="246" width="172" height="68"><properties><property name="mask" value="mask_009.png"/></properties></object>
  <object id="482" x="286" y="246" width="100" height="68"><properties><property name="mask" value="mask_010.png"/></properties></object>
  <object id="483" x="1078" y="278" width="68" height="60"><properties><property name="mask" value="mask_011.png"/></properties></object>
  <object id="484" x="142" y="326" width="52" height="44"><properties><property name="mask" value="mask_012.png"/></properties></object>
  <object id="485" x="270" y="326" width="60" height="36"><properties><property name="mask" value="mask_013.png"/></properties></object>
  <object id="486" x="1678" y="334" width="204" height="52"><properties><property name="mask" value="mask_014.png"/></properties></object>
  <object id="487" x="1110" y="422" width="44" height="44"><properties><property name="mask" value="mask_015.png"/></properties></object>
  <object id="488" x="1182" y="422" width="44" height="44"><properties><property name="mask" value="mask_016.png"/></properties></object>
  <object id="489" x="1246" y="422" width="44" height="44"><properties><property name="mask" value="mask_017.png"/></properties></object>
  <object id="490" x="1822" y="454" width="52" height="28"><properties><property name="mask" value="mask_018.png"/></properties></object>
  <object id="491" x="1590" y="462" width="52" height="20"><properties><property name="mask" value="mask_019.png"/></properties></object>
  <object id="492" x="1702" y="462" width="60" height="20"><properties><property name="mask" value="mask_020.png"/></properties></object>
  <object id="493" x="694" y="614" width="68" height="60"><properties><property name="mask" value="mask_021.png"/></properties></object>
  <object id="494" x="1598" y="718" width="164" height="20"><properties><property name="mask" value="mask_022.png"/></properties></object>
 </objectgroup>
 <objectgroup id="502" name="spawn">
  <object id="495" name="player" x="464" y="938"><point/></object>
  <object id="496" name="teamjang" x="97" y="204"><point/></object>
  <object id="497" name="sasu" x="1013" y="662"><point/></object>
  <object id="498" name="bujang" x="1389" y="140"><point/></object>
 </objectgroup>
</map>
