<?xml version="1.0" encoding="UTF-8"?>
<map version="1.10" tiledversion="1.12.2" orientation="orthogonal" renderorder="right-down" width="80" height="45" tilewidth="24" tileheight="24" infinite="0" nextlayerid="7" nextobjectid="49">
 <imagelayer id="2" name="background" locked="1">
  <image source="대인응대_안내·접수·예약·프론트.png" width="1920" height="1080"/>
 </imagelayer>
 <objectgroup id="3" name="play_bounds" locked="1">
  <object id="1" name="main_play_area" x="70" y="80" width="1780" height="656"/>
 </objectgroup>
 <objectgroup id="4" name="walkable" locked="1">
  <object id="2" name="walkable" x="70" y="80" width="1780" height="656"/>
 </objectgroup>
 <objectgroup id="5" name="collision" locked="1">
  <object id="3" x="712.444" y="219.64" width="463.273" height="105.205"/>
  <object id="4" x="743.821" y="81.2112" width="409.748" height="66.4456"/>
  <object id="5" x="627.541" y="81.2112" width="114.434" height="68.2913"/>
  <object id="6" x="1157.26" y="77.5198" width="118.125" height="73.8284"/>
  <object id="7" x="1332.6" y="86.7484" width="60.9084" height="164.268"/>
  <object id="8" x="1376.9" y="243.634" width="16.6114" height="169.805"/>
  <object id="9" x="1391.67" y="324.845" width="59.0627" height="90.4398"/>
  <object id="10" x="1197.87" y="315.616" width="131.045" height="134.737"/>
  <object id="11" x="1279.08" y="75.6741" width="55.3713" height="71.9827"/>
  <object id="12" x="581.399" y="83.057" width="47.9885" height="71.9827"/>
  <object id="13" x="516.799" y="81.2112" width="62.7541" height="158.731"/>
  <object id="14" x="649.69" y="335.919" width="12.92" height="71.9827"/>
  <object id="15" x="655.227" y="337.765" width="108.897" height="20.3028"/>
  <object id="16" x="749.358" y="335.919" width="14.7657" height="70.137"/>
  <object id="17" x="1122.19" y="326.691" width="18.4571" height="77.5198"/>
  <object id="18" x="1168.33" y="393.136" width="23.9942" height="77.5198"/>
  <object id="19" x="730.901" y="461.428" width="245.479" height="73.8284"/>
  <object id="20" x="780.735" y="618.313" width="147.657" height="59.0627"/>
  <object id="21" x="996.683" y="598.01" width="20.3028" height="86.7484"/>
  <object id="22" x="695.833" y="596.164" width="38.7599" height="73.8284"/>
  <object id="23" x="1168.33" y="638.616" width="171.651" height="94.1312"/>
  <object id="24" x="1448.88" y="454.045" width="88.5941" height="145.811"/>
  <object id="25" x="1539.32" y="324.845" width="306.388" height="380.216"/>
  <object id="26" x="1380.59" y="699.524" width="153.194" height="35.0685"/>
  <object id="27" x="1408.28" y="71.9827" width="99.6683" height="134.737"/>
  <object id="28" x="1408.28" y="223.331" width="35.0685" height="62.7541"/>
  <object id="29" x="1526.4" y="175.342" width="138.428" height="53.5256"/>
  <object id="30" x="1498.72" y="71.9827" width="269.474" height="75.6741"/>
  <object id="31" x="1766.34" y="75.6741" width="75.6741" height="145.811"/>
  <object id="33" x="418.976" y="278.702" width="147.657" height="136.583"/>
  <object id="34" x="311.925" y="94.1312" width="145.811" height="116.28"/>
  <object id="35" x="457.736" y="142.12" width="49.8342" height="101.514"/>
  <object id="36" x="247.325" y="142.12" width="49.8342" height="114.434"/>
  <object id="37" x="145.811" y="83.057" width="95.9769" height="158.731"/>
  <object id="38" x="131.045" y="245.479" width="75.6741" height="204.874"/>
  <object id="39" x="151.348" y="686.604" width="383.908" height="44.297"/>
  <object id="40" x="537.102" y="727.21" width="642.307" height="16.6114"/>
  <object id="41" x="1336.29" y="723.518" width="44.297" height="5.53713"/>
  <object id="42" x="62.7541" y="437.433" width="25.8399" height="310.079"/>
  <object id="43" x="94.1312" y="439.279" width="55.3713" height="110.743"/>
  <object id="44" x="136.583" y="550.022" width="12.92" height="95.9769"/>
 </objectgroup>
 <objectgroup id="6" name="spawn" locked="1">
  <object id="45" name="player" x="356.222" y="256.554">
   <point/>
  </object>
  <object id="46" name="sasu" x="909.935" y="210.411">
   <point/>
  </object>
  <object id="47" name="teamjang" x="1408.28" y="502.033">
   <point/>
  </object>
  <object id="48" name="bujang" x="1092.66" y="686.604">
   <point/>
  </object>
 </objectgroup>
</map>
