<?xml version="1.0" encoding="UTF-8"?>
<map version="1.10" tiledversion="1.12.2" orientation="orthogonal" renderorder="right-down" width="80" height="45" tilewidth="24" tileheight="24" infinite="0" nextlayerid="7" nextobjectid="139">
 <imagelayer id="2" name="background" locked="1">
  <image source="현대 웹 운영 콘텐츠실.png" width="1920" height="1080"/>
 </imagelayer>
 <objectgroup id="3" name="player_bounds" locked="1">
  <object id="1" x="70" y="80" width="1780" height="656"/>
 </objectgroup>
 <objectgroup id="4" name="walkable" locked="1">
  <object id="2" x="70" y="80" width="1780" height="656"/>
 </objectgroup>
 <objectgroup id="5" name="collision" locked="1">
  <object id="4" x="425.5" y="188.5" width="143" height="144"/>
  <object id="5" x="347.5" y="124" width="38" height="27"/>
  <object id="6" x="610" y="131" width="55.5" height="31"/>
  <object id="7" x="654.5" y="250" width="29.5" height="93"/>
  <object id="8" x="337" y="384.5" width="339" height="33.5"/>
  <object id="9" x="335" y="177" width="35.5" height="34"/>
  <object id="10" x="335.5" y="264.5" width="27.5" height="91"/>
  <object id="11" x="335" y="211.5" width="6" height="47.5"/>
  <object id="12" x="70" y="98" width="693" height="38.5"/>
  <object id="13" x="265" y="139" width="10.5" height="149"/>
  <object id="14" x="77.5" y="229" width="185.5" height="47"/>
  <object id="15" x="75.5" y="278.5" width="23.5" height="150"/>
  <object id="16" x="153.5" y="326.5" width="42.5" height="48.5"/>
  <object id="17" x="265" y="345.5" width="10" height="32.5"/>
  <object id="18" x="78.5" y="399.5" width="197.5" height="29"/>
  <object id="19" x="671" y="133" width="17.5" height="122"/>
  <object id="20" x="759.5" y="81" width="424.5" height="85.5"/>
  <object id="21" x="816" y="222" width="103" height="56"/>
  <object id="22" x="857" y="205" width="240" height="71.5"/>
  <object id="23" x="1088" y="220.5" width="44" height="58.5"/>
  <object id="24" x="1218" y="213" width="34" height="37.5"/>
  <object id="25" x="1227.5" y="268.5" width="26" height="67.5"/>
  <object id="26" x="1240.5" y="303.5" width="63.5" height="33.5"/>
  <object id="27" x="1240.5" y="97" width="10.5" height="209"/>
  <object id="28" x="1250" y="99.5" width="252" height="46"/>
  <object id="29" x="1471.5" y="142.5" width="32.5" height="43"/>
  <object id="30" x="1491.5" y="183" width="12.5" height="151.5"/>
  <object id="31" x="1439" y="302.5" width="63" height="32.5"/>
  <object id="32" x="1468.5" y="250" width="29" height="60.5"/>
  <object id="33" x="1329.5" y="172.5" width="80" height="112.5"/>
  <object id="34" x="1360" y="157" width="18" height="14"/>
  <object id="35" x="1554" y="96" width="229" height="48.5"/>
  <object id="36" x="1550" y="145.5" width="10.5" height="182"/>
  <object id="37" x="1558" y="292.5" width="130" height="36"/>
  <object id="38" x="1741" y="293.5" width="41" height="38"/>
  <object id="39" x="1771" y="145" width="13" height="63.5"/>
  <object id="40" x="1762" y="237.5" width="21" height="64"/>
  <object id="41" x="1628" y="182" width="104" height="56.5"/>
  <object id="42" x="1651" y="172.5" width="59" height="17"/>
  <object id="43" x="1622.5" y="208.5" width="24" height="15"/>
  <object id="44" x="1591" y="174" width="18.5" height="24"/>
  <object id="45" x="1569.5" y="359.5" width="20" height="39.5"/>
  <object id="46" x="1601" y="365.5" width="233" height="49.5"/>
  <object id="47" x="1839.5" y="98" width="11" height="379"/>
  <object id="48" x="1536" y="360" width="9" height="130.5"/>
  <object id="49" x="1548.5" y="455.5" width="300.5" height="29.5"/>
  <object id="50" x="1840" y="485" width="11" height="250"/>
  <object id="51" x="1544.5" y="528.5" width="156" height="36"/>
  <object id="52" x="1755" y="533" width="88.5" height="38"/>
  <object id="53" x="1748" y="599" width="10" height="21.5"/>
  <object id="54" x="1807" y="569.5" width="35.5" height="81.5"/>
  <object id="55" x="1771.5" y="572.5" width="31.5" height="25.5"/>
  <object id="56" x="1749.5" y="560" width="13" height="23.5"/>
  <object id="57" x="1561.5" y="554.5" width="20" height="33"/>
  <object id="58" x="1539" y="518.5" width="10.5" height="174"/>
  <object id="59" x="1553.5" y="659" width="44.5" height="32"/>
  <object id="60" x="1612.5" y="607" width="63.5" height="69"/>
  <object id="61" x="1571.5" y="635.5" width="30" height="16"/>
  <object id="62" x="1688.5" y="644.5" width="44" height="37.5"/>
  <object id="63" x="1537.5" y="707.5" width="308" height="28.5"/>
  <object id="64" x="1238.5" y="517" width="96.5" height="87.5"/>
  <object id="65" x="1358.5" y="591.5" width="102.5" height="39.5"/>
  <object id="66" x="1219.5" y="508" width="17.5" height="177.5"/>
  <object id="67" x="1239" y="653" width="40.5" height="29.5"/>
  <object id="68" x="1442" y="653.5" width="57.5" height="33"/>
  <object id="69" x="1484" y="506" width="13.5" height="152.5"/>
  <object id="70" x="1341" y="513.5" width="148.5" height="68"/>
  <object id="71" x="1241" y="372" width="256" height="88"/>
  <object id="72" x="987.5" y="708.5" width="490.5" height="29"/>
  <object id="73" x="333" y="704.5" width="583.5" height="41"/>
  <object id="74" x="71.5" y="660.5" width="197" height="69"/>
  <object id="75" x="149.5" y="475.5" width="55.5" height="33"/>
  <object id="76" x="145" y="524" width="67" height="42"/>
  <object id="77" x="215" y="562.5" width="44.5" height="66.5"/>
  <object id="78" x="151.5" y="609" width="119.5" height="26.5"/>
  <object id="79" x="70" y="604.5" width="27" height="31"/>
  <object id="80" x="161.5" y="554" width="23.5" height="24"/>
  <object id="81" x="131.5" y="534.5" width="17.5" height="15.5"/>
  <object id="82" x="110" y="543.5" width="49.5" height="18"/>
  <object id="83" x="237.5" y="489.5" width="24" height="35"/>
  <object id="84" x="245" y="529.5" width="26" height="20"/>
  <object id="85" x="261.5" y="451.5" width="16.5" height="184.5"/>
  <object id="86" x="72.5" y="451.5" width="205" height="41.5"/>
  <object id="87" x="67.5" y="450" width="9" height="182"/>
  <object id="88" x="326" y="465" width="169.5" height="33.5"/>
  <object id="89" x="483" y="467" width="16" height="175"/>
  <object id="90" x="324.5" y="610.5" width="175.5" height="35"/>
  <object id="91" x="465" y="577.5" width="20.5" height="34"/>
  <object id="92" x="449" y="489.5" width="33.5" height="46"/>
  <object id="94" x="378.5" y="492" width="84.5" height="29"/>
  <object id="95" x="398" y="565" width="13.5" height="18"/>
  <object id="96" x="347" y="561" width="25.5" height="44.5"/>
  <object id="97" x="734.5" y="377" width="24" height="45.5"/>
  <object id="98" x="753" y="356" width="130" height="61"/>
  <object id="99" x="889" y="387.5" width="34" height="31.5"/>
  <object id="100" x="921" y="356" width="14" height="73"/>
  <object id="101" x="974" y="386.5" width="14" height="38.5"/>
  <object id="102" x="990" y="357.5" width="159.5" height="60.5"/>
  <object id="103" x="1153" y="392" width="18" height="30"/>
  <object id="104" x="341" y="697" width="151" height="14"/>
  <object id="105" x="551.5" y="499.5" width="162.5" height="39"/>
  <object id="106" x="576" y="478.5" width="119" height="25.5"/>
  <object id="107" x="753.5" y="483.5" width="128.5" height="56"/>
  <object id="108" x="738.5" y="503" width="25.5" height="25"/>
  <object id="109" x="872" y="510.5" width="29.5" height="25"/>
  <object id="110" x="973.5" y="512" width="33.5" height="21.5"/>
  <object id="111" x="989" y="484" width="161.5" height="54"/>
  <object id="112" x="1152.5" y="510.5" width="19" height="28"/>
  <object id="113" x="1159.5" y="505" width="15.5" height="42.5"/>
  <object id="114" x="972" y="514.5" width="12.5" height="30"/>
  <object id="115" x="886.5" y="518" width="15.5" height="29.5"/>
  <object id="116" x="571.5" y="597.5" width="124.5" height="65"/>
  <object id="117" x="554.5" y="636.5" width="27.5" height="29.5"/>
  <object id="118" x="691" y="629.5" width="23" height="27"/>
  <object id="119" x="740.5" y="614" width="150.5" height="47"/>
  <object id="120" x="763" y="596.5" width="102.5" height="27.5"/>
  <object id="121" x="972" y="627" width="14" height="34"/>
  <object id="122" x="1012.5" y="596.5" width="104" height="60.5"/>
  <object id="123" x="988.5" y="613" width="29" height="36"/>
  <object id="124" x="1116" y="614.5" width="56" height="38"/>
  <object id="125" x="1141.5" y="598" width="21" height="24"/>
  <object id="126" x="966.5" y="642" width="14.5" height="18"/>
  <object id="127" x="889.5" y="641.5" width="15" height="18.5"/>
  <object id="128" x="322.5" y="551" width="8.5" height="62"/>
  <object id="129" x="312" y="583" width="17" height="24"/>
  <object id="130" x="796.5" y="239.5" width="23" height="36"/>
  <object id="131" x="1126" y="241" width="20" height="31"/>
  <object id="132" x="78" y="201.5" width="152" height="10.5"/>
 </objectgroup>
 <objectgroup id="6" name="spawns" locked="1">
  <object id="133" name="player" x="734" y="298">
   <point/>
  </object>
  <object id="134" name="팀장" x="929" y="485">
   <point/>
  </object>
  <object id="135" name="사수" x="1521" y="511">
   <point/>
  </object>
  <object id="137" name="부장" x="614.187" y="348.113">
   <point/>
  </object>
 </objectgroup>
</map>
