<?xml version="1.0" encoding="UTF-8"?>
<map version="1.10" tiledversion="1.12.2" orientation="orthogonal" renderorder="right-down" width="240" height="135" tilewidth="8" tileheight="8" infinite="0" nextlayerid="99" nextobjectid="366">
 <imagelayer id="90" name="background">
  <image source="cln-01.png" width="1920" height="1080"/>
 </imagelayer>
 <objectgroup id="365" name="walkable">
  <object id="1" x="1432" y="64" width="80" height="304"/>
  <object id="2" x="584" y="88" width="40" height="120"/>
  <object id="3" x="1168" y="88" width="48" height="112"/>
  <object id="4" x="576" y="120" width="8" height="144"/>
  <object id="5" x="368" y="128" width="88" height="232"/>
  <object id="6" x="992" y="128" width="56" height="232"/>
  <object id="7" x="624" y="136" width="40" height="72"/>
  <object id="8" x="1216" y="136" width="40" height="64"/>
  <object id="9" x="480" y="152" width="96" height="40"/>
  <object id="10" x="1064" y="152" width="104" height="40"/>
  <object id="11" x="1344" y="152" width="88" height="208"/>
  <object id="12" x="1720" y="152" width="136" height="40"/>
  <object id="13" x="1856" y="160" width="16" height="48"/>
  <object id="14" x="752" y="176" width="40" height="184"/>
  <object id="15" x="136" y="184" width="104" height="64"/>
  <object id="16" x="792" y="184" width="72" height="176"/>
  <object id="17" x="504" y="192" width="72" height="168"/>
  <object id="18" x="1088" y="192" width="80" height="72"/>
  <object id="19" x="1512" y="192" width="128" height="40"/>
  <object id="20" x="1768" y="192" width="88" height="16"/>
  <object id="21" x="1168" y="200" width="16" height="64"/>
  <object id="22" x="584" y="208" width="16" height="56"/>
  <object id="23" x="1768" y="208" width="80" height="160"/>
  <object id="24" x="456" y="232" width="48" height="40"/>
  <object id="25" x="1048" y="232" width="40" height="40"/>
  <object id="26" x="136" y="248" width="96" height="80"/>
  <object id="27" x="1088" y="264" width="72" height="96"/>
  <object id="28" x="456" y="272" width="32" height="88"/>
  <object id="29" x="1048" y="272" width="24" height="88"/>
  <object id="30" x="232" y="280" width="136" height="56"/>
  <object id="31" x="864" y="280" width="128" height="80"/>
  <object id="32" x="720" y="288" width="32" height="72"/>
  <object id="33" x="1312" y="296" width="32" height="64"/>
  <object id="34" x="120" y="304" width="16" height="56"/>
  <object id="35" x="136" y="328" width="64" height="8"/>
  <object id="36" x="216" y="328" width="16" height="8"/>
  <object id="37" x="1512" y="328" width="256" height="40"/>
  <object id="38" x="136" y="336" width="40" height="24"/>
  <object id="39" x="352" y="336" width="16" height="24"/>
  <object id="40" x="424" y="360" width="56" height="224"/>
  <object id="41" x="808" y="360" width="64" height="304"/>
  <object id="42" x="1400" y="360" width="32" height="360"/>
  <object id="43" x="1432" y="368" width="48" height="216"/>
  <object id="44" x="800" y="384" width="8" height="280"/>
  <object id="45" x="104" y="416" width="320" height="56"/>
  <object id="46" x="480" y="416" width="184" height="168"/>
  <object id="47" x="728" y="416" width="72" height="168"/>
  <object id="48" x="872" y="416" width="384" height="168"/>
  <object id="49" x="1312" y="416" width="88" height="168"/>
  <object id="50" x="1480" y="416" width="440" height="168"/>
  <object id="51" x="664" y="448" width="64" height="136"/>
  <object id="52" x="1256" y="448" width="56" height="136"/>
  <object id="53" x="376" y="472" width="48" height="408"/>
  <object id="54" x="88" y="560" width="288" height="40"/>
  <object id="55" x="424" y="584" width="16" height="224"/>
  <object id="56" x="568" y="584" width="88" height="112"/>
  <object id="57" x="736" y="584" width="64" height="312"/>
  <object id="58" x="872" y="584" width="144" height="80"/>
  <object id="59" x="1384" y="584" width="16" height="272"/>
  <object id="60" x="1432" y="584" width="8" height="136"/>
  <object id="61" x="1584" y="584" width="64" height="120"/>
  <object id="62" x="368" y="600" width="8" height="432"/>
  <object id="63" x="536" y="632" width="32" height="256"/>
  <object id="64" x="656" y="632" width="16" height="40"/>
  <object id="65" x="440" y="648" width="16" height="120"/>
  <object id="66" x="1136" y="648" width="56" height="40"/>
  <object id="67" x="1248" y="648" width="96" height="88"/>
  <object id="68" x="1440" y="648" width="16" height="72"/>
  <object id="69" x="1536" y="648" width="48" height="384"/>
  <object id="70" x="1648" y="648" width="72" height="56"/>
  <object id="71" x="1192" y="656" width="56" height="80"/>
  <object id="72" x="968" y="664" width="48" height="416"/>
  <object id="73" x="1344" y="664" width="40" height="208"/>
  <object id="74" x="656" y="672" width="8" height="24"/>
  <object id="75" x="352" y="688" width="16" height="344"/>
  <object id="76" x="1144" y="688" width="48" height="48"/>
  <object id="77" x="568" y="696" width="80" height="16"/>
  <object id="78" x="1584" y="704" width="16" height="376"/>
  <object id="79" x="568" y="712" width="56" height="32"/>
  <object id="80" x="1400" y="720" width="8" height="120"/>
  <object id="81" x="1144" y="736" width="40" height="208"/>
  <object id="82" x="1304" y="736" width="40" height="136"/>
  <object id="83" x="568" y="744" width="48" height="144"/>
  <object id="84" x="1128" y="744" width="16" height="280"/>
  <object id="85" x="1072" y="760" width="56" height="264"/>
  <object id="86" x="800" y="784" width="32" height="96"/>
  <object id="87" x="424" y="808" width="8" height="72"/>
  <object id="88" x="832" y="808" width="120" height="72"/>
  <object id="89" x="1600" y="808" width="120" height="40"/>
  <object id="90" x="616" y="832" width="24" height="48"/>
  <object id="91" x="1384" y="856" width="8" height="8"/>
  <object id="92" x="1304" y="872" width="32" height="48"/>
  <object id="93" x="1352" y="872" width="32" height="184"/>
  <object id="94" x="376" y="880" width="32" height="152"/>
  <object id="95" x="616" y="880" width="16" height="24"/>
  <object id="96" x="800" y="880" width="16" height="16"/>
  <object id="97" x="880" y="880" width="72" height="16"/>
  <object id="98" x="584" y="888" width="32" height="144"/>
  <object id="99" x="736" y="896" width="32" height="184"/>
  <object id="100" x="616" y="904" width="8" height="128"/>
  <object id="101" x="1032" y="912" width="40" height="112"/>
  <object id="102" x="1504" y="912" width="32" height="120"/>
  <object id="103" x="408" y="920" width="16" height="112"/>
  <object id="104" x="424" y="936" width="8" height="96"/>
  <object id="105" x="432" y="944" width="24" height="88"/>
  <object id="106" x="1384" y="944" width="40" height="40"/>
  <object id="107" x="32" y="952" width="320" height="80"/>
  <object id="108" x="624" y="952" width="40" height="80"/>
  <object id="109" x="1600" y="952" width="72" height="40"/>
  <object id="110" x="528" y="960" width="56" height="72"/>
  <object id="111" x="664" y="976" width="24" height="56"/>
  <object id="112" x="1384" y="984" width="16" height="72"/>
  <object id="113" x="1312" y="992" width="40" height="64"/>
  <object id="114" x="1600" y="992" width="24" height="8"/>
  <object id="115" x="768" y="1000" width="152" height="32"/>
  <object id="116" x="1600" y="1000" width="16" height="80"/>
  <object id="117" x="1400" y="1016" width="8" height="40"/>
  <object id="118" x="1408" y="1024" width="16" height="32"/>
  <object id="119" x="768" y="1032" width="144" height="48"/>
  <object id="120" x="1560" y="1032" width="24" height="48"/>
  <object id="121" x="1616" y="1032" width="48" height="48"/>
  <object id="122" x="1664" y="1040" width="32" height="40"/>
 </objectgroup>
 <objectgroup id="366" name="collision">
  <object id="123" x="1416" y="48" width="120" height="16"/>
  <object id="124" x="1416" y="64" width="16" height="88"/>
  <object id="125" x="1512" y="64" width="16" height="128"/>
  <object id="126" x="568" y="72" width="88" height="16"/>
  <object id="127" x="1152" y="72" width="88" height="16"/>
  <object id="128" x="568" y="88" width="16" height="32"/>
  <object id="129" x="624" y="88" width="16" height="48"/>
  <object id="130" x="1152" y="88" width="16" height="64"/>
  <object id="131" x="1216" y="88" width="16" height="48"/>
  <object id="132" x="560" y="104" width="8" height="48"/>
  <object id="133" x="976" y="104" width="16" height="176"/>
  <object id="134" x="352" y="112" width="128" height="16"/>
  <object id="135" x="992" y="112" width="72" height="16"/>
  <object id="136" x="568" y="120" width="8" height="32"/>
  <object id="137" x="640" y="120" width="40" height="16"/>
  <object id="138" x="1232" y="120" width="40" height="16"/>
  <object id="139" x="352" y="128" width="16" height="152"/>
  <object id="140" x="456" y="128" width="24" height="80"/>
  <object id="141" x="1048" y="128" width="16" height="104"/>
  <object id="142" x="480" y="136" width="80" height="16"/>
  <object id="143" x="664" y="136" width="16" height="96"/>
  <object id="144" x="1064" y="136" width="88" height="16"/>
  <object id="145" x="1256" y="136" width="16" height="88"/>
  <object id="146" x="1328" y="136" width="88" height="16"/>
  <object id="147" x="1704" y="136" width="168" height="16"/>
  <object id="148" x="1872" y="144" width="16" height="80"/>
  <object id="149" x="1328" y="152" width="16" height="144"/>
  <object id="150" x="1704" y="152" width="16" height="56"/>
  <object id="151" x="1856" y="152" width="16" height="8"/>
  <object id="152" x="736" y="160" width="80" height="16"/>
  <object id="153" x="120" y="168" width="144" height="16"/>
  <object id="154" x="816" y="168" width="72" height="16"/>
  <object id="155" x="736" y="176" width="16" height="112"/>
  <object id="156" x="792" y="176" width="24" height="8"/>
  <object id="157" x="1528" y="176" width="128" height="16"/>
  <object id="158" x="120" y="184" width="16" height="120"/>
  <object id="159" x="240" y="184" width="16" height="96"/>
  <object id="160" x="864" y="184" width="16" height="96"/>
  <object id="161" x="480" y="192" width="24" height="16"/>
  <object id="162" x="1064" y="192" width="24" height="16"/>
  <object id="163" x="1640" y="192" width="16" height="56"/>
  <object id="164" x="1720" y="192" width="48" height="16"/>
  <object id="165" x="456" y="208" width="16" height="24"/>
  <object id="166" x="488" y="208" width="16" height="24"/>
  <object id="167" x="1072" y="208" width="16" height="24"/>
  <object id="168" x="1184" y="208" width="72" height="16"/>
  <object id="169" x="1752" y="208" width="16" height="120"/>
  <object id="170" x="1848" y="208" width="24" height="16"/>
  <object id="171" x="472" y="216" width="16" height="16"/>
  <object id="172" x="600" y="216" width="64" height="16"/>
  <object id="173" x="1064" y="216" width="8" height="16"/>
  <object id="174" x="1184" y="224" width="16" height="56"/>
  <object id="175" x="1848" y="224" width="16" height="160"/>
  <object id="176" x="600" y="232" width="16" height="48"/>
  <object id="177" x="1512" y="232" width="128" height="16"/>
  <object id="178" x="232" y="248" width="8" height="32"/>
  <object id="179" x="1512" y="248" width="16" height="80"/>
  <object id="180" x="256" y="264" width="96" height="16"/>
  <object id="181" x="576" y="264" width="24" height="16"/>
  <object id="182" x="704" y="264" width="16" height="112"/>
  <object id="183" x="880" y="264" width="96" height="16"/>
  <object id="184" x="1160" y="264" width="24" height="16"/>
  <object id="185" x="104" y="272" width="16" height="104"/>
  <object id="186" x="488" y="272" width="16" height="112"/>
  <object id="187" x="720" y="272" width="16" height="16"/>
  <object id="188" x="1072" y="272" width="16" height="104"/>
  <object id="189" x="576" y="280" width="16" height="96"/>
  <object id="190" x="1160" y="280" width="16" height="96"/>
  <object id="191" x="1296" y="280" width="32" height="16"/>
  <object id="192" x="1296" y="296" width="16" height="80"/>
  <object id="193" x="1528" y="312" width="224" height="16"/>
  <object id="194" x="200" y="328" width="16" height="24"/>
  <object id="195" x="176" y="336" width="24" height="16"/>
  <object id="196" x="216" y="336" width="136" height="16"/>
  <object id="197" x="176" y="352" width="16" height="24"/>
  <object id="198" x="336" y="352" width="16" height="24"/>
  <object id="199" x="120" y="360" width="56" height="16"/>
  <object id="200" x="352" y="360" width="72" height="16"/>
  <object id="201" x="480" y="360" width="8" height="56"/>
  <object id="202" x="504" y="360" width="72" height="16"/>
  <object id="203" x="720" y="360" width="88" height="16"/>
  <object id="204" x="872" y="360" width="200" height="16"/>
  <object id="205" x="1088" y="360" width="72" height="16"/>
  <object id="206" x="1312" y="360" width="88" height="16"/>
  <object id="207" x="1480" y="368" width="368" height="16"/>
  <object id="208" x="408" y="376" width="16" height="40"/>
  <object id="209" x="784" y="376" width="16" height="40"/>
  <object id="210" x="872" y="376" width="16" height="40"/>
  <object id="211" x="1384" y="376" width="16" height="40"/>
  <object id="212" x="488" y="384" width="8" height="32"/>
  <object id="213" x="1480" y="384" width="16" height="32"/>
  <object id="214" x="88" y="392" width="16" height="168"/>
  <object id="215" x="104" y="400" width="304" height="16"/>
  <object id="216" x="496" y="400" width="192" height="16"/>
  <object id="217" x="712" y="400" width="72" height="16"/>
  <object id="218" x="888" y="400" width="384" height="16"/>
  <object id="219" x="1296" y="400" width="88" height="16"/>
  <object id="220" x="1496" y="400" width="424" height="16"/>
  <object id="221" x="664" y="416" width="16" height="32"/>
  <object id="222" x="712" y="416" width="16" height="32"/>
  <object id="223" x="1256" y="416" width="16" height="32"/>
  <object id="224" x="1296" y="416" width="16" height="32"/>
  <object id="225" x="680" y="432" width="32" height="16"/>
  <object id="226" x="1272" y="432" width="24" height="16"/>
  <object id="227" x="104" y="480" width="272" height="80"/>
  <object id="228" x="72" y="544" width="16" height="72"/>
  <object id="229" x="440" y="584" width="128" height="16"/>
  <object id="230" x="656" y="584" width="80" height="16"/>
  <object id="231" x="1016" y="584" width="368" height="16"/>
  <object id="232" x="1440" y="584" width="144" height="16"/>
  <object id="233" x="1648" y="584" width="272" height="16"/>
  <object id="234" x="64" y="600" width="8" height="16"/>
  <object id="235" x="88" y="600" width="280" height="16"/>
  <object id="236" x="440" y="600" width="16" height="48"/>
  <object id="237" x="552" y="600" width="16" height="32"/>
  <object id="238" x="656" y="600" width="16" height="32"/>
  <object id="239" x="720" y="600" width="16" height="480"/>
  <object id="240" x="1016" y="600" width="16" height="480"/>
  <object id="241" x="1368" y="600" width="16" height="64"/>
  <object id="242" x="1440" y="600" width="16" height="48"/>
  <object id="243" x="1568" y="600" width="16" height="48"/>
  <object id="244" x="1648" y="600" width="16" height="48"/>
  <object id="245" x="352" y="616" width="16" height="72"/>
  <object id="246" x="520" y="616" width="32" height="16"/>
  <object id="247" x="672" y="616" width="16" height="72"/>
  <object id="248" x="456" y="632" width="24" height="16"/>
  <object id="249" x="520" y="632" width="16" height="272"/>
  <object id="250" x="1120" y="632" width="240" height="16"/>
  <object id="251" x="1456" y="632" width="16" height="104"/>
  <object id="252" x="1520" y="632" width="48" height="16"/>
  <object id="253" x="1664" y="632" width="72" height="16"/>
  <object id="254" x="456" y="648" width="16" height="136"/>
  <object id="255" x="1120" y="648" width="16" height="56"/>
  <object id="256" x="1344" y="648" width="24" height="16"/>
  <object id="257" x="1520" y="648" width="16" height="264"/>
  <object id="258" x="1720" y="648" width="16" height="72"/>
  <object id="259" x="800" y="664" width="168" height="16"/>
  <object id="260" x="336" y="672" width="16" height="280"/>
  <object id="261" x="664" y="672" width="8" height="40"/>
  <object id="262" x="800" y="680" width="16" height="104"/>
  <object id="263" x="952" y="680" width="16" height="400"/>
  <object id="264" x="672" y="688" width="8" height="24"/>
  <object id="265" x="1136" y="688" width="8" height="56"/>
  <object id="266" x="648" y="696" width="16" height="32"/>
  <object id="267" x="1128" y="704" width="8" height="40"/>
  <object id="268" x="1600" y="704" width="120" height="16"/>
  <object id="269" x="624" y="712" width="24" height="16"/>
  <object id="270" x="1408" y="720" width="48" height="16"/>
  <object id="271" x="1600" y="720" width="16" height="88"/>
  <object id="272" x="624" y="728" width="16" height="32"/>
  <object id="273" x="1112" y="728" width="16" height="32"/>
  <object id="274" x="1184" y="736" width="120" height="16"/>
  <object id="275" x="1408" y="736" width="16" height="120"/>
  <object id="276" x="616" y="744" width="8" height="88"/>
  <object id="277" x="1056" y="744" width="56" height="16"/>
  <object id="278" x="1184" y="752" width="16" height="208"/>
  <object id="279" x="1288" y="752" width="16" height="184"/>
  <object id="280" x="624" y="760" width="8" height="72"/>
  <object id="281" x="1056" y="760" width="16" height="152"/>
  <object id="282" x="440" y="768" width="16" height="56"/>
  <object id="283" x="816" y="768" width="40" height="16"/>
  <object id="284" x="832" y="784" width="16" height="24"/>
  <object id="285" x="848" y="792" width="104" height="16"/>
  <object id="286" x="1616" y="792" width="128" height="16"/>
  <object id="287" x="432" y="808" width="8" height="88"/>
  <object id="288" x="1720" y="808" width="16" height="56"/>
  <object id="289" x="632" y="816" width="24" height="16"/>
  <object id="290" x="440" y="824" width="8" height="72"/>
  <object id="291" x="640" y="832" width="16" height="64"/>
  <object id="292" x="1400" y="840" width="8" height="40"/>
  <object id="293" x="1600" y="848" width="120" height="16"/>
  <object id="294" x="1392" y="856" width="8" height="88"/>
  <object id="295" x="1408" y="856" width="8" height="16"/>
  <object id="296" x="1384" y="864" width="8" height="80"/>
  <object id="297" x="1600" y="864" width="16" height="88"/>
  <object id="298" x="1336" y="872" width="16" height="120"/>
  <object id="299" x="408" y="880" width="24" height="16"/>
  <object id="300" x="632" y="880" width="8" height="72"/>
  <object id="301" x="536" y="888" width="48" height="16"/>
  <object id="302" x="408" y="896" width="16" height="24"/>
  <object id="303" x="640" y="896" width="8" height="24"/>
  <object id="304" x="768" y="896" width="184" height="16"/>
  <object id="305" x="1032" y="896" width="24" height="16"/>
  <object id="306" x="1488" y="896" width="32" height="16"/>
  <object id="307" x="424" y="904" width="16" height="32"/>
  <object id="308" x="568" y="904" width="16" height="56"/>
  <object id="309" x="624" y="904" width="8" height="48"/>
  <object id="310" x="768" y="912" width="16" height="88"/>
  <object id="311" x="1488" y="912" width="16" height="136"/>
  <object id="312" x="440" y="920" width="16" height="24"/>
  <object id="313" x="1304" y="920" width="32" height="16"/>
  <object id="314" x="16" y="928" width="16" height="120"/>
  <object id="315" x="456" y="928" width="24" height="16"/>
  <object id="316" x="1400" y="928" width="40" height="16"/>
  <object id="317" x="32" y="936" width="304" height="16"/>
  <object id="318" x="432" y="936" width="8" height="8"/>
  <object id="319" x="640" y="936" width="40" height="16"/>
  <object id="320" x="1616" y="936" width="72" height="16"/>
  <object id="321" x="456" y="944" width="16" height="120"/>
  <object id="322" x="512" y="944" width="56" height="16"/>
  <object id="323" x="1144" y="944" width="40" height="16"/>
  <object id="324" x="1424" y="944" width="16" height="56"/>
  <object id="325" x="664" y="952" width="16" height="24"/>
  <object id="326" x="1672" y="952" width="16" height="56"/>
  <object id="327" x="512" y="960" width="16" height="88"/>
  <object id="328" x="680" y="960" width="24" height="16"/>
  <object id="329" x="1144" y="960" width="16" height="80"/>
  <object id="330" x="688" y="976" width="16" height="72"/>
  <object id="331" x="1296" y="976" width="40" height="16"/>
  <object id="332" x="784" y="984" width="160" height="16"/>
  <object id="333" x="1400" y="984" width="24" height="32"/>
  <object id="334" x="1296" y="992" width="16" height="80"/>
  <object id="335" x="1624" y="992" width="48" height="16"/>
  <object id="336" x="920" y="1000" width="16" height="48"/>
  <object id="337" x="1616" y="1000" width="8" height="32"/>
  <object id="338" x="1424" y="1008" width="16" height="64"/>
  <object id="339" x="1624" y="1008" width="16" height="24"/>
  <object id="340" x="1408" y="1016" width="16" height="8"/>
  <object id="341" x="1640" y="1016" width="40" height="16"/>
  <object id="342" x="1032" y="1024" width="112" height="16"/>
  <object id="343" x="1680" y="1024" width="40" height="16"/>
  <object id="344" x="0" y="1032" width="16" height="16"/>
  <object id="345" x="32" y="1032" width="424" height="16"/>
  <object id="346" x="528" y="1032" width="160" height="16"/>
  <object id="347" x="912" y="1032" width="8" height="48"/>
  <object id="348" x="1504" y="1032" width="56" height="16"/>
  <object id="349" x="1664" y="1032" width="16" height="8"/>
  <object id="350" x="1696" y="1040" width="16" height="40"/>
  <object id="351" x="920" y="1048" width="8" height="32"/>
  <object id="352" x="1544" y="1048" width="16" height="32"/>
  <object id="353" x="1312" y="1056" width="112" height="16"/>
  <object id="354" x="736" y="1064" width="176" height="16"/>
  <object id="355" x="968" y="1064" width="48" height="16"/>
  <object id="356" x="1560" y="1064" width="136" height="16"/>
 </objectgroup>
 <objectgroup id="367" name="overhead">
  <object id="357" x="592" y="168" width="72" height="48"><properties><property name="mask" value="mask_000.png"/></properties></object>
  <object id="358" x="1184" y="168" width="72" height="48"><properties><property name="mask" value="mask_001.png"/></properties></object>
  <object id="359" x="106" y="434" width="268" height="52"><properties><property name="mask" value="mask_002.png"/></properties></object>
  <object id="360" x="816" y="840" width="64" height="56"><properties><property name="mask" value="mask_003.png"/></properties></object>
 </objectgroup>
 <objectgroup id="368" name="spawn">
  <object id="361" name="player" x="1889" y="490"><point/></object>
  <object id="362" name="teamjang" x="1357" y="780"><point/></object>
  <object id="363" name="bujang" x="778" y="841"><point/></object>
  <object id="364" name="sasu" x="433" y="502"><point/></object>
 </objectgroup>
</map>
