<?xml version="1.0" encoding="UTF-8"?>
<map version="1.10" tiledversion="1.12.2" orientation="orthogonal" renderorder="right-down" width="80" height="45" tilewidth="24" tileheight="24" infinite="0" nextlayerid="7" nextobjectid="69">
 <imagelayer id="2" name="background" locked="1">
  <image source="안전위험_소방·구조·방재대응.png" width="1920" height="1080"/>
 </imagelayer>
 <objectgroup id="3" name="play_bounds" locked="1">
  <object id="6" x="70" y="80" width="1780" height="656"/>
 </objectgroup>
 <objectgroup id="4" name="walkable" locked="1">
  <object id="7" x="70" y="80" width="1780" height="656"/>
 </objectgroup>
 <objectgroup id="5" name="collision" locked="1">
  <object id="8" x="1673.42" y="80.3828" width="65.7677" height="115.876"/>
  <object id="9" x="1792.43" y="83.5146" width="57.4163" height="117.964"/>
  <object id="10" x="1840.45" y="236.973" width="9.39539" height="29.2301"/>
  <object id="11" x="328" y="99.3333" width="12" height="616"/>
  <object id="12" x="335.333" y="706.667" width="860.667" height="6"/>
  <object id="13" x="1294.67" y="677.333" width="71.3333" height="41.3333"/>
  <object id="14" x="1569.33" y="666.667" width="26.6667" height="58"/>
  <object id="15" x="1467.33" y="708" width="78" height="21.3333"/>
  <object id="16" x="1188.67" y="568" width="12" height="40.6667"/>
  <object id="17" x="1208.67" y="560" width="432.667" height="19.3333"/>
  <object id="18" x="1625.33" y="528.667" width="20" height="190"/>
  <object id="19" x="1626.67" y="284.667" width="14.6667" height="130"/>
  <object id="20" x="1630.67" y="102" width="10" height="182.667"/>
  <object id="21" x="1262.67" y="103.333" width="377.333" height="10.6667"/>
  <object id="22" x="727" y="102.667" width="557" height="11.6667"/>
  <object id="23" x="330" y="104" width="464.667" height="10"/>
  <object id="24" x="721.667" y="115.667" width="13.6667" height="221.667"/>
  <object id="25" x="342.667" y="115.333" width="381.667" height="106"/>
  <object id="26" x="483.333" y="275.333" width="115.667" height="23.6667"/>
  <object id="27" x="693.333" y="247.667" width="19" height="42.3333"/>
  <object id="28" x="345.333" y="270.333" width="29.3333" height="57.3333"/>
  <object id="29" x="341" y="340.333" width="280.333" height="7.33333"/>
  <object id="30" x="695" y="339.667" width="77" height="8"/>
  <object id="31" x="540" y="348.333" width="83" height="18"/>
  <object id="32" x="694" y="350.333" width="78.3333" height="16"/>
  <object id="33" x="340" y="347" width="193.333" height="91.3333"/>
  <object id="34" x="430" y="436.667" width="32.3333" height="32"/>
  <object id="35" x="343.667" y="438.333" width="40.3333" height="262.667"/>
  <object id="36" x="384" y="501.667" width="20.3333" height="132.333"/>
  <object id="37" x="389.667" y="438.333" width="39.3333" height="29.3333"/>
  <object id="38" x="736.333" y="116" width="197" height="109.667"/>
  <object id="39" x="984.333" y="116.667" width="290" height="86"/>
  <object id="40" x="1000" y="200.667" width="40" height="29"/>
  <object id="41" x="1217.33" y="203" width="54.3333" height="31.6667"/>
  <object id="42" x="1275" y="115.333" width="355.667" height="87.3333"/>
  <object id="43" x="1371.33" y="200.667" width="77" height="41.3333"/>
  <object id="44" x="1499.67" y="209.667" width="16.6667" height="39.3333"/>
  <object id="45" x="1530.33" y="203.667" width="8" height="32.3333"/>
  <object id="46" x="1281" y="203.667" width="22.6667" height="21.3333"/>
  <object id="47" x="660.333" y="422.333" width="337.333" height="137.333"/>
  <object id="48" x="524" y="435.667" width="13.6667" height="33.3333"/>
  <object id="49" x="524.333" y="637.333" width="14.3333" height="62.6667"/>
  <object id="50" x="1191.67" y="296" width="436.667" height="82.3333"/>
  <object id="51" x="1202.33" y="377" width="324.333" height="35"/>
  <object id="52" x="1531.67" y="379" width="9" height="75.6667"/>
  <object id="53" x="1534.33" y="415" width="28" height="37"/>
  <object id="54" x="1608.33" y="415.667" width="34" height="29.3333"/>
  <object id="55" x="1278.33" y="460.333" width="127.667" height="54.3333"/>
  <object id="56" x="1202" y="578.333" width="210.667" height="55"/>
  <object id="57" x="1401.67" y="649.333" width="36" height="48"/>
  <object id="58" x="1414.33" y="576.667" width="216.333" height="51"/>
  <object id="59" x="1474.67" y="654.667" width="62" height="23.3333"/>
  <object id="60" x="1676.33" y="343" width="38" height="9.33333"/>
  <object id="61" x="1705.67" y="346.333" width="8.66667" height="373.667"/>
  <object id="62" x="1646" y="350.667" width="24.3333" height="40.6667"/>
  <object id="63" x="1108" y="301.333" width="79.3333" height="69.3333"/>
  <object id="64" x="1188.33" y="611.333" width="10.6667" height="37"/>
 </objectgroup>
 <objectgroup id="6" name="spawns" locked="1">
  <object id="65" name="팀장" x="640.667" y="644">
   <point/>
  </object>
  <object id="66" name="부장" x="480.667" y="550">
   <point/>
  </object>
  <object id="67" name="사수" x="953.333" y="308.667">
   <point/>
  </object>
  <object id="68" name="player" x="1259.33" y="538">
   <point/>
  </object>
 </objectgroup>
</map>
