<?xml version="1.0" encoding="UTF-8"?>
<map version="1.10" tiledversion="1.12.2" orientation="orthogonal" renderorder="right-down" width="240" height="135" tilewidth="8" tileheight="8" infinite="0" nextlayerid="99" nextobjectid="345">
 <imagelayer id="90" name="background">
  <image source="kts-02.png" width="1920" height="1080"/>
 </imagelayer>
 <objectgroup id="344" name="walkable">
  <object id="1" x="320" y="112" width="176" height="136"/>
  <object id="2" x="1736" y="136" width="64" height="72"/>
  <object id="3" x="288" y="152" width="32" height="104"/>
  <object id="4" x="496" y="152" width="24" height="96"/>
  <object id="5" x="280" y="160" width="8" height="96"/>
  <object id="6" x="520" y="200" width="8" height="48"/>
  <object id="7" x="208" y="208" width="72" height="248"/>
  <object id="8" x="1744" y="208" width="56" height="16"/>
  <object id="9" x="720" y="224" width="72" height="200"/>
  <object id="10" x="1752" y="224" width="56" height="184"/>
  <object id="11" x="576" y="232" width="128" height="192"/>
  <object id="12" x="1480" y="232" width="48" height="576"/>
  <object id="13" x="1344" y="240" width="120" height="440"/>
  <object id="14" x="320" y="248" width="8" height="8"/>
  <object id="15" x="1032" y="248" width="312" height="176"/>
  <object id="16" x="1528" y="248" width="8" height="128"/>
  <object id="17" x="192" y="256" width="16" height="200"/>
  <object id="18" x="1536" y="256" width="8" height="112"/>
  <object id="19" x="1544" y="264" width="48" height="104"/>
  <object id="20" x="1640" y="264" width="24" height="736"/>
  <object id="21" x="704" y="272" width="16" height="256"/>
  <object id="22" x="1664" y="272" width="8" height="728"/>
  <object id="23" x="1688" y="272" width="32" height="136"/>
  <object id="24" x="1672" y="280" width="16" height="128"/>
  <object id="25" x="1592" y="288" width="16" height="408"/>
  <object id="26" x="1624" y="288" width="16" height="520"/>
  <object id="27" x="1608" y="296" width="16" height="512"/>
  <object id="28" x="296" y="304" width="8" height="152"/>
  <object id="29" x="792" y="304" width="240" height="120"/>
  <object id="30" x="1464" y="304" width="16" height="504"/>
  <object id="31" x="304" y="312" width="16" height="144"/>
  <object id="32" x="280" y="320" width="16" height="136"/>
  <object id="33" x="320" y="320" width="16" height="136"/>
  <object id="34" x="336" y="328" width="208" height="128"/>
  <object id="35" x="568" y="328" width="8" height="504"/>
  <object id="36" x="1736" y="328" width="16" height="80"/>
  <object id="37" x="560" y="336" width="8" height="496"/>
  <object id="38" x="544" y="344" width="16" height="488"/>
  <object id="39" x="1720" y="344" width="16" height="64"/>
  <object id="40" x="184" y="352" width="8" height="104"/>
  <object id="41" x="1568" y="368" width="24" height="328"/>
  <object id="42" x="1528" y="400" width="8" height="408"/>
  <object id="43" x="1536" y="408" width="32" height="400"/>
  <object id="44" x="1672" y="408" width="8" height="592"/>
  <object id="45" x="576" y="424" width="16" height="200"/>
  <object id="46" x="664" y="424" width="40" height="104"/>
  <object id="47" x="720" y="424" width="16" height="480"/>
  <object id="48" x="808" y="424" width="72" height="104"/>
  <object id="49" x="952" y="424" width="80" height="104"/>
  <object id="50" x="1104" y="424" width="88" height="104"/>
  <object id="51" x="1256" y="424" width="88" height="192"/>
  <object id="52" x="352" y="456" width="192" height="40"/>
  <object id="53" x="384" y="496" width="160" height="320"/>
  <object id="54" x="112" y="528" width="112" height="56"/>
  <object id="55" x="664" y="528" width="24" height="480"/>
  <object id="56" x="808" y="528" width="24" height="88"/>
  <object id="57" x="864" y="528" width="16" height="552"/>
  <object id="58" x="952" y="528" width="24" height="96"/>
  <object id="59" x="1008" y="528" width="24" height="96"/>
  <object id="60" x="1104" y="528" width="24" height="480"/>
  <object id="61" x="1160" y="528" width="32" height="96"/>
  <object id="62" x="224" y="536" width="160" height="48"/>
  <object id="63" x="1680" y="560" width="104" height="152"/>
  <object id="64" x="688" y="576" width="32" height="328"/>
  <object id="65" x="832" y="576" width="32" height="384"/>
  <object id="66" x="976" y="576" width="32" height="384"/>
  <object id="67" x="1128" y="576" width="32" height="432"/>
  <object id="68" x="112" y="584" width="40" height="176"/>
  <object id="69" x="328" y="584" width="56" height="232"/>
  <object id="70" x="816" y="616" width="16" height="344"/>
  <object id="71" x="1264" y="616" width="80" height="384"/>
  <object id="72" x="576" y="624" width="8" height="280"/>
  <object id="73" x="960" y="624" width="16" height="456"/>
  <object id="74" x="1008" y="624" width="16" height="336"/>
  <object id="75" x="1160" y="624" width="24" height="384"/>
  <object id="76" x="584" y="656" width="8" height="248"/>
  <object id="77" x="808" y="656" width="8" height="304"/>
  <object id="78" x="952" y="656" width="8" height="424"/>
  <object id="79" x="1024" y="656" width="8" height="304"/>
  <object id="80" x="1184" y="656" width="8" height="352"/>
  <object id="81" x="152" y="664" width="8" height="96"/>
  <object id="82" x="592" y="672" width="72" height="232"/>
  <object id="83" x="736" y="672" width="72" height="288"/>
  <object id="84" x="880" y="672" width="72" height="408"/>
  <object id="85" x="1032" y="672" width="72" height="336"/>
  <object id="86" x="1192" y="672" width="72" height="240"/>
  <object id="87" x="1344" y="680" width="16" height="8"/>
  <object id="88" x="1376" y="680" width="88" height="8"/>
  <object id="89" x="1784" y="680" width="72" height="48"/>
  <object id="90" x="320" y="688" width="8" height="128"/>
  <object id="91" x="1344" y="688" width="8" height="312"/>
  <object id="92" x="1384" y="688" width="80" height="8"/>
  <object id="93" x="160" y="696" width="32" height="64"/>
  <object id="94" x="1392" y="696" width="72" height="112"/>
  <object id="95" x="1568" y="696" width="8" height="112"/>
  <object id="96" x="192" y="704" width="16" height="56"/>
  <object id="97" x="272" y="712" width="48" height="48"/>
  <object id="98" x="1352" y="712" width="8" height="288"/>
  <object id="99" x="1384" y="712" width="8" height="96"/>
  <object id="100" x="1680" y="712" width="24" height="16"/>
  <object id="101" x="1736" y="712" width="48" height="16"/>
  <object id="102" x="1360" y="720" width="24" height="88"/>
  <object id="103" x="1576" y="720" width="32" height="88"/>
  <object id="104" x="208" y="728" width="64" height="32"/>
  <object id="105" x="1680" y="728" width="16" height="272"/>
  <object id="106" x="1360" y="808" width="16" height="192"/>
  <object id="107" x="1632" y="808" width="8" height="192"/>
  <object id="108" x="512" y="816" width="32" height="16"/>
  <object id="109" x="1696" y="832" width="104" height="72"/>
  <object id="110" x="1376" y="896" width="120" height="104"/>
  <object id="111" x="1544" y="896" width="88" height="104"/>
  <object id="112" x="640" y="904" width="24" height="104"/>
  <object id="113" x="688" y="904" width="8" height="104"/>
  <object id="114" x="728" y="904" width="8" height="8"/>
  <object id="115" x="1696" y="904" width="80" height="8"/>
  <object id="116" x="1224" y="912" width="40" height="88"/>
  <object id="117" x="1496" y="912" width="48" height="88"/>
  <object id="118" x="1696" y="912" width="32" height="8"/>
  <object id="119" x="1696" y="920" width="8" height="80"/>
  <object id="120" x="736" y="960" width="64" height="48"/>
  <object id="121" x="840" y="960" width="24" height="120"/>
  <object id="122" x="976" y="960" width="16" height="120"/>
  <object id="123" x="800" y="1032" width="40" height="48"/>
  <object id="124" x="992" y="1032" width="40" height="48"/>
 </objectgroup>
 <objectgroup id="345" name="collision">
  <object id="125" x="312" y="104" width="192" height="8"/>
  <object id="126" x="312" y="112" width="8" height="40"/>
  <object id="127" x="496" y="112" width="8" height="40"/>
  <object id="128" x="1728" y="128" width="80" height="8"/>
  <object id="129" x="1728" y="136" width="8" height="80"/>
  <object id="130" x="1800" y="136" width="8" height="88"/>
  <object id="131" x="280" y="144" width="32" height="8"/>
  <object id="132" x="504" y="144" width="24" height="8"/>
  <object id="133" x="272" y="152" width="16" height="8"/>
  <object id="134" x="520" y="152" width="8" height="48"/>
  <object id="135" x="272" y="160" width="8" height="48"/>
  <object id="136" x="528" y="192" width="8" height="64"/>
  <object id="137" x="200" y="200" width="72" height="8"/>
  <object id="138" x="200" y="208" width="8" height="48"/>
  <object id="139" x="1736" y="208" width="8" height="24"/>
  <object id="140" x="712" y="216" width="88" height="8"/>
  <object id="141" x="1808" y="216" width="8" height="200"/>
  <object id="142" x="568" y="224" width="152" height="8"/>
  <object id="143" x="792" y="224" width="8" height="80"/>
  <object id="144" x="1472" y="224" width="64" height="8"/>
  <object id="145" x="1744" y="224" width="8" height="104"/>
  <object id="146" x="568" y="232" width="8" height="96"/>
  <object id="147" x="704" y="232" width="16" height="40"/>
  <object id="148" x="1336" y="232" width="144" height="8"/>
  <object id="149" x="1528" y="232" width="8" height="16"/>
  <object id="150" x="1024" y="240" width="320" height="8"/>
  <object id="151" x="1464" y="240" width="16" height="64"/>
  <object id="152" x="1536" y="240" width="8" height="16"/>
  <object id="153" x="184" y="248" width="16" height="8"/>
  <object id="154" x="328" y="248" width="200" height="8"/>
  <object id="155" x="1024" y="248" width="8" height="56"/>
  <object id="156" x="1544" y="248" width="8" height="16"/>
  <object id="157" x="184" y="256" width="8" height="96"/>
  <object id="158" x="280" y="256" width="56" height="8"/>
  <object id="159" x="1552" y="256" width="48" height="8"/>
  <object id="160" x="1632" y="256" width="40" height="8"/>
  <object id="161" x="280" y="264" width="8" height="56"/>
  <object id="162" x="1592" y="264" width="8" height="24"/>
  <object id="163" x="1632" y="264" width="8" height="24"/>
  <object id="164" x="1664" y="264" width="64" height="8"/>
  <object id="165" x="1672" y="272" width="16" height="8"/>
  <object id="166" x="1720" y="272" width="8" height="72"/>
  <object id="167" x="1600" y="280" width="32" height="8"/>
  <object id="168" x="1608" y="288" width="16" height="8"/>
  <object id="169" x="288" y="296" width="24" height="8"/>
  <object id="170" x="800" y="296" width="224" height="8"/>
  <object id="171" x="288" y="304" width="8" height="16"/>
  <object id="172" x="304" y="304" width="24" height="8"/>
  <object id="173" x="320" y="312" width="24" height="8"/>
  <object id="174" x="336" y="320" width="216" height="8"/>
  <object id="175" x="560" y="320" width="8" height="16"/>
  <object id="176" x="1728" y="320" width="16" height="8"/>
  <object id="177" x="544" y="328" width="16" height="16"/>
  <object id="178" x="1728" y="328" width="8" height="16"/>
  <object id="179" x="176" y="336" width="8" height="128"/>
  <object id="180" x="1536" y="368" width="32" height="8"/>
  <object id="181" x="1528" y="376" width="16" height="8"/>
  <object id="182" x="1560" y="376" width="8" height="32"/>
  <object id="183" x="1528" y="384" width="8" height="16"/>
  <object id="184" x="1536" y="392" width="8" height="16"/>
  <object id="185" x="1544" y="400" width="16" height="8"/>
  <object id="186" x="1680" y="408" width="128" height="8"/>
  <object id="187" x="1680" y="416" width="8" height="144"/>
  <object id="188" x="592" y="424" width="72" height="8"/>
  <object id="189" x="736" y="424" width="72" height="8"/>
  <object id="190" x="880" y="424" width="72" height="8"/>
  <object id="191" x="1032" y="424" width="72" height="8"/>
  <object id="192" x="1192" y="424" width="64" height="8"/>
  <object id="193" x="592" y="432" width="8" height="200"/>
  <object id="194" x="656" y="432" width="8" height="240"/>
  <object id="195" x="736" y="432" width="8" height="240"/>
  <object id="196" x="800" y="432" width="8" height="192"/>
  <object id="197" x="880" y="432" width="8" height="240"/>
  <object id="198" x="944" y="432" width="8" height="200"/>
  <object id="199" x="1032" y="432" width="8" height="200"/>
  <object id="200" x="1096" y="432" width="8" height="240"/>
  <object id="201" x="1192" y="432" width="8" height="240"/>
  <object id="202" x="1248" y="432" width="8" height="192"/>
  <object id="203" x="184" y="456" width="168" height="8"/>
  <object id="204" x="344" y="464" width="8" height="40"/>
  <object id="205" x="352" y="496" width="32" height="8"/>
  <object id="206" x="376" y="504" width="8" height="32"/>
  <object id="207" x="104" y="520" width="128" height="8"/>
  <object id="208" x="104" y="528" width="8" height="240"/>
  <object id="209" x="224" y="528" width="152" height="8"/>
  <object id="210" x="688" y="528" width="32" height="8"/>
  <object id="211" x="832" y="528" width="32" height="8"/>
  <object id="212" x="976" y="528" width="32" height="8"/>
  <object id="213" x="1128" y="528" width="32" height="8"/>
  <object id="214" x="688" y="536" width="8" height="40"/>
  <object id="215" x="712" y="536" width="8" height="40"/>
  <object id="216" x="832" y="536" width="8" height="40"/>
  <object id="217" x="856" y="536" width="8" height="40"/>
  <object id="218" x="976" y="536" width="8" height="40"/>
  <object id="219" x="1000" y="536" width="8" height="40"/>
  <object id="220" x="1128" y="536" width="8" height="40"/>
  <object id="221" x="1152" y="536" width="8" height="40"/>
  <object id="222" x="1688" y="552" width="104" height="8"/>
  <object id="223" x="1784" y="560" width="8" height="120"/>
  <object id="224" x="696" y="568" width="16" height="8"/>
  <object id="225" x="840" y="568" width="16" height="8"/>
  <object id="226" x="984" y="568" width="16" height="8"/>
  <object id="227" x="1136" y="568" width="16" height="8"/>
  <object id="228" x="152" y="584" width="176" height="8"/>
  <object id="229" x="152" y="592" width="8" height="72"/>
  <object id="230" x="320" y="592" width="8" height="96"/>
  <object id="231" x="808" y="616" width="8" height="40"/>
  <object id="232" x="1256" y="616" width="8" height="56"/>
  <object id="233" x="584" y="624" width="8" height="32"/>
  <object id="234" x="952" y="624" width="8" height="32"/>
  <object id="235" x="1024" y="624" width="8" height="32"/>
  <object id="236" x="1184" y="624" width="8" height="32"/>
  <object id="237" x="592" y="648" width="8" height="24"/>
  <object id="238" x="800" y="648" width="8" height="24"/>
  <object id="239" x="944" y="648" width="8" height="24"/>
  <object id="240" x="1032" y="648" width="8" height="24"/>
  <object id="241" x="160" y="656" width="8" height="40"/>
  <object id="242" x="600" y="664" width="56" height="8"/>
  <object id="243" x="744" y="664" width="56" height="8"/>
  <object id="244" x="888" y="664" width="56" height="8"/>
  <object id="245" x="1040" y="664" width="56" height="8"/>
  <object id="246" x="1200" y="664" width="56" height="8"/>
  <object id="247" x="1792" y="672" width="72" height="8"/>
  <object id="248" x="312" y="680" width="8" height="32"/>
  <object id="249" x="1360" y="680" width="16" height="16"/>
  <object id="250" x="1856" y="680" width="8" height="56"/>
  <object id="251" x="168" y="688" width="32" height="8"/>
  <object id="252" x="1352" y="688" width="8" height="24"/>
  <object id="253" x="1376" y="688" width="8" height="32"/>
  <object id="254" x="192" y="696" width="24" height="8"/>
  <object id="255" x="1384" y="696" width="8" height="16"/>
  <object id="256" x="1576" y="696" width="32" height="8"/>
  <object id="257" x="208" y="704" width="8" height="24"/>
  <object id="258" x="264" y="704" width="48" height="8"/>
  <object id="259" x="1360" y="704" width="8" height="16"/>
  <object id="260" x="1576" y="704" width="8" height="16"/>
  <object id="261" x="1600" y="704" width="8" height="16"/>
  <object id="262" x="264" y="712" width="8" height="16"/>
  <object id="263" x="1368" y="712" width="8" height="8"/>
  <object id="264" x="1584" y="712" width="16" height="8"/>
  <object id="265" x="1704" y="712" width="32" height="8"/>
  <object id="266" x="216" y="720" width="48" height="8"/>
  <object id="267" x="1704" y="720" width="8" height="16"/>
  <object id="268" x="1728" y="720" width="8" height="16"/>
  <object id="269" x="1696" y="728" width="8" height="104"/>
  <object id="270" x="1736" y="728" width="120" height="8"/>
  <object id="271" x="112" y="760" width="208" height="8"/>
  <object id="272" x="312" y="768" width="8" height="56"/>
  <object id="273" x="1376" y="808" width="256" height="8"/>
  <object id="274" x="320" y="816" width="192" height="8"/>
  <object id="275" x="1376" y="816" width="8" height="80"/>
  <object id="276" x="1624" y="816" width="8" height="80"/>
  <object id="277" x="504" y="824" width="8" height="16"/>
  <object id="278" x="1704" y="824" width="104" height="8"/>
  <object id="279" x="512" y="832" width="64" height="8"/>
  <object id="280" x="1800" y="832" width="8" height="80"/>
  <object id="281" x="568" y="840" width="8" height="72"/>
  <object id="282" x="1384" y="888" width="120" height="8"/>
  <object id="283" x="1536" y="888" width="88" height="8"/>
  <object id="284" x="1496" y="896" width="8" height="16"/>
  <object id="285" x="1536" y="896" width="8" height="16"/>
  <object id="286" x="576" y="904" width="64" height="8"/>
  <object id="287" x="696" y="904" width="32" height="8"/>
  <object id="288" x="1504" y="904" width="32" height="8"/>
  <object id="289" x="1776" y="904" width="24" height="8"/>
  <object id="290" x="632" y="912" width="8" height="104"/>
  <object id="291" x="696" y="912" width="8" height="104"/>
  <object id="292" x="720" y="912" width="16" height="8"/>
  <object id="293" x="1192" y="912" width="32" height="8"/>
  <object id="294" x="1728" y="912" width="56" height="8"/>
  <object id="295" x="728" y="920" width="8" height="96"/>
  <object id="296" x="1192" y="920" width="8" height="96"/>
  <object id="297" x="1216" y="920" width="8" height="88"/>
  <object id="298" x="1704" y="920" width="32" height="8"/>
  <object id="299" x="1704" y="928" width="16" height="8"/>
  <object id="300" x="1704" y="936" width="8" height="72"/>
  <object id="301" x="800" y="960" width="40" height="8"/>
  <object id="302" x="992" y="960" width="40" height="8"/>
  <object id="303" x="800" y="968" width="8" height="48"/>
  <object id="304" x="832" y="968" width="8" height="64"/>
  <object id="305" x="992" y="968" width="8" height="64"/>
  <object id="306" x="1024" y="968" width="8" height="48"/>
  <object id="307" x="1224" y="1000" width="480" height="8"/>
  <object id="308" x="640" y="1008" width="56" height="8"/>
  <object id="309" x="736" y="1008" width="64" height="8"/>
  <object id="310" x="1032" y="1008" width="160" height="8"/>
  <object id="311" x="792" y="1024" width="40" height="8"/>
  <object id="312" x="1000" y="1024" width="40" height="8"/>
  <object id="313" x="792" y="1032" width="8" height="48"/>
  <object id="314" x="1032" y="1032" width="8" height="48"/>
  <object id="315" x="776" y="1072" width="16" height="8"/>
  <object id="316" x="800" y="1072" width="232" height="8"/>
 </objectgroup>
 <objectgroup id="346" name="overhead">
  <object id="317" x="350" y="206" width="36" height="52"><properties><property name="mask" value="mask_000.png"/></properties></object>
  <object id="318" x="278" y="230" width="52" height="28"><properties><property name="mask" value="mask_001.png"/></properties></object>
  <object id="319" x="598" y="398" width="60" height="28"><properties><property name="mask" value="mask_002.png"/></properties></object>
  <object id="320" x="742" y="398" width="68" height="28"><properties><property name="mask" value="mask_003.png"/></properties></object>
  <object id="321" x="886" y="398" width="68" height="28"><properties><property name="mask" value="mask_004.png"/></properties></object>
  <object id="322" x="1038" y="398" width="60" height="28"><properties><property name="mask" value="mask_005.png"/></properties></object>
  <object id="323" x="1190" y="398" width="68" height="28"><properties><property name="mask" value="mask_006.png"/></properties></object>
  <object id="324" x="350" y="438" width="44" height="68"><properties><property name="mask" value="mask_007.png"/></properties></object>
  <object id="325" x="246" y="446" width="44" height="12"><properties><property name="mask" value="mask_008.png"/></properties></object>
  <object id="326" x="318" y="446" width="20" height="12"><properties><property name="mask" value="mask_009.png"/></properties></object>
  <object id="327" x="1566" y="646" width="60" height="52"><properties><property name="mask" value="mask_010.png"/></properties></object>
  <object id="328" x="1742" y="670" width="68" height="68"><properties><property name="mask" value="mask_011.png"/></properties></object>
  <object id="329" x="294" y="750" width="20" height="20"><properties><property name="mask" value="mask_012.png"/></properties></object>
  <object id="330" x="366" y="790" width="140" height="36"><properties><property name="mask" value="mask_013.png"/></properties></object>
  <object id="331" x="1414" y="790" width="156" height="28"><properties><property name="mask" value="mask_014.png"/></properties></object>
  <object id="332" x="1582" y="798" width="36" height="20"><properties><property name="mask" value="mask_015.png"/></properties></object>
  <object id="333" x="542" y="814" width="20" height="28"><properties><property name="mask" value="mask_016.png"/></properties></object>
  <object id="334" x="574" y="838" width="84" height="76"><properties><property name="mask" value="mask_017.png"/></properties></object>
  <object id="335" x="1182" y="862" width="532" height="152"><properties><property name="mask" value="mask_018.png"/></properties></object>
  <object id="336" x="702" y="878" width="28" height="44"><properties><property name="mask" value="mask_019.png"/></properties></object>
  <object id="337" x="726" y="934" width="116" height="84"><properties><property name="mask" value="mask_020.png"/></properties></object>
  <object id="338" x="990" y="934" width="204" height="92"><properties><property name="mask" value="mask_021.png"/></properties></object>
  <object id="339" x="630" y="942" width="68" height="76"><properties><property name="mask" value="mask_022.png"/></properties></object>
 </objectgroup>
 <objectgroup id="347" name="spawn">
  <object id="340" name="player" x="919" y="1032"><point/></object>
  <object id="341" name="sasu" x="436" y="223"><point/></object>
  <object id="342" name="teamjang" x="1204" y="271"><point/></object>
  <object id="343" name="bujang" x="1758" y="587"><point/></object>
 </objectgroup>
</map>
