<?xml version="1.0" encoding="UTF-8"?>
<map version="1.10" tiledversion="1.12.2" orientation="orthogonal" renderorder="right-down" width="80" height="45" tilewidth="24" tileheight="24" infinite="0" nextlayerid="7" nextobjectid="111">
 <imagelayer id="2" name="background" locked="1">
  <image source="작업순서_기계가공·금속가공작업.png" width="1920" height="1080"/>
 </imagelayer>
 <objectgroup id="4" name="play_bounds" locked="1">
  <object id="63" x="70" y="80" width="1780" height="656"/>
 </objectgroup>
 <objectgroup id="5" name="walkable" locked="1">
  <object id="64" x="70" y="80" width="1780" height="656"/>
 </objectgroup>
 <objectgroup id="3" name="collision" locked="1">
  <object id="1" x="125.272" y="167.029" width="48.0209" height="208.786"/>
  <object id="2" x="82.4706" y="460.374" width="75.1631" height="289.169"/>
  <object id="3" x="55.3284" y="529.274" width="35.4937" height="167.029"/>
  <object id="4" x="36.5376" y="921.792" width="67.8556" height="56.3723"/>
  <object id="5" x="103.349" y="953.11" width="85.6024" height="38.6255"/>
  <object id="6" x="161.809" y="992.779" width="26.0983" height="10.4393"/>
  <object id="7" x="27.1422" y="931.187" width="11.4833" height="45.933"/>
  <object id="8" x="50.1087" y="904.045" width="48.0209" height="21.9226"/>
  <object id="9" x="228.621" y="915.528" width="247.412" height="110.657"/>
  <object id="10" x="115.876" y="746.411" width="28.1862" height="73.0753"/>
  <object id="11" x="140.931" y="777.729" width="26.0983" height="73.0753"/>
  <object id="12" x="167.029" y="800.696" width="20.8786" height="78.2949"/>
  <object id="13" x="183.732" y="835.146" width="38.6255" height="56.3723"/>
  <object id="14" x="212.962" y="843.497" width="288.125" height="66.8117"/>
  <object id="15" x="645.15" y="846.629" width="572.075" height="60.5481"/>
  <object id="16" x="680.644" y="903.001" width="53.2405" height="82.4706"/>
  <object id="17" x="745.368" y="912.397" width="87.6903" height="123.184"/>
  <object id="18" x="861.244" y="906.133" width="78.2949" height="131.535"/>
  <object id="19" x="967.725" y="901.957" width="76.207" height="131.535"/>
  <object id="20" x="1085.69" y="909.265" width="76.207" height="113.789"/>
  <object id="21" x="1342.5" y="846.629" width="93.9539" height="70.9874"/>
  <object id="22" x="1373.81" y="934.319" width="144.063" height="98.1296"/>
  <object id="23" x="1538.76" y="949.978" width="56.3723" height="77.251"/>
  <object id="24" x="1499.09" y="812.179" width="143.019" height="79.3388"/>
  <object id="25" x="1704.74" y="810.091" width="56.3723" height="65.7677"/>
  <object id="26" x="1778.86" y="803.828" width="41.7573" height="91.866"/>
  <object id="27" x="1724.58" y="872.727" width="35.4937" height="29.2301"/>
  <object id="28" x="1712.05" y="952.066" width="126.316" height="80.3828"/>
  <object id="29" x="1850.89" y="929.1" width="9.39539" height="119.008"/>
  <object id="30" x="1813.31" y="349.717" width="94.9978" height="485.428"/>
  <object id="31" x="1891.61" y="985.472" width="26.0983" height="41.7573"/>
  <object id="32" x="1157.72" y="680.644" width="100.217" height="80.3828"/>
  <object id="33" x="872.727" y="656.633" width="82.4706" height="110.657"/>
  <object id="34" x="961.462" y="663.941" width="103.349" height="106.481"/>
  <object id="35" x="1123.27" y="457.242" width="123.184" height="120.052"/>
  <object id="36" x="1251.67" y="506.307" width="19.8347" height="59.5041"/>
  <object id="37" x="1348.76" y="454.11" width="81.4267" height="75.1631"/>
  <object id="38" x="1346.67" y="528.23" width="85.6024" height="91.866"/>
  <object id="39" x="917.616" y="447.847" width="25.0544" height="31.318"/>
  <object id="40" x="910.309" y="484.385" width="59.5041" height="6.26359"/>
  <object id="41" x="905.089" y="503.175" width="59.5041" height="76.207"/>
  <object id="42" x="1023.05" y="446.803" width="22.9665" height="35.4937"/>
  <object id="43" x="1007.39" y="460.374" width="20.8786" height="31.318"/>
  <object id="44" x="1019.92" y="493.78" width="37.5816" height="79.3388"/>
  <object id="45" x="1055.42" y="491.692" width="13.5711" height="62.6359"/>
  <object id="46" x="993.823" y="503.175" width="30.274" height="51.1527"/>
  <object id="47" x="908.221" y="306.916" width="170.161" height="79.3388"/>
  <object id="48" x="985.472" y="227.577" width="39.6694" height="53.2405"/>
  <object id="49" x="1052.28" y="230.709" width="44.8891" height="52.1966"/>
  <object id="50" x="1122.23" y="231.753" width="60.5481" height="72.0313"/>
  <object id="51" x="1215.14" y="271.422" width="156.59" height="60.5481"/>
  <object id="52" x="961.462" y="164.941" width="495.868" height="61.592"/>
  <object id="53" x="1403.04" y="212.962" width="21.9226" height="123.184"/>
  <object id="54" x="1486.56" y="271.422" width="296.477" height="44.8891"/>
  <object id="55" x="1471.94" y="362.244" width="34.4498" height="52.1966"/>
  <object id="56" x="1555.46" y="378.947" width="248.456" height="42.8012"/>
  <object id="57" x="1781.99" y="275.598" width="24.0104" height="112.745"/>
  <object id="58" x="1469.86" y="164.941" width="13.5711" height="49.0648"/>
  <object id="59" x="1481.34" y="181.644" width="51.1527" height="28.1862"/>
  <object id="60" x="1599.3" y="177.468" width="132.579" height="29.2301"/>
  <object id="61" x="1793.48" y="178.512" width="29.2301" height="21.9226"/>
  <object id="62" x="1807.05" y="66.8117" width="22.9665" height="128.404"/>
  <object id="65" x="1465.68" y="78.2949" width="18.7908" height="84.5585"/>
  <object id="66" x="1674.47" y="80.3828" width="13.5711" height="88.7342"/>
  <object id="67" x="1609.74" y="74.1192" width="16.7029" height="50.1087"/>
  <object id="68" x="1483.43" y="100.217" width="33.4058" height="51.1527"/>
  <object id="69" x="186.864" y="167.029" width="580.426" height="18.7908"/>
  <object id="70" x="767.29" y="132.579" width="13.5711" height="46.9769"/>
  <object id="71" x="779.817" y="135.711" width="2.08786" height="16.7029"/>
  <object id="72" x="931.187" y="132.579" width="19.8347" height="109.613"/>
  <object id="73" x="757.895" y="173.293" width="25.0544" height="60.5481"/>
  <object id="74" x="191.04" y="184.776" width="586.69" height="77.251"/>
  <object id="75" x="225.489" y="264.115" width="266.203" height="96.0418"/>
  <object id="76" x="518.834" y="257.851" width="29.2301" height="81.4267"/>
  <object id="77" x="595.041" y="317.355" width="175.381" height="67.8556"/>
  <object id="78" x="230.709" y="464.55" width="165.985" height="100.217"/>
  <object id="79" x="446.803" y="463.506" width="141.975" height="103.349"/>
  <object id="80" x="650.37" y="463.506" width="146.151" height="101.261"/>
  <object id="81" x="481.253" y="663.941" width="294.389" height="90.8221"/>
  <object id="82" x="244.28" y="649.326" width="38.6255" height="127.36"/>
  <object id="83" x="288.125" y="674.38" width="98.1296" height="91.866"/>
  <object id="84" x="1514.75" y="494.824" width="133.623" height="90.8221"/>
  <object id="85" x="1650.46" y="501.087" width="68.8995" height="38.6255"/>
  <object id="86" x="1778.86" y="439.495" width="31.318" height="103.349"/>
  <object id="87" x="1778.86" y="588.778" width="26.0983" height="61.592"/>
  <object id="88" x="1514.75" y="702.566" width="45.933" height="41.7573"/>
  <object id="89" x="1562.77" y="638.886" width="27.1422" height="96.0418"/>
  <object id="90" x="1662.98" y="646.194" width="109.613" height="46.9769"/>
  <object id="91" x="1756.94" y="686.907" width="7.30753" height="53.2405"/>
  <object id="92" x="1584.69" y="651.414" width="15.659" height="44.8891"/>
  <object id="93" x="1341.45" y="710.918" width="46.9769" height="38.6255"/>
  <object id="94" x="1390.52" y="683.776" width="50.1087" height="60.5481"/>
  <object id="95" x="1678.64" y="553.284" width="24.0104" height="14.6151"/>
  <object id="96" x="1666.12" y="591.91" width="56.3723" height="29.2301"/>
  <object id="97" x="1690.13" y="571.031" width="5.21966" height="19.8347"/>
  <object id="98" x="1168.16" y="72.0313" width="107.525" height="53.2405"/>
  <object id="99" x="1123.27" y="73.0753" width="39.6694" height="53.2405"/>
  <object id="100" x="1055.42" y="69.9435" width="76.207" height="39.6694"/>
  <object id="101" x="1009.48" y="78.2949" width="64.7238" height="19.8347"/>
  <object id="102" x="1270.47" y="83.5146" width="93.9539" height="25.0544"/>
  <object id="103" x="1418.7" y="115.876" width="42.8012" height="59.5041"/>
  <object id="104" x="751.631" y="84.5585" width="9.39539" height="87.6903"/>
  <object id="105" x="59.5041" y="242.192" width="63.6799" height="44.8891"/>
 </objectgroup>
 <objectgroup id="6" name="spawns">
  <object id="106" name="player" x="556.416" y="437.408">
   <point/>
  </object>
  <object id="107" name="사수" x="844.541" y="434.276">
   <point/>
  </object>
  <object id="108" name="팀장" x="1093" y="653.502">
   <point/>
  </object>
  <object id="109" name="부장" x="838.278" y="622.184">
   <point/>
  </object>
 </objectgroup>
</map>
