<?xml version="1.0" encoding="UTF-8"?>
<map version="1.10" tiledversion="1.12.2" orientation="orthogonal" renderorder="right-down" width="80" height="45" tilewidth="24" tileheight="24" infinite="0" nextlayerid="7" nextobjectid="65">
 <imagelayer id="2" name="background" locked="1">
  <image source="호텔 하우스 키핑 관리 공간.png" width="1920" height="1080"/>
 </imagelayer>
 <objectgroup id="3" name="player_bounds" locked="1">
  <object id="1" x="70" y="80" width="1780" height="656"/>
 </objectgroup>
 <objectgroup id="4" name="walkable" locked="1">
  <object id="3" x="70" y="80" width="1780" height="656"/>
 </objectgroup>
 <objectgroup id="5" name="collision" locked="1">
  <object id="4" x="144.123" y="79.8222" width="417.958" height="77.6049"/>
  <object id="5" x="570.95" y="82.0394" width="43.237" height="113.081"/>
  <object id="6" x="674.054" y="85.3654" width="59.8666" height="47.6716"/>
  <object id="7" x="723.943" y="86.474" width="16.6296" height="343.679"/>
  <object id="8" x="684.032" y="138.58" width="46.5629" height="94.2345"/>
  <object id="9" x="547.669" y="145.232" width="15.521" height="169.622"/>
  <object id="10" x="553.212" y="274.943" width="42.1284" height="44.3456"/>
  <object id="11" x="654.098" y="288.247" width="76.4962" height="34.3679"/>
  <object id="12" x="270.508" y="155.21" width="131.928" height="151.884"/>
  <object id="13" x="94.2345" y="116.407" width="16.6296" height="436.805"/>
  <object id="14" x="114.19" y="113.081" width="34.3679" height="60.9753"/>
  <object id="15" x="120.842" y="229.489" width="34.3679" height="46.5629"/>
  <object id="16" x="120.842" y="289.355" width="35.4765" height="46.5629"/>
  <object id="17" x="168.513" y="364.743" width="63.1925" height="57.6493"/>
  <object id="18" x="115.299" y="415.74" width="50.9975" height="34.3679"/>
  <object id="19" x="222.837" y="407.98" width="35.4765" height="38.8024"/>
  <object id="20" x="452.326" y="396.893" width="120.842" height="56.5407"/>
  <object id="21" x="743.898" y="95.3431" width="443.456" height="87.5826"/>
  <object id="22" x="1150.77" y="212.859" width="36.5852" height="96.4518"/>
  <object id="23" x="842.567" y="256.096" width="228.38" height="134.146"/>
  <object id="24" x="737.246" y="292.681" width="25.4987" height="143.015"/>
  <object id="25" x="746.115" y="191.795" width="18.8469" height="28.8247"/>
  <object id="26" x="1181.81" y="88.6913" width="22.1728" height="391.35"/>
  <object id="27" x="1349.22" y="88.6913" width="15.521" height="217.294"/>
  <object id="28" x="1311.52" y="276.052" width="58.758" height="50.9975"/>
  <object id="29" x="1209.53" y="279.378" width="37.6938" height="41.0197"/>
  <object id="30" x="1202.88" y="131.928" width="44.3456" height="106.43"/>
  <object id="31" x="1375.82" y="79.8222" width="75.3876" height="95.3431"/>
  <object id="32" x="1195.12" y="58.758" width="577.602" height="22.1728"/>
  <object id="33" x="1464.51" y="83.1481" width="300.442" height="62.0839"/>
  <object id="34" x="1522.16" y="149.667" width="111.973" height="149.667"/>
  <object id="35" x="1654.09" y="146.341" width="24.3901" height="27.716"/>
  <object id="36" x="1768.28" y="116.407" width="42.1284" height="14.4123"/>
  <object id="37" x="1803.76" y="123.059" width="17.7383" height="362.526"/>
  <object id="38" x="1252.76" y="457.869" width="552.103" height="24.3901"/>
  <object id="39" x="1685.13" y="350.331" width="60.9753" height="103.104"/>
  <object id="40" x="1764.96" y="338.136" width="36.5852" height="50.9975"/>
  <object id="41" x="1743.89" y="232.815" width="64.3012" height="90.9086"/>
  <object id="42" x="1354.76" y="403.545" width="155.21" height="48.7802"/>
  <object id="43" x="1398" y="365.852" width="28.8247" height="43.237"/>
  <object id="44" x="111.973" y="461.195" width="549.886" height="22.1728"/>
  <object id="45" x="804.873" y="462.303" width="335.918" height="21.0642"/>
  <object id="46" x="141.906" y="505.54" width="118.625" height="33.2592"/>
  <object id="47" x="508.866" y="512.192" width="35.4765" height="24.3901"/>
  <object id="48" x="79.8222" y="557.646" width="524.387" height="144.123"/>
  <object id="49" x="644.12" y="531.039" width="26.6074" height="41.0197"/>
  <object id="50" x="800.439" y="507.758" width="47.6716" height="41.0197"/>
  <object id="51" x="793.787" y="557.646" width="203.99" height="70.953"/>
  <object id="52" x="970.061" y="514.409" width="119.733" height="26.6074"/>
  <object id="53" x="992.234" y="583.145" width="338.136" height="82.0394"/>
  <object id="54" x="1273.83" y="525.496" width="95.3431" height="24.3901"/>
  <object id="55" x="1015.52" y="564.298" width="843.676" height="23.2815"/>
  <object id="56" x="1369.17" y="588.688" width="219.511" height="60.9753"/>
  <object id="57" x="1604.2" y="604.209" width="235.032" height="95.3431"/>
  <object id="58" x="89.7999" y="128.602" width="31.0419" height="444.565"/>
 </objectgroup>
 <objectgroup id="6" name="spawns">
  <object id="61" name="player" x="1296" y="395.785">
   <point/>
  </object>
  <object id="62" name="사수" x="749.441" y="535.474">
   <point/>
  </object>
  <object id="63" name="부장" x="490.019" y="328.158">
   <point/>
  </object>
  <object id="64" name="팀장" x="1566.51" y="527.713">
   <point/>
  </object>
 </objectgroup>
</map>
