<?xml version="1.0" encoding="UTF-8"?>
<map version="1.10" tiledversion="1.12.2" orientation="orthogonal" renderorder="right-down" width="240" height="135" tilewidth="8" tileheight="8" infinite="0" nextlayerid="99" nextobjectid="165">
 <imagelayer id="90" name="background">
  <image source="yg-03.png" width="1920" height="1080"/>
 </imagelayer>
 <objectgroup id="164" name="walkable">
  <object id="1" x="1128" y="112" width="96" height="672"/>
  <object id="2" x="264" y="120" width="232" height="96"/>
  <object id="3" x="560" y="120" width="88" height="672"/>
  <object id="4" x="544" y="128" width="16" height="664"/>
  <object id="5" x="96" y="136" width="168" height="80"/>
  <object id="6" x="496" y="152" width="48" height="64"/>
  <object id="7" x="1424" y="168" width="80" height="80"/>
  <object id="8" x="1648" y="168" width="32" height="352"/>
  <object id="9" x="1224" y="176" width="48" height="608"/>
  <object id="10" x="1272" y="192" width="152" height="56"/>
  <object id="11" x="1504" y="192" width="144" height="56"/>
  <object id="12" x="1680" y="200" width="64" height="320"/>
  <object id="13" x="96" y="216" width="24" height="176"/>
  <object id="14" x="648" y="216" width="352" height="56"/>
  <object id="15" x="1000" y="224" width="128" height="560"/>
  <object id="16" x="1272" y="248" width="32" height="16"/>
  <object id="17" x="1608" y="248" width="40" height="16"/>
  <object id="18" x="1272" y="264" width="8" height="520"/>
  <object id="19" x="1632" y="264" width="16" height="256"/>
  <object id="20" x="1744" y="264" width="80" height="112"/>
  <object id="21" x="648" y="272" width="80" height="520"/>
  <object id="22" x="984" y="272" width="16" height="552"/>
  <object id="23" x="88" y="328" width="8" height="24"/>
  <object id="24" x="120" y="328" width="104" height="56"/>
  <object id="25" x="280" y="328" width="112" height="120"/>
  <object id="26" x="448" y="328" width="96" height="464"/>
  <object id="27" x="224" y="352" width="56" height="96"/>
  <object id="28" x="392" y="352" width="56" height="384"/>
  <object id="29" x="1608" y="352" width="24" height="168"/>
  <object id="30" x="1280" y="360" width="32" height="424"/>
  <object id="31" x="824" y="376" width="112" height="448"/>
  <object id="32" x="1744" y="376" width="40" height="456"/>
  <object id="33" x="120" y="384" width="32" height="8"/>
  <object id="34" x="208" y="384" width="16" height="352"/>
  <object id="35" x="728" y="400" width="96" height="656"/>
  <object id="36" x="1312" y="416" width="296" height="104"/>
  <object id="37" x="936" y="432" width="48" height="392"/>
  <object id="38" x="224" y="448" width="24" height="288"/>
  <object id="39" x="312" y="448" width="80" height="288"/>
  <object id="40" x="1784" y="448" width="8" height="384"/>
  <object id="41" x="1792" y="464" width="32" height="152"/>
  <object id="42" x="1312" y="520" width="168" height="264"/>
  <object id="43" x="248" y="584" width="64" height="152"/>
  <object id="44" x="96" y="592" width="112" height="72"/>
  <object id="45" x="1792" y="616" width="16" height="216"/>
  <object id="46" x="1480" y="624" width="64" height="160"/>
  <object id="47" x="1600" y="624" width="144" height="160"/>
  <object id="48" x="1544" y="640" width="56" height="144"/>
  <object id="49" x="136" y="664" width="72" height="72"/>
  <object id="50" x="1808" y="696" width="16" height="136"/>
  <object id="51" x="1000" y="784" width="104" height="40"/>
  <object id="52" x="1432" y="784" width="88" height="112"/>
  <object id="53" x="1736" y="784" width="8" height="112"/>
  <object id="54" x="448" y="792" width="48" height="40"/>
  <object id="55" x="688" y="792" width="40" height="72"/>
  <object id="56" x="1016" y="824" width="88" height="8"/>
  <object id="57" x="448" y="832" width="32" height="32"/>
  <object id="58" x="1016" y="832" width="72" height="224"/>
  <object id="59" x="1424" y="832" width="8" height="176"/>
  <object id="60" x="1520" y="832" width="216" height="64"/>
  <object id="61" x="1744" y="832" width="16" height="64"/>
  <object id="62" x="704" y="864" width="24" height="192"/>
  <object id="63" x="1376" y="896" width="48" height="112"/>
  <object id="64" x="1432" y="896" width="64" height="112"/>
  <object id="65" x="1088" y="904" width="8" height="152"/>
  <object id="66" x="1120" y="904" width="232" height="152"/>
  <object id="67" x="1096" y="912" width="24" height="144"/>
  <object id="68" x="1352" y="920" width="24" height="136"/>
  <object id="69" x="824" y="928" width="40" height="128"/>
  <object id="70" x="976" y="928" width="40" height="128"/>
  <object id="71" x="120" y="944" width="104" height="80"/>
  <object id="72" x="280" y="944" width="176" height="104"/>
  <object id="73" x="864" y="944" width="112" height="112"/>
  <object id="74" x="224" y="968" width="56" height="80"/>
  <object id="75" x="456" y="1008" width="88" height="48"/>
  <object id="76" x="608" y="1008" width="96" height="48"/>
  <object id="77" x="1376" y="1008" width="8" height="48"/>
  <object id="78" x="136" y="1024" width="88" height="24"/>
  <object id="79" x="544" y="1024" width="64" height="32"/>
  <object id="80" x="408" y="1048" width="48" height="8"/>
 </objectgroup>
 <objectgroup id="165" name="collision">
  <object id="81" x="0" y="0" width="1920" height="112"/>
  <object id="82" x="0" y="112" width="1128" height="8"/>
  <object id="83" x="1224" y="112" width="696" height="56"/>
  <object id="84" x="0" y="120" width="264" height="16"/>
  <object id="85" x="496" y="120" width="64" height="8"/>
  <object id="86" x="648" y="120" width="480" height="96"/>
  <object id="87" x="496" y="128" width="48" height="24"/>
  <object id="88" x="0" y="136" width="96" height="944"/>
  <object id="89" x="1224" y="168" width="200" height="8"/>
  <object id="90" x="1504" y="168" width="144" height="24"/>
  <object id="91" x="1680" y="168" width="240" height="32"/>
  <object id="92" x="1272" y="176" width="152" height="16"/>
  <object id="93" x="1744" y="200" width="176" height="64"/>
  <object id="94" x="120" y="216" width="424" height="112"/>
  <object id="95" x="1016" y="216" width="112" height="8"/>
  <object id="96" x="1304" y="248" width="304" height="112"/>
  <object id="97" x="1280" y="264" width="24" height="96"/>
  <object id="98" x="1608" y="264" width="24" height="88"/>
  <object id="99" x="1824" y="264" width="96" height="816"/>
  <object id="100" x="728" y="272" width="256" height="104"/>
  <object id="101" x="224" y="328" width="56" height="24"/>
  <object id="102" x="392" y="328" width="56" height="24"/>
  <object id="103" x="1312" y="360" width="296" height="56"/>
  <object id="104" x="728" y="376" width="96" height="24"/>
  <object id="105" x="936" y="376" width="48" height="56"/>
  <object id="106" x="1784" y="376" width="40" height="88"/>
  <object id="107" x="96" y="392" width="112" height="200"/>
  <object id="108" x="248" y="448" width="64" height="136"/>
  <object id="109" x="1480" y="520" width="264" height="104"/>
  <object id="110" x="1808" y="616" width="16" height="72"/>
  <object id="111" x="1544" y="624" width="56" height="16"/>
  <object id="112" x="96" y="664" width="40" height="280"/>
  <object id="113" x="136" y="736" width="312" height="208"/>
  <object id="114" x="1104" y="784" width="328" height="48"/>
  <object id="115" x="1520" y="784" width="216" height="48"/>
  <object id="116" x="496" y="792" width="192" height="216"/>
  <object id="117" x="824" y="824" width="192" height="104"/>
  <object id="118" x="480" y="832" width="16" height="176"/>
  <object id="119" x="1088" y="832" width="336" height="64"/>
  <object id="120" x="1760" y="832" width="64" height="248"/>
  <object id="121" x="448" y="864" width="32" height="80"/>
  <object id="122" x="688" y="864" width="16" height="144"/>
  <object id="123" x="1088" y="896" width="288" height="8"/>
  <object id="124" x="1496" y="896" width="264" height="184"/>
  <object id="125" x="1088" y="904" width="32" height="8"/>
  <object id="126" x="1352" y="904" width="24" height="16"/>
  <object id="127" x="864" y="928" width="112" height="16"/>
  <object id="128" x="96" y="944" width="24" height="136"/>
  <object id="129" x="224" y="944" width="56" height="24"/>
  <object id="130" x="464" y="944" width="16" height="64"/>
  <object id="131" x="456" y="960" width="8" height="48"/>
  <object id="132" x="544" y="1008" width="64" height="16"/>
  <object id="133" x="1384" y="1008" width="112" height="72"/>
  <object id="134" x="120" y="1024" width="16" height="56"/>
  <object id="135" x="136" y="1048" width="272" height="32"/>
  <object id="136" x="408" y="1056" width="976" height="24"/>
 </objectgroup>
 <objectgroup id="166" name="overhead">
  <object id="137" x="123" y="151" width="420" height="86"><properties><property name="mask" value="mask_000.png"/></properties></object>
  <object id="138" x="1333" y="210" width="62" height="48"><properties><property name="mask" value="mask_001.png"/></properties></object>
  <object id="139" x="1417" y="210" width="62" height="46"><properties><property name="mask" value="mask_002.png"/></properties></object>
  <object id="140" x="1501" y="210" width="59" height="50"><properties><property name="mask" value="mask_003.png"/></properties></object>
  <object id="141" x="834" y="225" width="67" height="48"><properties><property name="mask" value="mask_004.png"/></properties></object>
  <object id="142" x="1781" y="326" width="54" height="71"><properties><property name="mask" value="mask_005.png"/></properties></object>
  <object id="143" x="1677" y="463" width="57" height="67"><properties><property name="mask" value="mask_006.png"/></properties></object>
  <object id="144" x="1525" y="484" width="146" height="42"><properties><property name="mask" value="mask_007.png"/></properties></object>
  <object id="145" x="1680" y="496" width="37" height="29"><properties><property name="mask" value="mask_008.png"/></properties></object>
  <object id="146" x="1790" y="562" width="52" height="78"><properties><property name="mask" value="mask_009.png"/></properties></object>
  <object id="147" x="89" y="596" width="50" height="96"><properties><property name="mask" value="mask_010.png"/></properties></object>
  <object id="148" x="150" y="678" width="292" height="68"><properties><property name="mask" value="mask_011.png"/></properties></object>
  <object id="149" x="495" y="701" width="194" height="108"><properties><property name="mask" value="mask_012.png"/></properties></object>
  <object id="150" x="1104" y="701" width="325" height="102"><properties><property name="mask" value="mask_013.png"/></properties></object>
  <object id="151" x="1544" y="712" width="194" height="86"><properties><property name="mask" value="mask_014.png"/></properties></object>
  <object id="152" x="1521" y="747" width="13" height="51"><properties><property name="mask" value="mask_015.png"/></properties></object>
  <object id="153" x="1750" y="760" width="60" height="100"><properties><property name="mask" value="mask_016.png"/></properties></object>
  <object id="154" x="832" y="779" width="174" height="61"><properties><property name="mask" value="mask_017.png"/></properties></object>
  <object id="155" x="1494" y="840" width="244" height="66"><properties><property name="mask" value="mask_018.png"/></properties></object>
  <object id="156" x="1393" y="996" width="57" height="21"><properties><property name="mask" value="mask_019.png"/></properties></object>
  <object id="157" x="1451" y="997" width="31" height="26"><properties><property name="mask" value="mask_020.png"/></properties></object>
 </objectgroup>
 <objectgroup id="167" name="spawn">
  <object id="158" name="player" x="1012" y="644"><point/></object>
  <object id="159" name="bujang" x="780" y="244"><point/></object>
  <object id="160" name="teamjang" x="1644" y="660"><point/></object>
  <object id="161" name="sasu" x="356" y="356"><point/></object>
  <object id="162" name="npc4" x="316" y="988"><point/></object>
  <object id="163" name="npc5" x="644" y="1036"><point/></object>
 </objectgroup>
</map>
