<?xml version="1.0" encoding="UTF-8"?>
<map version="1.10" tiledversion="1.12.2" orientation="orthogonal" renderorder="right-down" width="240" height="135" tilewidth="8" tileheight="8" infinite="0" nextlayerid="99" nextobjectid="335">
 <imagelayer id="90" name="background">
  <image source="sns-01.png" width="1920" height="1080"/>
 </imagelayer>
 <objectgroup id="334" name="walkable">
  <object id="1" x="432" y="144" width="160" height="72"/>
  <object id="2" x="752" y="144" width="440" height="72"/>
  <object id="3" x="592" y="160" width="160" height="80"/>
  <object id="4" x="1352" y="200" width="88" height="528"/>
  <object id="5" x="456" y="216" width="136" height="296"/>
  <object id="6" x="752" y="216" width="424" height="16"/>
  <object id="7" x="752" y="232" width="408" height="8"/>
  <object id="8" x="592" y="240" width="56" height="24"/>
  <object id="9" x="1096" y="240" width="64" height="344"/>
  <object id="10" x="1160" y="248" width="24" height="336"/>
  <object id="11" x="440" y="256" width="16" height="248"/>
  <object id="12" x="432" y="264" width="8" height="240"/>
  <object id="13" x="592" y="264" width="48" height="776"/>
  <object id="14" x="1184" y="264" width="24" height="320"/>
  <object id="15" x="1464" y="264" width="352" height="112"/>
  <object id="16" x="392" y="272" width="40" height="232"/>
  <object id="17" x="1440" y="288" width="24" height="88"/>
  <object id="18" x="1816" y="288" width="56" height="56"/>
  <object id="19" x="1208" y="304" width="8" height="736"/>
  <object id="20" x="1344" y="304" width="8" height="680"/>
  <object id="21" x="272" y="312" width="48" height="192"/>
  <object id="22" x="352" y="312" width="40" height="192"/>
  <object id="23" x="320" y="320" width="16" height="184"/>
  <object id="24" x="336" y="328" width="16" height="176"/>
  <object id="25" x="792" y="336" width="152" height="208"/>
  <object id="26" x="1216" y="336" width="128" height="648"/>
  <object id="27" x="1816" y="344" width="16" height="72"/>
  <object id="28" x="640" y="360" width="88" height="224"/>
  <object id="29" x="1016" y="360" width="80" height="184"/>
  <object id="30" x="208" y="368" width="64" height="88"/>
  <object id="31" x="728" y="376" width="8" height="208"/>
  <object id="32" x="784" y="376" width="8" height="608"/>
  <object id="33" x="1008" y="376" width="8" height="168"/>
  <object id="34" x="1440" y="376" width="8" height="352"/>
  <object id="35" x="1720" y="376" width="96" height="8"/>
  <object id="36" x="944" y="384" width="16" height="160"/>
  <object id="37" x="1728" y="384" width="88" height="16"/>
  <object id="38" x="736" y="392" width="48" height="192"/>
  <object id="39" x="960" y="392" width="48" height="152"/>
  <object id="40" x="1776" y="400" width="40" height="16"/>
  <object id="41" x="256" y="456" width="16" height="48"/>
  <object id="42" x="1504" y="488" width="56" height="240"/>
  <object id="43" x="1448" y="504" width="56" height="224"/>
  <object id="44" x="1832" y="504" width="48" height="352"/>
  <object id="45" x="504" y="512" width="88" height="288"/>
  <object id="46" x="1560" y="528" width="8" height="200"/>
  <object id="47" x="1616" y="536" width="64" height="192"/>
  <object id="48" x="792" y="544" width="24" height="440"/>
  <object id="49" x="1088" y="544" width="8" height="440"/>
  <object id="50" x="1680" y="544" width="16" height="184"/>
  <object id="51" x="208" y="552" width="56" height="248"/>
  <object id="52" x="1568" y="552" width="48" height="176"/>
  <object id="53" x="200" y="568" width="8" height="232"/>
  <object id="54" x="192" y="576" width="8" height="224"/>
  <object id="55" x="1696" y="576" width="80" height="152"/>
  <object id="56" x="184" y="584" width="8" height="216"/>
  <object id="57" x="496" y="584" width="8" height="216"/>
  <object id="58" x="640" y="584" width="64" height="456"/>
  <object id="59" x="768" y="584" width="16" height="400"/>
  <object id="60" x="1096" y="584" width="40" height="400"/>
  <object id="61" x="1200" y="584" width="8" height="456"/>
  <object id="62" x="176" y="592" width="8" height="208"/>
  <object id="63" x="168" y="608" width="8" height="192"/>
  <object id="64" x="160" y="616" width="8" height="200"/>
  <object id="65" x="488" y="616" width="8" height="184"/>
  <object id="66" x="1776" y="616" width="56" height="168"/>
  <object id="67" x="152" y="624" width="8" height="248"/>
  <object id="68" x="264" y="624" width="48" height="176"/>
  <object id="69" x="312" y="632" width="8" height="168"/>
  <object id="70" x="144" y="640" width="8" height="232"/>
  <object id="71" x="320" y="640" width="8" height="160"/>
  <object id="72" x="400" y="640" width="88" height="160"/>
  <object id="73" x="136" y="648" width="8" height="224"/>
  <object id="74" x="128" y="656" width="8" height="216"/>
  <object id="75" x="328" y="664" width="72" height="136"/>
  <object id="76" x="120" y="672" width="8" height="200"/>
  <object id="77" x="112" y="680" width="8" height="192"/>
  <object id="78" x="104" y="688" width="8" height="184"/>
  <object id="79" x="1064" y="712" width="24" height="272"/>
  <object id="80" x="816" y="720" width="32" height="264"/>
  <object id="81" x="856" y="720" width="184" height="264"/>
  <object id="82" x="1056" y="720" width="8" height="264"/>
  <object id="83" x="1352" y="728" width="24" height="256"/>
  <object id="84" x="1704" y="728" width="72" height="56"/>
  <object id="85" x="48" y="736" width="56" height="136"/>
  <object id="86" x="704" y="752" width="64" height="232"/>
  <object id="87" x="848" y="752" width="8" height="232"/>
  <object id="88" x="1040" y="752" width="16" height="232"/>
  <object id="89" x="1136" y="752" width="64" height="288"/>
  <object id="90" x="1704" y="784" width="56" height="128"/>
  <object id="91" x="1808" y="784" width="24" height="72"/>
  <object id="92" x="544" y="800" width="48" height="240"/>
  <object id="93" x="1760" y="840" width="16" height="56"/>
  <object id="94" x="1696" y="848" width="8" height="200"/>
  <object id="95" x="1376" y="856" width="104" height="128"/>
  <object id="96" x="1544" y="864" width="152" height="120"/>
  <object id="97" x="1480" y="880" width="8" height="104"/>
  <object id="98" x="136" y="896" width="272" height="88"/>
  <object id="99" x="504" y="896" width="40" height="144"/>
  <object id="100" x="1536" y="896" width="8" height="88"/>
  <object id="101" x="1488" y="904" width="48" height="80"/>
  <object id="102" x="408" y="912" width="96" height="72"/>
  <object id="103" x="1704" y="912" width="24" height="136"/>
  <object id="104" x="128" y="920" width="8" height="64"/>
  <object id="105" x="80" y="928" width="48" height="88"/>
  <object id="106" x="48" y="936" width="32" height="112"/>
  <object id="107" x="1832" y="944" width="48" height="104"/>
  <object id="108" x="1816" y="960" width="16" height="88"/>
  <object id="109" x="1800" y="968" width="16" height="80"/>
  <object id="110" x="1792" y="976" width="8" height="72"/>
  <object id="111" x="448" y="984" width="56" height="56"/>
  <object id="112" x="704" y="984" width="40" height="56"/>
  <object id="113" x="1128" y="984" width="8" height="56"/>
  <object id="114" x="1216" y="984" width="80" height="56"/>
  <object id="115" x="1656" y="984" width="40" height="64"/>
  <object id="116" x="1728" y="984" width="8" height="64"/>
  <object id="117" x="1784" y="984" width="8" height="64"/>
  <object id="118" x="1736" y="992" width="16" height="56"/>
  <object id="119" x="1752" y="1000" width="32" height="48"/>
  <object id="120" x="80" y="1016" width="40" height="32"/>
 </objectgroup>
 <objectgroup id="335" name="collision">
  <object id="121" x="424" y="136" width="176" height="8"/>
  <object id="122" x="744" y="136" width="456" height="8"/>
  <object id="123" x="424" y="144" width="8" height="80"/>
  <object id="124" x="592" y="144" width="8" height="16"/>
  <object id="125" x="744" y="144" width="8" height="16"/>
  <object id="126" x="1192" y="144" width="8" height="80"/>
  <object id="127" x="600" y="152" width="144" height="8"/>
  <object id="128" x="1344" y="192" width="104" height="8"/>
  <object id="129" x="1344" y="200" width="8" height="104"/>
  <object id="130" x="1440" y="200" width="8" height="88"/>
  <object id="131" x="432" y="216" width="24" height="8"/>
  <object id="132" x="1176" y="216" width="16" height="8"/>
  <object id="133" x="448" y="224" width="8" height="32"/>
  <object id="134" x="1176" y="224" width="8" height="24"/>
  <object id="135" x="1160" y="232" width="16" height="16"/>
  <object id="136" x="648" y="240" width="448" height="8"/>
  <object id="137" x="1184" y="240" width="8" height="24"/>
  <object id="138" x="432" y="248" width="16" height="8"/>
  <object id="139" x="648" y="248" width="8" height="24"/>
  <object id="140" x="1088" y="248" width="8" height="112"/>
  <object id="141" x="424" y="256" width="16" height="8"/>
  <object id="142" x="1192" y="256" width="24" height="8"/>
  <object id="143" x="1456" y="256" width="368" height="8"/>
  <object id="144" x="384" y="264" width="48" height="8"/>
  <object id="145" x="640" y="264" width="8" height="96"/>
  <object id="146" x="1208" y="264" width="8" height="40"/>
  <object id="147" x="1456" y="264" width="8" height="24"/>
  <object id="148" x="1816" y="264" width="8" height="24"/>
  <object id="149" x="384" y="272" width="8" height="40"/>
  <object id="150" x="1872" y="272" width="8" height="80"/>
  <object id="151" x="1448" y="280" width="8" height="8"/>
  <object id="152" x="1824" y="280" width="48" height="8"/>
  <object id="153" x="1216" y="296" width="8" height="40"/>
  <object id="154" x="1336" y="296" width="8" height="40"/>
  <object id="155" x="264" y="304" width="64" height="8"/>
  <object id="156" x="344" y="304" width="40" height="8"/>
  <object id="157" x="264" y="312" width="8" height="56"/>
  <object id="158" x="320" y="312" width="32" height="8"/>
  <object id="159" x="336" y="320" width="16" height="8"/>
  <object id="160" x="784" y="328" width="168" height="8"/>
  <object id="161" x="1224" y="328" width="112" height="8"/>
  <object id="162" x="784" y="336" width="8" height="40"/>
  <object id="163" x="944" y="336" width="8" height="48"/>
  <object id="164" x="1832" y="344" width="40" height="8"/>
  <object id="165" x="648" y="352" width="88" height="8"/>
  <object id="166" x="1008" y="352" width="80" height="8"/>
  <object id="167" x="1832" y="352" width="8" height="72"/>
  <object id="168" x="200" y="360" width="64" height="8"/>
  <object id="169" x="728" y="360" width="8" height="16"/>
  <object id="170" x="1008" y="360" width="8" height="16"/>
  <object id="171" x="200" y="368" width="8" height="96"/>
  <object id="172" x="736" y="368" width="8" height="24"/>
  <object id="173" x="776" y="368" width="8" height="24"/>
  <object id="174" x="1000" y="368" width="8" height="24"/>
  <object id="175" x="952" y="376" width="16" height="8"/>
  <object id="176" x="1448" y="376" width="272" height="8"/>
  <object id="177" x="744" y="384" width="32" height="8"/>
  <object id="178" x="960" y="384" width="40" height="8"/>
  <object id="179" x="1448" y="384" width="8" height="120"/>
  <object id="180" x="1712" y="384" width="16" height="8"/>
  <object id="181" x="1720" y="392" width="8" height="16"/>
  <object id="182" x="1728" y="400" width="48" height="8"/>
  <object id="183" x="1768" y="408" width="8" height="16"/>
  <object id="184" x="1776" y="416" width="56" height="8"/>
  <object id="185" x="208" y="456" width="48" height="8"/>
  <object id="186" x="248" y="464" width="8" height="48"/>
  <object id="187" x="1496" y="480" width="72" height="8"/>
  <object id="188" x="1496" y="488" width="8" height="16"/>
  <object id="189" x="1560" y="488" width="8" height="40"/>
  <object id="190" x="1456" y="496" width="40" height="8"/>
  <object id="191" x="1824" y="496" width="64" height="8"/>
  <object id="192" x="256" y="504" width="200" height="8"/>
  <object id="193" x="1824" y="504" width="8" height="112"/>
  <object id="194" x="1880" y="504" width="8" height="360"/>
  <object id="195" x="448" y="512" width="56" height="8"/>
  <object id="196" x="496" y="520" width="8" height="64"/>
  <object id="197" x="1568" y="520" width="8" height="32"/>
  <object id="198" x="1608" y="528" width="80" height="8"/>
  <object id="199" x="1608" y="536" width="8" height="16"/>
  <object id="200" x="1680" y="536" width="24" height="8"/>
  <object id="201" x="200" y="544" width="72" height="8"/>
  <object id="202" x="816" y="544" width="272" height="8"/>
  <object id="203" x="1576" y="544" width="32" height="8"/>
  <object id="204" x="1696" y="544" width="8" height="32"/>
  <object id="205" x="200" y="552" width="8" height="16"/>
  <object id="206" x="264" y="552" width="8" height="72"/>
  <object id="207" x="816" y="552" width="8" height="168"/>
  <object id="208" x="1080" y="552" width="8" height="160"/>
  <object id="209" x="192" y="560" width="8" height="16"/>
  <object id="210" x="184" y="568" width="8" height="16"/>
  <object id="211" x="1704" y="568" width="80" height="8"/>
  <object id="212" x="176" y="576" width="8" height="16"/>
  <object id="213" x="488" y="576" width="8" height="40"/>
  <object id="214" x="1776" y="576" width="8" height="40"/>
  <object id="215" x="168" y="584" width="8" height="24"/>
  <object id="216" x="704" y="584" width="64" height="8"/>
  <object id="217" x="1136" y="584" width="64" height="8"/>
  <object id="218" x="704" y="592" width="8" height="160"/>
  <object id="219" x="760" y="592" width="8" height="160"/>
  <object id="220" x="1136" y="592" width="8" height="160"/>
  <object id="221" x="1192" y="592" width="8" height="160"/>
  <object id="222" x="160" y="600" width="8" height="16"/>
  <object id="223" x="152" y="608" width="8" height="16"/>
  <object id="224" x="480" y="608" width="8" height="32"/>
  <object id="225" x="1784" y="608" width="40" height="8"/>
  <object id="226" x="144" y="616" width="8" height="24"/>
  <object id="227" x="272" y="616" width="48" height="8"/>
  <object id="228" x="136" y="624" width="8" height="24"/>
  <object id="229" x="312" y="624" width="16" height="8"/>
  <object id="230" x="320" y="632" width="16" height="8"/>
  <object id="231" x="392" y="632" width="88" height="8"/>
  <object id="232" x="128" y="640" width="8" height="16"/>
  <object id="233" x="328" y="640" width="8" height="24"/>
  <object id="234" x="392" y="640" width="8" height="24"/>
  <object id="235" x="120" y="648" width="8" height="24"/>
  <object id="236" x="336" y="656" width="56" height="8"/>
  <object id="237" x="112" y="664" width="8" height="16"/>
  <object id="238" x="104" y="672" width="8" height="16"/>
  <object id="239" x="96" y="680" width="8" height="56"/>
  <object id="240" x="1056" y="704" width="24" height="8"/>
  <object id="241" x="824" y="712" width="240" height="8"/>
  <object id="242" x="848" y="720" width="8" height="32"/>
  <object id="243" x="1040" y="720" width="16" height="32"/>
  <object id="244" x="40" y="728" width="56" height="8"/>
  <object id="245" x="1376" y="728" width="328" height="8"/>
  <object id="246" x="40" y="736" width="8" height="144"/>
  <object id="247" x="1376" y="736" width="8" height="120"/>
  <object id="248" x="1696" y="736" width="8" height="128"/>
  <object id="249" x="712" y="744" width="48" height="8"/>
  <object id="250" x="1144" y="744" width="48" height="8"/>
  <object id="251" x="1760" y="784" width="48" height="8"/>
  <object id="252" x="1760" y="792" width="8" height="48"/>
  <object id="253" x="1800" y="792" width="8" height="72"/>
  <object id="254" x="168" y="800" width="376" height="8"/>
  <object id="255" x="168" y="808" width="8" height="16"/>
  <object id="256" x="536" y="808" width="8" height="88"/>
  <object id="257" x="160" y="816" width="8" height="64"/>
  <object id="258" x="1768" y="832" width="16" height="8"/>
  <object id="259" x="1688" y="840" width="8" height="8"/>
  <object id="260" x="1776" y="840" width="8" height="64"/>
  <object id="261" x="1384" y="848" width="104" height="8"/>
  <object id="262" x="1480" y="856" width="8" height="24"/>
  <object id="263" x="1536" y="856" width="160" height="8"/>
  <object id="264" x="1808" y="856" width="72" height="8"/>
  <object id="265" x="1536" y="864" width="8" height="32"/>
  <object id="266" x="48" y="872" width="112" height="8"/>
  <object id="267" x="1488" y="872" width="8" height="32"/>
  <object id="268" x="128" y="888" width="288" height="8"/>
  <object id="269" x="496" y="888" width="40" height="8"/>
  <object id="270" x="1528" y="888" width="8" height="16"/>
  <object id="271" x="128" y="896" width="8" height="24"/>
  <object id="272" x="408" y="896" width="8" height="16"/>
  <object id="273" x="496" y="896" width="8" height="16"/>
  <object id="274" x="1496" y="896" width="32" height="8"/>
  <object id="275" x="1760" y="896" width="16" height="8"/>
  <object id="276" x="416" y="904" width="80" height="8"/>
  <object id="277" x="1760" y="904" width="8" height="16"/>
  <object id="278" x="120" y="912" width="8" height="16"/>
  <object id="279" x="1728" y="912" width="32" height="8"/>
  <object id="280" x="72" y="920" width="48" height="8"/>
  <object id="281" x="1728" y="920" width="8" height="64"/>
  <object id="282" x="40" y="928" width="40" height="8"/>
  <object id="283" x="40" y="936" width="8" height="120"/>
  <object id="284" x="1824" y="936" width="64" height="8"/>
  <object id="285" x="1824" y="944" width="8" height="16"/>
  <object id="286" x="1880" y="944" width="8" height="112"/>
  <object id="287" x="1808" y="952" width="16" height="8"/>
  <object id="288" x="1792" y="960" width="24" height="8"/>
  <object id="289" x="1784" y="968" width="16" height="8"/>
  <object id="290" x="1736" y="976" width="8" height="16"/>
  <object id="291" x="1776" y="976" width="16" height="8"/>
  <object id="292" x="128" y="984" width="320" height="8"/>
  <object id="293" x="744" y="984" width="384" height="8"/>
  <object id="294" x="1296" y="984" width="360" height="8"/>
  <object id="295" x="1744" y="984" width="16" height="8"/>
  <object id="296" x="1776" y="984" width="8" height="16"/>
  <object id="297" x="128" y="992" width="8" height="32"/>
  <object id="298" x="440" y="992" width="8" height="56"/>
  <object id="299" x="744" y="992" width="8" height="56"/>
  <object id="300" x="1120" y="992" width="8" height="56"/>
  <object id="301" x="1296" y="992" width="8" height="56"/>
  <object id="302" x="1648" y="992" width="8" height="64"/>
  <object id="303" x="1752" y="992" width="24" height="8"/>
  <object id="304" x="120" y="1016" width="8" height="40"/>
  <object id="305" x="448" y="1040" width="296" height="8"/>
  <object id="306" x="1128" y="1040" width="168" height="8"/>
  <object id="307" x="48" y="1048" width="72" height="8"/>
  <object id="308" x="1656" y="1048" width="224" height="8"/>
 </objectgroup>
 <objectgroup id="336" name="overhead">
  <object id="309" x="646" y="118" width="444" height="132"><properties><property name="mask" value="mask_000.png"/><property name="baseline" value="356"/></properties></object>
  <object id="310" x="422" y="182" width="36" height="44"><properties><property name="mask" value="mask_001.png"/></properties></object>
  <object id="311" x="1830" y="310" width="44" height="44"><properties><property name="mask" value="mask_002.png"/></properties></object>
  <object id="312" x="1470" y="322" width="284" height="96"><properties><property name="mask" value="mask_003.png"/></properties></object>
  <object id="313" x="214" y="406" width="44" height="68"><properties><property name="mask" value="mask_004.png"/></properties></object>
  <object id="314" x="302" y="462" width="164" height="60"><properties><property name="mask" value="mask_005.png"/></properties></object>
  <object id="315" x="798" y="542" width="28" height="156"><properties><property name="mask" value="mask_006.png"/></properties></object>
  <object id="316" x="1078" y="542" width="20" height="68"><properties><property name="mask" value="mask_007.png"/></properties></object>
  <object id="317" x="710" y="566" width="52" height="28"><properties><property name="mask" value="mask_008.png"/></properties></object>
  <object id="318" x="1142" y="566" width="52" height="28"><properties><property name="mask" value="mask_009.png"/></properties></object>
  <object id="319" x="1078" y="622" width="20" height="68"><properties><property name="mask" value="mask_010.png"/></properties></object>
  <object id="320" x="1390" y="670" width="252" height="68"><properties><property name="mask" value="mask_011.png"/></properties></object>
  <object id="321" x="1730" y="686" width="104" height="108"><properties><property name="mask" value="mask_012.png"/></properties></object>
  <object id="322" x="158" y="734" width="364" height="84"><properties><property name="mask" value="mask_013.png"/></properties></object>
  <object id="323" x="70" y="766" width="76" height="108"><properties><property name="mask" value="mask_014.png"/></properties></object>
  <object id="324" x="534" y="774" width="12" height="28"><properties><property name="mask" value="mask_015.png"/></properties></object>
  <object id="325" x="1726" y="886" width="60" height="44"><properties><property name="mask" value="mask_016.png"/></properties></object>
  <object id="326" x="750" y="950" width="372" height="52"><properties><property name="mask" value="mask_017.png"/></properties></object>
  <object id="327" x="1310" y="950" width="348" height="52"><properties><property name="mask" value="mask_018.png"/></properties></object>
  <object id="328" x="134" y="958" width="300" height="44"><properties><property name="mask" value="mask_019.png"/></properties></object>
 </objectgroup>
 <objectgroup id="337" name="baseline">
  <object id="333" x="646" y="356"><polyline points="0,0 442,0"/></object>
 </objectgroup>
 <objectgroup id="338" name="spawn">
  <object id="329" name="player" x="611" y="987"><point/></object>
  <object id="330" name="sasu" x="1535" y="530"><point/></object>
  <object id="331" name="bujang" x="825" y="364"><point/></object>
  <object id="332" name="teamjang" x="290" y="650"><point/></object>
 </objectgroup>
</map>
