<?xml version="1.0" encoding="UTF-8"?>
<map version="1.10" tiledversion="1.12.2" orientation="orthogonal" renderorder="right-down" width="80" height="45" tilewidth="24" tileheight="24" infinite="0" nextlayerid="7" nextobjectid="32">
 <imagelayer id="2" name="background" locked="1">
  <image source="생산품질_관리사무실.png" width="1920" height="1080"/>
 </imagelayer>
 <objectgroup id="3" name="play_bounds" locked="1">
  <object id="1" name="main_play_area" x="70" y="80" width="1780" height="656"/>
 </objectgroup>
 <objectgroup id="4" name="walkable" locked="1">
  <object id="2" name="walkable" x="70" y="80" width="1780" height="656"/>
 </objectgroup>
 <objectgroup id="5" name="collision" locked="1">
  <object id="3" x="413.439" y="94.1312" width="764.124" height="188.262"/>
  <object id="4" x="391.291" y="269.474" width="11.0743" height="173.497"/>
  <object id="5" x="160.577" y="239.942" width="173.497" height="66.4456"/>
  <object id="6" x="73.8284" y="86.7484" width="328.536" height="103.36"/>
  <object id="7" x="387.599" y="190.108" width="20.3028" height="88.5941"/>
  <object id="8" x="70.137" y="370.988" width="230.714" height="140.274"/>
  <object id="9" x="51.6799" y="505.725" width="70.137" height="116.28"/>
  <object id="10" x="51.6799" y="605.393" width="243.634" height="68.2913"/>
  <object id="11" x="51.6799" y="673.684" width="46.1428" height="62.7541"/>
  <object id="12" x="153.194" y="710.598" width="42.4513" height="22.1485"/>
  <object id="13" x="442.97" y="581.399" width="356.222" height="145.811"/>
  <object id="14" x="909.935" y="594.319" width="418.976" height="140.274"/>
  <object id="15" x="645.999" y="394.982" width="557.404" height="84.9027"/>
  <object id="16" x="1317.84" y="121.817" width="169.805" height="114.434"/>
  <object id="17" x="1489.49" y="123.663" width="75.6741" height="164.268"/>
  <object id="18" x="1441.5" y="239.942" width="62.7541" height="481.73"/>
  <object id="19" x="1533.79" y="365.451" width="75.6741" height="186.417"/>
  <object id="21" x="1559.63" y="553.713" width="40.6056" height="66.4456"/>
  <object id="22" x="1670.37" y="426.359" width="180.88" height="243.634"/>
  <object id="23" x="1653.76" y="107.051" width="191.954" height="262.091"/>
  <object id="24" x="1779.26" y="79.3655" width="66.4456" height="31.3771"/>
  <object id="25" x="1653.76" y="75.6741" width="38.7599" height="36.9142"/>
  <object id="26" x="1615" y="729.056" width="239.942"/>
  <object id="27" x="1845.71" y="669.993" width="16.6114" height="73.8284"/>
 </objectgroup>
 <objectgroup id="6" name="spawn" locked="1">
  <object id="28" name="player" x="754.895" y="511.262">
   <point/>
  </object>
  <object id="29" name="sasu" x="1127.73" y="507.57">
   <point/>
  </object>
  <object id="30" name="teamjang" x="1611.3" y="339.611">
   <point/>
  </object>
  <object id="31" name="bujang" x="134.737" y="289.776">
   <point/>
  </object>
 </objectgroup>
</map>
